Thorcito/FGP_ROBOT/src/controller/tum_ics_ur_robot/tum_ics_ur_robot_controllers/src/matlab/robotData.csv
%time,field.header.seq,field.header.stamp,field.header.frame_id,field.time,field.q0,field.q1,field.q2,field.q3,field.q4,field.q5,field.qp0,field.qp1,field.qp2,field.qp3,field.qp4,field.qp5,field.qpp0,field.qpp1,field.qpp2,field.qpp3,field.qpp4,field.qpp5,field.qf0,field.qf1,field.qf2,field.qf3,field.qf4,field.qf5,field.qpf0,field.qpf1,field.qpf2,field.qpf3,field.qpf4,field.qpf5,field.qppf0,field.qppf1,field.qppf2,field.qppf3,field.qppf4,field.qppf5,field.Xef_00,field.Xef_01,field.Xef_02,field.Xef_03,field.Xef_04,field.Xef_05,field.Xefp_00,field.Xefp_01,field.Xefp_02,field.Xefp_03,field.Xefp_04,field.Xefp_05,field.Xeff_00,field.Xeff_01,field.Xeff_02,field.Xeff_03,field.Xeff_04,field.Xeff_05,field.Xefpf_00,field.Xefpf_01,field.Xefpf_02,field.Xefpf_03,field.Xefpf_04,field.Xefpf_05,field.torques0,field.torques1,field.torques2,field.torques3,field.torques4,field.torques5
1455906288157991336,26,1455906288157991336,,0.0549757480621,-0.000104859539435,-1.57099216976,0.173141088424,-1.57011398658,0.0013424320087,0.000496825884915,-0.0033849598627,-0.0146637312271,-0.0269719011567,0.00830511331007,0.0224154692579,0.0123004309973,-0.0205562655091,-0.346034144978,0.0322815161491,-0.214412620573,-0.198744257056,-0.0423042399058,-6.81235253462e-05,-1.57084973788,0.173446470659,-1.57022054436,0.00107725530175,0.000353602258327,-0.00304263243807,-0.0103160387888,-0.0277560516771,0.0108214873662,0.0252015428788,0.0127798329694,-0.0424051095296,-0.446662903293,0.147859759101,-0.278331395777,-0.312549473493,0.00200886089564,0.0,0.0,0.0,0.0,0.0,0.0,0.0,0.0,0.0,0.0,0.0,0.0,0.0,0.0,0.0,0.0,0.0,0.0,0.0,0.0,0.0,0.0,0.0,0.0,0.391671666028,1.24451203713,2.90892120993,-1.02695272506,-0.443038920696,-0.666983534156
1455906288160064864,27,1455906288160064864,,0.0570492744446,-0.000111667208072,-1.57102217934,0.173087207872,-1.57009780663,0.00138686707231,0.000521336471793,-0.00342270877491,-0.0153458509833,-0.026908650548,0.00787483911111,0.0220195943508,0.01221015588,-0.0171926467006,-0.336085611281,0.0309690925165,-0.21586157839,-0.197130649965,-0.0479708774227,-7.42903765252e-05,-1.57087118763,0.173391018772,-1.57019928833,0.00112719587861,0.000379152973944,-0.00312374609355,-0.0111615088301,-0.0275908906734,0.0103582613907,0.0246685356554,0.0127700288634,-0.0382358986004,-0.426609124101,0.122245173524,-0.261182798306,-0.290956069024,-0.0126667509695,0.0,0.0,0.0,0.0,0.0,0.0,0.0,0.0,0.0,0.0,0.0,0.0,0.0,0.0,0.0,0.0,0.0,0.0,0.0,0.0,0.0,0.0,0.0,0.0,0.404864352963,1.32217347325,2.94575512142,-1.01252266172,-0.445825006027,-0.665227625419
1455906288162138027,28,1455906288162138027,,0.0591223239899,-0.000118543711116,-1.57105353346,0.17303345125,-1.57008248989,0.00143051369039,0.00054565564407,-0.0034537942693,-0.0160082636627,-0.0268479722225,0.00744189684839,0.0216270237289,0.0121090163968,-0.0138928476863,-0.326327068074,0.0297092330335,-0.217080684328,-0.195439971956,-0.0531686057809,-8.06109205154e-05,-1.57089430816,0.173335919697,-1.57017897871,0.00117606453284,0.000404656662285,-0.0031964849847,-0.0119774306451,-0.027438707492,0.00990084601237,0.0241534458038,0.0127330942372,-0.034190080616,-0.407718746075,0.099415193461,-0.246738509931,-0.270806561566,-0.0248331153848,0.0,0.0,0.0,0.0,0.0,0.0,0.0,0.0,0.0,0.0,0.0,0.0,0.0,0.0,0.0,0.0,0.0,0.0,0.0,0.0,0.0,0.0,0.0,0.0,0.417807601201,1.39936845302,2.98290778983,-0.997333667769,-0.448558921934,-0.662815194995
1455906288164205938,29,1455906288164205938,,0.061190366745,-0.000125475849825,-1.57108619307,0.172979813532,-1.57006804124,0.00147337861149,0.000569762553076,-0.00347834443927,-0.016651352524,-0.0267897453984,0.00700674903308,0.0212378973787,0.0119978926094,-0.0106573222911,-0.316761793217,0.0285175910738,-0.218067130983,-0.193686378237,-0.0579551816221,-8.70687196505e-05,-1.5709190392,0.173281139575,-1.57015959931,0.00122390292122,0.000430063814089,-0.00326112991748,-0.0127644442864,-0.0273005085376,0.00944881720665,0.023657463086,0.0126737247714,-0.0302706192787,-0.390131812005,0.0796897817777,-0.235026627261,-0.252655646759,-0.0348691463099,0.0,0.0,0.0,0.0,0.0,0.0,0.0,0.0,0.0,0.0,0.0,0.0,0.0,0.0,0.0,0.0,0.0,0.0,0.0,0.0,0.0,0.0,0.0,0.0,0.43049352169,1.47609942712,3.02037387967,-0.981409447356,-0.451242982585,-0.659795985575
1455906288166286867,30,1455906288166286867,,0.0632712841034,-0.000132450675302,-1.57112011992,0.17292628996,-1.57005446464,0.00151546893104,0.000593638016873,-0.00349648103746,-0.0172754964286,-0.0267338269344,0.00656985653944,0.0208524221653,0.011877571188,-0.00747927589801,-0.307382111399,0.0274008729277,-0.218825362649,-0.191788835233,-0.0623662397632,-9.36478946768e-05,-1.5709453222,0.173226643989,-1.57014113543,0.00127075352819,0.000455333566677,-0.00331796091158,-0.0135235104634,-0.0271763826253,0.00900147205537,0.0231805853228,0.0125958757227,-0.0264761774863,-0.37388700687,0.0631308270175,-0.225908496414,-0.236780676934,-0.0431319953195,0.0,0.0,0.0,0.0,0.0,0.0,0.0,0.0,0.0,0.0,0.0,0.0,0.0,0.0,0.0,0.0,0.0,0.0,0.0,0.0,0.0,0.0,0.0,0.0,0.442972506167,1.55239871331,3.05815785977,-0.96476391295,-0.453875544402,-0.656199884272
1455906288168369347,31,1455906288168369347,,0.0653536319733,-0.000139455477519,-1.57115527649,0.172872876075,-1.5700417631,0.00155679216701,0.000617264346655,-0.00350832118038,-0.0178810699803,-0.0266800580989,0.00613167780106,0.0204708138099,0.0117487585932,-0.00436086701978,-0.298191440278,0.0263679625702,-0.21935337573,-0.189819520088,-0.0664463550168,-0.000100333114173,-1.57097310093,0.173172399715,-1.57012357444,0.00131665752826,0.000480432273955,-0.00336724900109,-0.0142557835426,-0.0270657631303,0.00855797434328,0.0227219853025,0.012502814244,-0.0228023285241,-0.358949791466,0.0496165341166,-0.219136052314,-0.223248782811,-0.0499467949372,0.0,0.0,0.0,0.0,0.0,0.0,0.0,0.0,0.0,0.0,0.0,0.0,0.0,0.0,0.0,0.0,0.0,0.0,0.0,0.0,0.0,0.0,0.0,0.0,0.455220191143,1.62826149123,3.09624706147,-0.947425511916,-0.456460825532,-0.652070287844
1455906288170434963,32,1455906288170434963,,0.0674192905426,-0.000146477787899,-1.57119162601,0.172819567754,-1.57002993875,0.00159735607509,0.000640625178543,-0.0035139891992,-0.0184684577429,-0.026628262676,0.00569267602092,0.0200930942729,0.0116120732949,-0.00130715180342,-0.289196322337,0.0254274602869,-0.219648404414,-0.187900016977,-0.0702389433429,-0.000107109570804,-1.57100232177,0.173118375904,-1.57010690598,0.00136165337682,0.000505332198376,-0.00340925085558,-0.0149625121459,-0.0269676458028,0.00811746370589,0.0222803105748,0.012397188259,-0.0192427511753,-0.345236225836,0.0389033149496,-0.214397768626,-0.211978634396,-0.0556011086178,0.0,0.0,0.0,0.0,0.0,0.0,0.0,0.0,0.0,0.0,0.0,0.0,0.0,0.0,0.0,0.0,0.0,0.0,0.0,0.0,0.0,0.0,0.0,0.0,0.467187818626,1.70367092614,3.13462249334,-0.929427746865,-0.459004889786,-0.647452389105
1455906288172496320,33,1455906288172496320,,0.0694806575775,-0.000153505386463,-1.57122913251,0.172766361238,-1.57001899277,0.00163716841388,0.000663705322896,-0.00351360936479,-0.0190380419571,-0.0265782532446,0.00525330703385,0.0197192445159,0.0114680710582,0.00168698621936,-0.280387891869,0.0245819711664,-0.219720582655,-0.185949739998,-0.0737632933367,-0.000113962949639,-1.57103293383,0.173064544797,-1.57009112196,0.00140577597986,0.000530010349432,-0.00344420590766,-0.015644964622,-0.0268807639949,0.00767913341764,0.0218539160366,0.0122811035663,-0.0157902297343,-0.332632332701,0.0306756168673,-0.211354320912,-0.202792328269,-0.0603428144752,0.0,0.0,0.0,0.0,0.0,0.0,0.0,0.0,0.0,0.0,0.0,0.0,0.0,0.0,0.0,0.0,0.0,0.0,0.0,0.0,0.0,0.0,0.0,0.0,0.478911292588,1.77865335704,3.17328105766,-0.910789151606,-0.46150595447,-0.642367065773
1455906288174564724,34,1455906288174564724,,0.0715491771698,-0.000160526291253,-1.57126776074,0.172713253146,-1.57000892546,0.00167623707993,0.00068649066764,-0.00350729542532,-0.0195901858379,-0.026529838595,0.00481400481193,0.0193494215266,0.011317273686,0.00462695324374,-0.271755988904,0.0238326784415,-0.219581639269,-0.183873249277,-0.0770340788715,-0.000120879392673,-1.57106488894,0.173010882087,-1.57007621638,0.00144905630668,0.000554447479358,-0.00347233521491,-0.0163043755722,-0.026803724914,0.00724228162187,0.0214410412564,0.0121562035456,-0.0124371657551,-0.321008887097,0.0245845099444,-0.209665424046,-0.195451975735,-0.0643800208759,0.0,0.0,0.0,0.0,0.0,0.0,0.0,0.0,0.0,0.0,0.0,0.0,0.0,0.0,0.0,0.0,0.0,0.0,0.0,0.0,0.0,0.0,0.0,0.0,0.490428944298,1.85323650085,3.21221910956,-0.89152793049,-0.463961610113,-0.636831813594
1455906288176586454,35,1455906288176586454,,0.073570728302,-0.000167528762012,-1.57130747619,0.172660240496,-1.56999973625,0.00171457005818,0.000708968074724,-0.00349517533347,-0.0201252660061,-0.0264828118375,0.00437520075718,0.018983556726,0.0111601333977,0.00749313860623,-0.263324179364,0.0231940790556,-0.21922241548,-0.181991551352,-0.0801062094012,-0.000127845462464,-1.57109814152,0.172957367003,-1.57006218502,0.0014915213338,0.000578627236723,-0.00349384155204,-0.0169419098135,-0.0267351114027,0.00680634091696,0.0210399420647,0.0120237470596,-0.00917614775296,-0.310232807299,0.020276576013,-0.20900862971,-0.189691018456,-0.0678832243429,0.0,0.0,0.0,0.0,0.0,0.0,0.0,0.0,0.0,0.0,0.0,0.0,0.0,0.0,0.0,0.0,0.0,0.0,0.0,0.0,0.0,0.0,0.0,0.0,0.501572206093,1.92734387415,3.25138976235,-0.871700673275,-0.466385676087,-0.630911070154
1455906288178653980,36,1455906288178653980,,0.07563829422,-0.000174501296758,-1.57134824509,0.172607320706,-1.56999142375,0.0017521754295,0.000731125301513,-0.00347735941243,-0.0206436286705,-0.0264369780921,0.00393730293904,0.0186218145937,0.0109970933921,0.0103227824375,-0.255038485043,0.0226396663577,-0.218675402657,-0.179750580931,-0.0829337962323,-0.000134848106982,-1.57113264839,0.172903982204,-1.57004902514,0.00153319422448,0.000602535470784,-0.0035089104558,-0.0175586405472,-0.0266735542698,0.00637089123593,0.0206489813555,0.0118846811688,-0.00600024557428,-0.300175192663,0.0174141856806,-0.209091567991,-0.185236947565,-0.0709884986779,0.0,0.0,0.0,0.0,0.0,0.0,0.0,0.0,0.0,0.0,0.0,0.0,0.0,0.0,0.0,0.0,0.0,0.0,0.0,0.0,0.0,0.0,0.0,0.0,0.512639791565,2.00113346535,3.29084131704,-0.85127579899,-0.468757256244,-0.624556376766
1455906288180719544,37,1455906288180719544,,0.0777039527893,-0.000181432593766,-1.5713900343,0.172554491569,-1.56998398575,0.00178906186907,0.000752950992388,-0.00345393759531,-0.0211455855365,-0.0263921587522,0.00350069415442,0.0182646249793,0.0108285974826,0.0130990346863,-0.246918380935,0.0221796735058,-0.21793338197,-0.177439033497,-0.0855621132735,-0.000141874626657,-1.57116836858,0.17285071354,-1.57003673507,0.00157409466994,0.000626159675107,-0.00351771132486,-0.0181555378587,-0.0266177807512,0.00593566000521,0.0202666937659,0.0117397075965,-0.00290272884363,-0.290716093868,0.0156884398501,-0.209659223473,-0.181820986885,-0.0738006318568,0.0,0.0,0.0,0.0,0.0,0.0,0.0,0.0,0.0,0.0,0.0,0.0,0.0,0.0,0.0,0.0,0.0,0.0,0.0,0.0,0.0,0.0,0.0,0.0,0.523485494798,2.0745394216,3.33053075434,-0.830305105951,-0.47108872093,-0.617823332103
1455906288182783803,38,1455906288182783803,,0.0797681808472,-0.00018831154639,-1.57143281135,0.172501751237,-1.56997741929,0.00182523850757,0.000774434620272,-0.0034250150291,-0.0216314650133,-0.0263481727132,0.00306576585731,0.0179120135208,0.0106550304008,0.0158235315178,-0.2389610958,0.021806365464,-0.21699491513,-0.175172424943,-0.0880049685146,-0.000148912643583,-1.57120526304,0.172797549737,-1.57002531389,0.0016142393374,0.000649488556465,-0.00352039847601,-0.018733465062,-0.0265666438861,0.00550051350305,0.0198918266358,0.0115893415304,0.000122702290774,-0.281748007469,0.0148268989475,-0.210496611564,-0.17919319382,-0.0763976652603,0.0,0.0,0.0,0.0,0.0,0.0,0.0,0.0,0.0,0.0,0.0,0.0,0.0,0.0,0.0,0.0,0.0,0.0,0.0,0.0,0.0,0.0,0.0,0.0,0.534112263506,2.14756884204,3.37044719358,-0.808810697319,-0.473385041171,-0.610732171587
1455906288184844221,39,1455906288184844221,,0.0818285942078,-0.000195127256614,-1.57147654441,0.17244909822,-1.56997172062,0.00186071440522,0.000795566401291,-0.00339069519505,-0.0221015897986,-0.0263048446269,0.00263290156527,0.0175638841248,0.0104767506182,0.0184963025342,-0.231163689531,0.0215217208963,-0.215869376913,-0.172956971069,-0.090274814042,-0.000155950073418,-1.57124329448,0.172744482039,-1.57001476107,0.00165364236474,0.000672511711761,-0.00351711280224,-0.0192931817527,-0.0265191366113,0.00506544317053,0.01952334847,0.0114339608837,0.00308152829206,-0.273178044787,0.0145971925322,-0.211428283606,-0.177137208482,-0.0788358634859,0.0,0.0,0.0,0.0,0.0,0.0,0.0,0.0,0.0,0.0,0.0,0.0,0.0,0.0,0.0,0.0,0.0,0.0,0.0,0.0,0.0,0.0,0.0,0.0,0.544514074424,2.22022534585,3.41057720624,-0.786817720753,-0.475647530367,-0.603302658513
1455906288186905795,40,1455906288186905795,,0.0838901996613,-0.000201869030248,-1.57152120227,0.172396531381,-1.56996688526,0.00189549850328,0.000816337250331,-0.00335107843923,-0.022556272194,-0.0262619942584,0.0022024601716,0.017220213942,0.010294098422,0.0211204532832,-0.223518705897,0.0213286475305,-0.214572016763,-0.170713211816,-0.0923773822025,-0.000162975100911,-1.57128242708,0.172691503846,-1.57000507623,0.00169231584512,0.000695219394286,-0.00350798376902,-0.0198353514209,-0.0264743942193,0.00463054890334,0.0191604353766,0.011273846423,0.00597842659452,-0.264928309069,0.0148074400011,-0.212316311954,-0.175472418328,-0.0811538149967,0.0,0.0,0.0,0.0,0.0,0.0,0.0,0.0,0.0,0.0,0.0,0.0,0.0,0.0,0.0,0.0,0.0,0.0,0.0,0.0,0.0,0.0,0.0,0.0,0.554711701066,2.29252585644,3.45091311309,-0.764346226084,-0.477874287132,-0.595547145495
1455906288188969822,41,1455906288188969822,,0.0859541893005,-0.00020852636901,-1.57156675435,0.172344049948,-1.56996290803,0.00192959980811,0.000836738749576,-0.00330626032238,-0.0229958112884,-0.02621943859,0.00177477482172,0.0168810908878,0.0101074008234,0.023697663565,-0.216020388495,0.0212270209174,-0.213113333116,-0.168409842287,-0.0943202164144,-0.000169976159214,-1.57132262632,0.172638610358,-1.56999625882,0.00173027027255,0.000717602352321,-0.00349313125425,-0.0203605513933,-0.0264316883835,0.00419602043763,0.0188024522786,0.0111092140715,0.0088173676565,-0.256935258514,0.0153044958941,-0.213057110658,-0.174050459155,-0.0833760773491,0.0,0.0,0.0,0.0,0.0,0.0,0.0,0.0,0.0,0.0,0.0,0.0,0.0,0.0,0.0,0.0,0.0,0.0,0.0,0.0,0.0,0.0,0.0,0.0,0.564713223889,2.36448053681,3.49144404681,-0.741417587242,-0.480065076135,-0.587480109187
1455906288191034521,42,1455906288191034521,,0.0880188941956,-0.000215088963574,-1.57161317066,0.172291653511,-1.56995978309,0.00196302750653,0.000856763118491,-0.00325633424153,-0.0234204963774,-0.0261769986286,0.00135016318943,0.0165466075241,0.00991696809191,0.0262284172894,-0.208664700469,0.0212129404431,-0.211498299174,-0.166073521499,-0.0961125150556,-0.000176941912591,-1.5713638588,0.172585798251,-1.56998830795,0.00176751494228,0.000739651725248,-0.00347266715152,-0.0208692837821,-0.0263904155965,0.0037621182791,0.0184489336555,0.0109402401935,0.0116017070844,-0.249148500792,0.0159705311017,-0.213577249719,-0.172751955829,-0.0855164626157,0.0,0.0,0.0,0.0,0.0,0.0,0.0,0.0,0.0,0.0,0.0,0.0,0.0,0.0,0.0,0.0,0.0,0.0,0.0,0.0,0.0,0.0,0.0,0.0,0.574515552552,2.43609338166,3.53215643527,-0.718054095559,-0.482221660387,-0.57911795117
1455906288193096392,43,1455906288193096392,,0.0900807380676,-0.000221546691509,-1.57166042177,0.17223934201,-1.56995750399,0.00199579089834,0.000876403177847,-0.00320139369305,-0.0238306101641,-0.0261345029067,0.000928934050483,0.0162167842903,0.00972309126373,0.0287121311928,-0.20144908625,0.0212827815025,-0.209730839769,-0.163749712258,-0.0977643131296,-0.000183861242116,-1.5714060921,0.172533065397,-1.56998122223,0.00180405830262,0.000761358983803,-0.00344669680004,-0.0213619866524,-0.0263500825683,0.00332915567823,0.0180995616249,0.0107670805492,0.0143342178024,-0.241529333897,0.0167186117395,-0.213828684765,-0.171485132011,-0.0875809939205,0.0,0.0,0.0,0.0,0.0,0.0,0.0,0.0,0.0,0.0,0.0,0.0,0.0,0.0,0.0,0.0,0.0,0.0,0.0,0.0,0.0,0.0,0.0,0.0,0.584106893598,2.50736360615,3.57303495701,-0.694279169576,-0.484346499352,-0.57047825401
1455906288195158242,44,1455906288195158242,,0.0921425819397,-0.000227889615532,-1.5717084788,0.172187115719,-1.56995606367,0.00202789930079,0.000895652316376,-0.00314153032997,-0.0242264261534,-0.02609178723,0.000511384013826,0.0158916181626,0.00952604726529,0.031151231887,-0.194366903035,0.0214328951911,-0.207819196888,-0.161416415472,-0.0992796853099,-0.000190723234046,-1.57144929461,0.17248041061,-1.56997499965,0.00183990825251,0.000782715902664,-0.00341532028632,-0.0218390448423,-0.0263102904529,0.00289748257142,0.0177541405123,0.0105898837543,0.0170171394562,-0.234049106695,0.017487906056,-0.21378401288,-0.17018373645,-0.089570358719,0.0,0.0,0.0,0.0,0.0,0.0,0.0,0.0,0.0,0.0,0.0,0.0,0.0,0.0,0.0,0.0,0.0,0.0,0.0,0.0,0.0,0.0,0.0,0.0,0.593501169075,2.57830300971,3.61406992317,-0.670111193495,-0.486439482226,-0.561571875373
1455906288197218490,45,1455906288197218490,,0.0942027568817,-0.000234107979126,-1.57175731344,0.17213497524,-1.56995545449,0.00205936204356,0.000914504465567,-0.003076833264,-0.0246082077614,-0.0260486920424,9.77936868675e-05,0.0155711246058,0.00932610192547,0.0335458340842,-0.187414705029,0.0216622924352,-0.205771130071,-0.159077141291,-0.100665654507,-0.000197517170573,-1.57149343547,0.172427833445,-1.56996963749,0.00187507238157,0.000803714555455,-0.00337863355527,-0.0223007999219,-0.0262707191043,0.00246747170722,0.0174125711536,0.0104088003137,0.0196522768152,-0.22668748604,0.018238968727,-0.213432139305,-0.168803015058,-0.0914818047268,0.0,0.0,0.0,0.0,0.0,0.0,0.0,0.0,0.0,0.0,0.0,0.0,0.0,0.0,0.0,0.0,0.0,0.0,0.0,0.0,0.0,0.0,0.0,0.0,0.602693860625,2.64891376031,3.65524811771,-0.645571729224,-0.488501545231,-0.552413224191
1455906288199279403,46,1455906288199279403,,0.0962636470795,-0.000240192201658,-1.57180689786,0.172082921486,-1.56995566827,0.00209018850372,0.000932954078221,-0.00300738926814,-0.0249762088652,-0.0260050620433,-0.000311572180595,0.0152553355486,0.00912351072827,0.0358981617769,-0.180586398752,0.0219677066475,-0.203594737391,-0.156711915922,-0.10192554269,-0.000204232522522,-1.57153848447,0.172375334032,-1.56996513227,0.00190955815604,0.00082434732432,-0.00333672928654,-0.0227475589658,-0.026231112113,0.00203950690133,0.0170748281268,0.0102239882291,0.0222410985972,-0.219430793164,0.0189493331262,-0.212774418099,-0.16731520562,-0.0933106022846,0.0,0.0,0.0,0.0,0.0,0.0,0.0,0.0,0.0,0.0,0.0,0.0,0.0,0.0,0.0,0.0,0.0,0.0,0.0,0.0,0.0,0.0,0.0,0.0,0.611697693262,2.71920618338,3.6965600518,-0.620678394386,-0.490532611071,-0.543012309518
1455906288201344774,47,1455906288201344774,,0.0983290672302,-0.000246132870656,-1.57185720473,0.172030955674,-1.56995669631,0.00212038816932,0.000950996113162,-0.00293327973023,-0.025330670027,-0.0259607499163,-0.000716464596267,0.0149443300583,0.0089185242132,0.0382113761251,-0.17387476301,0.0223444203583,-0.201297678282,-0.154293574368,-0.10306097238,-0.000210858943512,-1.57158441197,0.172322912947,-1.56996147973,0.00194337305868,0.000844606918092,-0.00328969751483,-0.0231796019781,-0.0261912631953,0.0016139733652,0.0167409411699,0.0100356160382,0.0247848626835,-0.21227043897,0.0196094699738,-0.211821278653,-0.165705089311,-0.0950510927888,0.0,0.0,0.0,0.0,0.0,0.0,0.0,0.0,0.0,0.0,0.0,0.0,0.0,0.0,0.0,0.0,0.0,0.0,0.0,0.0,0.0,0.0,0.0,0.0,0.620533031555,2.78919398502,3.73799794538,-0.595446686627,-0.492532241686,-0.53337700341
1455906288203420486,48,1455906288203420486,,0.10040473938,-0.00025192072879,-1.57190820722,0.171979079305,-1.56995852942,0.00214997074446,0.000968626028997,-0.00285457840355,-0.0256718161424,-0.0259156194209,-0.00111664926507,0.0146382450801,0.0087113916217,0.0404899505593,-0.167271352445,0.0227860750547,-0.198886990522,-0.151791403843,-0.104071619116,-0.000217386265019,-1.57163118888,0.172270571109,-1.56995867482,0.00197652469234,0.000864486394724,-0.00323762592889,-0.0235971878497,-0.0261510043923,0.00119125002366,0.0164109814618,0.00984386409342,0.0272847858971,-0.205201473504,0.020219172322,-0.210589360765,-0.163965649242,-0.096697352315,0.0,0.0,0.0,0.0,0.0,0.0,0.0,0.0,0.0,0.0,0.0,0.0,0.0,0.0,0.0,0.0,0.0,0.0,0.0,0.0,0.0,0.0,0.0,0.0,0.629230794766,2.85889552005,3.77955666545,-0.569889353189,-0.494499753685,-0.52351264057
1455906288205487387,49,1455906288205487387,,0.102471828461,-0.000257546671471,-1.57195987891,0.171927294148,-1.56996115797,0.00217894604217,0.000985839761754,-0.00277136427762,-0.0259998748869,-0.025869536844,-0.00151189665471,0.0143370526297,0.00850234113516,0.0427241753733,-0.160787391992,0.0232965017654,-0.196360399119,-0.149401046555,-0.10497886743,-0.000223804491829,-1.57167878657,0.172218309713,-1.56995671172,0.00200902085494,0.000883979184854,-0.00318060000048,-0.0240005591035,-0.0261101961882,0.000771703799368,0.016085049765,0.00964892444593,0.0297420232998,-0.198221589824,0.0207845965428,-0.209099027884,-0.162097422314,-0.0982438862188,0.0,0.0,0.0,0.0,0.0,0.0,0.0,0.0,0.0,0.0,0.0,0.0,0.0,0.0,0.0,0.0,0.0,0.0,0.0,0.0,0.0,0.0,0.0,0.0,0.637705312077,2.92827010877,3.82120748158,-0.544040937883,-0.496443403433,-0.513450376889
1455906288207555291,50,1455906288207555291,,0.104539632797,-0.000263001755782,-1.57201219386,0.171875602243,-1.56996457185,0.00220732371196,0.00100263368629,-0.00268372003369,-0.026315074588,-0.0258223689974,-0.00190198603035,0.0140406171575,0.00829158340329,0.0449200685548,-0.154412309099,0.0238713449267,-0.193728976524,-0.147034425611,-0.105778864435,-0.000230103797919,-1.57172717691,0.172166130174,-1.56995558388,0.00204086958514,0.000903079113698,-0.00311870328046,-0.0243899459683,-0.0260687192857,0.000355685807144,0.0157632614638,0.00945099932386,0.0321575056714,-0.191330502589,0.0213159892886,-0.207372346345,-0.160109851479,-0.0996863099071,0.0,0.0,0.0,0.0,0.0,0.0,0.0,0.0,0.0,0.0,0.0,0.0,0.0,0.0,0.0,0.0,0.0,0.0,0.0,0.0,0.0,0.0,0.0,0.0,0.6460017845,2.99734270993,3.86294883422,-0.517910904424,-0.498360389309,-0.503191281172
1455906288209615439,51,1455906288209615439,,0.106599807739,-0.000268277202609,-1.57206512657,0.171824005892,-1.56996876055,0.00223511318992,0.0010190045914,-0.00259172679265,-0.026617635631,-0.0257739821093,-0.00228671511438,0.0137488608059,0.00807932169943,0.0470731724803,-0.148148733945,0.0245155430897,-0.191000107501,-0.144721926058,-0.106482839423,-0.000236274523066,-1.57177633219,0.172114034097,-1.56995528402,0.00207207917576,0.00092178041894,-0.0030520178567,-0.0247655698394,-0.0260264678017,-5.6471014011e-05,0.0154457309891,0.00925029867422,0.0345319283821,-0.184529261256,0.0218259173095,-0.205431760979,-0.158018783578,-0.101021583868,0.0,0.0,0.0,0.0,0.0,0.0,0.0,0.0,0.0,0.0,0.0,0.0,0.0,0.0,0.0,0.0,0.0,0.0,0.0,0.0,0.0,0.0,0.0,0.0,0.654080595945,3.06609596968,3.9047612474,-0.491524931004,-0.500252787136,-0.492754492924
1455906288211679773,52,1455906288211679773,,0.108664035797,-0.000273364391698,-1.57211865197,0.171772507665,-1.56997371317,0.00226232385528,0.00103494966833,-0.00249546229699,-0.0269077673001,-0.0257242442719,-0.0026659004166,0.0134618045485,0.00786575523828,0.0491913231806,-0.141982935173,0.0252222943315,-0.188185194727,-0.142334331309,-0.107083621735,-0.000242307170277,-1.57182622514,0.172062023255,-1.56995580419,0.00210265816091,0.000940077763534,-0.00298062471571,-0.0251276458246,-0.0259833437975,-0.000464453451005,0.0151325623781,0.00904703754186,0.0368658506242,-0.177819540345,0.0223278848722,-0.203299280085,-0.155841616088,-0.10224792654,0.0,0.0,0.0,0.0,0.0,0.0,0.0,0.0,0.0,0.0,0.0,0.0,0.0,0.0,0.0,0.0,0.0,0.0,0.0,0.0,0.0,0.0,0.0,0.0,0.662002345256,3.13456226143,3.94664593993,-0.464888461325,-0.502116117052,-0.482136726328
1455906288213743689,53,1455906288213743689,,0.110728025436,-0.000278254852181,-1.57217274541,0.171721110388,-1.56997941844,0.00228896521222,0.0010504665066,-0.00239499818612,-0.0271856645439,-0.0256730333503,-0.00303937214417,0.0131795523925,0.00765108303288,0.0512727876876,-0.135914308605,0.0259886272986,-0.185286532839,-0.139917824702,-0.107588583658,-0.000248192403685,-1.57187682888,0.172010099586,-1.56995713584,0.00213261529147,0.000957966243552,-0.0029046038623,-0.0254763842704,-0.025939253193,-0.000867968980545,0.0148238477335,0.00884143375026,0.0391598329262,-0.171203023192,0.0228351762651,-0.200995863911,-0.153593474086,-0.103364590165,0.0,0.0,0.0,0.0,0.0,0.0,0.0,0.0,0.0,0.0,0.0,0.0,0.0,0.0,0.0,0.0,0.0,0.0,0.0,0.0,0.0,0.0,0.0,0.0,0.669748030521,3.20273359024,3.98858750776,-0.43802137341,-0.503952659898,-0.471352084725
1455906288215807157,54,1455906288215807157,,0.112791538239,-0.000282940257479,-1.57222738259,0.171669817118,-1.56998586478,0.00231504688907,0.00106555308253,-0.00229040711175,-0.0274515186865,-0.0256202359668,-0.00340696452757,0.0129021244629,0.00743549289393,0.0533182866852,-0.129939834003,0.0268087562056,-0.182305850562,-0.137510104889,-0.108001555294,-0.000253921046515,-1.57192811698,0.171958265184,-1.56995926979,0.00216195951043,0.000975441391722,-0.00282403426125,-0.0258119915067,-0.0258941030998,-0.00126674600984,0.0145196691991,0.00863370591832,0.0414144748098,-0.164681069424,0.0233599641728,-0.198540854818,-0.151287093035,-0.104371743884,0.0,0.0,0.0,0.0,0.0,0.0,0.0,0.0,0.0,0.0,0.0,0.0,0.0,0.0,0.0,0.0,0.0,0.0,0.0,0.0,0.0,0.0,0.0,0.0,0.677318231954,3.27061102334,4.03057524153,-0.410939085461,-0.505764208745,-0.460410292909
1455906288217871946,55,1455906288217871946,,0.114856243134,-0.000287412423718,-1.57228253962,0.171618631134,-1.56999304026,0.00234057852485,0.00108020774271,-0.00218175912725,-0.0277055134271,-0.0255657482421,-0.0037685188516,0.0126295113147,0.00721916728851,0.0553296978119,-0.124054906577,0.0276789685185,-0.179248473463,-0.135103043259,-0.10832405013,-0.000259484078908,-1.57198006338,0.171906522311,-1.56996219637,0.0021906999306,0.000992499177186,-0.00273899376282,-0.0261346701925,-0.02584780038,-0.00166053331157,0.0142200993504,0.00842407165443,0.0436303922777,-0.158254588847,0.0239127478128,-0.195951575588,-0.148934368612,-0.105270411493,0.0,0.0,0.0,0.0,0.0,0.0,0.0,0.0,0.0,0.0,0.0,0.0,0.0,0.0,0.0,0.0,0.0,0.0,0.0,0.0,0.0,0.0,0.0,0.0,0.68472424155,3.33820081074,4.07260110256,-0.383654974824,-0.507550898399,-0.449318275093
1455906288219942128,56,1455906288219942128,,0.116926431656,-0.000291663301541,-1.57233819296,0.171567555912,-1.57000093267,0.00236556979457,0.00109442919847,-0.0020691186951,-0.0279478210803,-0.0255094732642,-0.00412388943025,0.0123617584099,0.0070022884707,0.0573107343448,-0.118252746674,0.0285960093562,-0.176122105191,-0.132649861617,-0.108554767681,-0.000264872635548,-1.57203264245,0.171854873394,-1.56996590537,0.0022188458122,0.00100913600193,-0.00264955897946,-0.0264446193504,-0.0258002511127,-0.00204909895587,0.0139252008017,0.00821274604941,0.0458082893694,-0.151923873419,0.0245020724615,-0.193243276114,-0.146545633741,-0.106062235335,0.0,0.0,0.0,0.0,0.0,0.0,0.0,0.0,0.0,0.0,0.0,0.0,0.0,0.0,0.0,0.0,0.0,0.0,0.0,0.0,0.0,0.0,0.0,0.0,0.691993121821,3.40551673495,4.11466091052,-0.356179129072,-0.509311393167,-0.438079336472
1455906288222010944,57,1455906288222010944,,0.118995189667,-0.000295684970807,-1.57239431939,0.171516595123,-1.5700095295,0.00239003042493,0.00110821651688,-0.00195255057124,-0.0281786112324,-0.025451315863,-0.00447294021441,0.0120988719409,0.00678502993608,0.0592573895116,-0.112537405429,0.0295613918413,-0.172928678967,-0.130236607376,-0.108703766933,-0.000270078002974,-1.5720858289,0.171803321036,-1.56997038615,0.00224640654122,0.00102534869461,-0.00255580508541,-0.0267420341434,-0.0257513605989,-0.0024322291017,0.0136350270112,0.00799994056068,0.0479489649761,-0.145688577911,0.025134540904,-0.190429241301,-0.144129364961,-0.106749323378,0.0,0.0,0.0,0.0,0.0,0.0,0.0,0.0,0.0,0.0,0.0,0.0,0.0,0.0,0.0,0.0,0.0,0.0,0.0,0.0,0.0,0.0,0.0,0.0,0.69908819088,3.47254016559,4.15673758965,-0.328533351357,-0.511049547193,-0.426710534875
1455906288224075475,58,1455906288224075475,,0.121059894562,-0.00029946964626,-1.57245089606,0.171465752628,-1.57001881798,0.00241397003362,0.00112156909606,-0.001832124882,-0.0283980577768,-0.0253911794884,-0.00481554090613,0.0118407367512,0.00656754924746,0.0611682997329,-0.106909138933,0.0305749826939,-0.169672012754,-0.127898582292,-0.108776921687,-0.000275091616621,-1.57213959788,0.17175186802,-1.56997562766,0.00227339160781,0.00104113450221,-0.00245780575796,-0.0270271057556,-0.025701033527,-0.00280972669143,0.0133496213974,0.00778586197461,0.050053166116,-0.139547950031,0.0258150367735,-0.187520874472,-0.141694430441,-0.107334327163,0.0,0.0,0.0,0.0,0.0,0.0,0.0,0.0,0.0,0.0,0.0,0.0,0.0,0.0,0.0,0.0,0.0,0.0,0.0,0.0,0.0,0.0,0.0,0.0,0.705994910064,3.53926344769,4.19881865277,-0.300734798131,-0.512767221195,-0.415223681345
1455906288226141366,59,1455906288226141366,,0.12312579155,-0.000303009680018,-1.57250790044,0.171415032478,-1.5700287851,0.00243739806022,0.00113448664615,-0.00170790887625,-0.02860632674,-0.0253289702646,-0.00515157428218,0.0115872898491,0.00635000083715,0.0630477060163,-0.101359824237,0.031634241174,-0.166361363299,-0.125548319785,-0.108771488627,-0.000279905057968,-1.57219392487,0.171700517309,-1.56998161843,0.00229981058104,0.00105649107962,-0.0023556333253,-0.0273000214967,-0.0256491741444,-0.00318141009614,0.0130690141858,0.00757071134434,0.0521215302279,-0.133500944824,0.0265469604997,-0.184527902294,-0.139250423212,-0.107820392199,0.0,0.0,0.0,0.0,0.0,0.0,0.0,0.0,0.0,0.0,0.0,0.0,0.0,0.0,0.0,0.0,0.0,0.0,0.0,0.0,0.0,0.0,0.0,0.0,0.71274599497,3.60570281243,4.24090115994,-0.272791384537,-0.514461546723,-0.40361979534
1455906288228207370,60,1455906288228207370,,0.125191688538,-0.000306297554735,-1.57256531034,0.17136443891,-1.57003941761,0.00246032390812,0.00114696918503,-0.00157996584024,-0.028803574168,-0.0252645977363,-0.00548093719378,0.0113385580521,0.0061325380496,0.0648953299907,-0.0958876037709,0.0327382871288,-0.163001548292,-0.123183477221,-0.108691298921,-0.000284510051941,-1.57224878575,0.171649272057,-1.56998834667,0.00232567308025,0.00107141647739,-0.00224935888406,-0.0275609647944,-0.0255956864994,-0.00354711195585,0.0127932218773,0.00735468324059,0.0541546752615,-0.12754612962,0.0273324098088,-0.181458719202,-0.136805035072,-0.108210898478,0.0,0.0,0.0,0.0,0.0,0.0,0.0,0.0,0.0,0.0,0.0,0.0,0.0,0.0,0.0,0.0,0.0,0.0,0.0,0.0,0.0,0.0,0.0,0.0,0.719336550758,3.67185530642,4.28297438833,-0.2447176781,-0.516132919389,-0.391907853309
1455906288230275374,61,1455906288230275374,,0.127259731293,-0.000309325877596,-1.57262310387,0.171313976335,-1.57005070208,0.00248275704693,0.00115901703307,-0.00144835702104,-0.0289899494188,-0.0251979774631,-0.00580353451332,0.0110945807637,0.00591530998254,0.0667134892065,-0.0904876470345,0.0338819860283,-0.159595771249,-0.120793811246,-0.10853676814,-0.000288898464421,-1.57230415675,0.171598135602,-1.56999580024,0.00235098874988,0.00108590912846,-0.00213905227607,-0.0278101149369,-0.025540474829,-0.00390667826199,0.0125222508724,0.00713796544542,0.0561532526655,-0.121681653879,0.0281723312187,-0.178320632484,-0.134362846311,-0.108509280997,0.0,0.0,0.0,0.0,0.0,0.0,0.0,0.0,0.0,0.0,0.0,0.0,0.0,0.0,0.0,0.0,0.0,0.0,0.0,0.0,0.0,0.0,0.0,0.0,0.725782128863,3.73772768693,4.32503205902,-0.216523507153,-0.517781221559,-0.380092407898
1455906288232344224,62,1455906288232344224,,0.129328489304,-0.000312087376363,-1.57268125941,0.171263649324,-1.57006262489,0.00250470700067,0.00117063080427,-0.00131314174529,-0.0291655961006,-0.025129033188,-0.0061192758656,0.0108553729726,0.00569846121668,0.06850178655,-0.0851590348171,0.0350622890883,-0.156145581038,-0.118413979762,-0.108311997716,-0.000293062299641,-1.57236001446,0.171547111475,-1.57000396674,0.00237576724242,0.00109996783451,-0.00202478200593,-0.0280476467241,-0.0254834441368,-0.00425996746669,0.0122561017617,0.00692073891195,0.0581179554534,-0.115905306905,0.0290666241164,-0.175119967613,-0.131926169635,-0.108718946824,0.0,0.0,0.0,0.0,0.0,0.0,0.0,0.0,0.0,0.0,0.0,0.0,0.0,0.0,0.0,0.0,0.0,0.0,0.0,0.0,0.0,0.0,0.0,0.0,0.732076029265,3.80331524875,4.36706355589,-0.188222681839,-0.519408100328,-0.368182566022
1455906288234412457,63,1455906288234412457,,0.131396770477,-0.000314574898222,-1.57273975566,0.171213462598,-1.57007517224,0.00252618326329,0.0011818113939,-0.00117438011416,-0.0293306562099,-0.025057693217,-0.00642807523977,0.0106208896436,0.00548212841652,0.0702598445733,-0.0799010744173,0.0362776818873,-0.152653793127,-0.116069349298,-0.108020802444,-0.000296993697454,-1.5724163358,0.171496203393,-1.57001283345,0.00240001820804,0.00111359175236,-0.00190661518657,-0.0282737301985,-0.0254245009167,-0.00460684948508,0.0119947713574,0.00670317781786,0.060049484047,-0.110214645361,0.0300142890514,-0.171862145693,-0.129496732865,-0.108843267487,0.0,0.0,0.0,0.0,0.0,0.0,0.0,0.0,0.0,0.0,0.0,0.0,0.0,0.0,0.0,0.0,0.0,0.0,0.0,0.0,0.0,0.0,0.0,0.0,0.738212273617,3.86861337381,4.40905889781,-0.159828727449,-0.521014895144,-0.356187049866
1455906288236476450,64,1455906288236476450,,0.133460760117,-0.000316781413651,-1.57279857159,0.171163421019,-1.57008833017,0.00254719517297,0.00119255996016,-0.00103213531503,-0.029485273305,-0.0249838855759,-0.0067298528021,0.010391020043,0.00526643784061,0.0719849545605,-0.0747160206877,0.0375299592482,-0.149123769201,-0.113800251318,-0.107669773467,-0.000300684930616,-1.57247309804,0.171445415257,-1.57002238745,0.00242375128523,0.00112678038039,-0.0017846176117,-0.0284885306116,-0.0253635538076,-0.00494720464604,0.0117382515114,0.00648544955412,0.0619484550561,-0.104607192745,0.0310136927732,-0.168551805096,-0.127077441094,-0.108885654208,0.0,0.0,0.0,0.0,0.0,0.0,0.0,0.0,0.0,0.0,0.0,0.0,0.0,0.0,0.0,0.0,0.0,0.0,0.0,0.0,0.0,0.0,0.0,0.0,0.744166513691,3.93360820195,4.45100443657,-0.131358678654,-0.522603647081,-0.344118080496
1455906288238543784,65,1455906288238543784,,0.135528087616,-0.000318700015565,-1.57285768645,0.171113529593,-1.57010208456,0.00256775192791,0.00120287791362,-0.000886466599231,-0.0296295824294,-0.0249075407392,-0.00702454131625,0.0101657348906,0.00505151562657,0.0736837612383,-0.0695931037486,0.038814877487,-0.145564744952,-0.111484901034,-0.107252440576,-0.000304128402311,-1.57253027877,0.171394751152,-1.57003261555,0.0024469760885,0.00113953354494,-0.0016588539173,-0.0286922085636,-0.0253005140246,-0.00528092279199,0.0114865270829,0.00626771469432,0.0638154047506,-0.0990804887676,0.03206281611,-0.165193038535,-0.12467165885,-0.108849504381,0.0,0.0,0.0,0.0,0.0,0.0,0.0,0.0,0.0,0.0,0.0,0.0,0.0,0.0,0.0,0.0,0.0,0.0,0.0,0.0,0.0,0.0,0.0,0.0,0.749991960154,3.99832475405,4.49290259616,-0.102814231962,-0.524170009988,-0.33197115476
1455906288240612739,66,1455906288240612739,,0.137597084045,-0.000320323909506,-1.57291707974,0.171063793458,-1.57011642119,0.00258786277202,0.00121276691968,-0.000737427341373,-0.0297637073881,-0.0248285945702,-0.00731208541502,0.00994510921681,0.00483749043156,0.0753554966199,-0.0645318549285,0.0401312914874,-0.141979353819,-0.109140772775,-0.106772754434,-0.00030731664386,-1.5725878559,0.171344215339,-1.57004350437,0.00246970219573,0.0011518513869,-0.00152938761424,-0.0288849199921,-0.0252352956571,-0.00560790271719,0.0112395775798,0.00605012722891,0.0656509155244,-0.0936319520768,0.0331593725922,-0.161789664423,-0.122280411226,-0.108737992115,0.0,0.0,0.0,0.0,0.0,0.0,0.0,0.0,0.0,0.0,0.0,0.0,0.0,0.0,0.0,0.0,0.0,0.0,0.0,0.0,0.0,0.0,0.0,0.0,0.755680074417,4.06275675545,4.53474297279,-0.0742084355525,-0.525715010413,-0.319754778143
1455906288242681521,67,1455906288242681521,,0.139665842056,-0.000321646409554,-1.57297673122,0.171014217876,-1.57013132571,0.00260753702512,0.00122222889251,-0.000585072706774,-0.0298877721207,-0.0247469871875,-0.00759243191905,0.00972914388794,0.00462448239365,0.0769991379791,-0.0595328776378,0.0414760912336,-0.138367150211,-0.106824556102,-0.106235283471,-0.000310242312372,-1.57264580764,0.171293812247,-1.57005504034,0.00249193914172,0.001163734349,-0.00139628098557,-0.0290668160019,-0.0251678159568,-0.00592805181034,0.0109973814792,0.00583283503303,0.067455625564,-0.0882589060713,0.0343008817482,-0.158345292661,-0.119902626107,-0.108554045555,0.0,0.0,0.0,0.0,0.0,0.0,0.0,0.0,0.0,0.0,0.0,0.0,0.0,0.0,0.0,0.0,0.0,0.0,0.0,0.0,0.0,0.0,0.0,0.0,0.761219262321,4.126895835,4.57651488564,-0.0455542365674,-0.527241036925,-0.307478134246
1455906288244721452,68,1455906288244721452,,0.141705751419,-0.000322660966271,-1.57303662092,0.170964808243,-1.57014678366,0.00262678355365,0.00123126594618,-0.000429484009697,-0.0300019337769,-0.0246626457012,-0.00786551703825,0.00951738464167,0.00441257128265,0.0785895590976,-0.0546287786209,0.042865394994,-0.134717968987,-0.104934690168,-0.105675827528,-0.0003128981886,-1.57270411251,0.17124354647,-1.5700672097,0.00251369641253,0.00117518316354,-0.00125959539885,-0.0292380433005,-0.0250979953839,-0.00624128542012,0.0107599126432,0.00561597978798,0.0692298048072,-0.0829591958794,0.0354849766144,-0.154863081584,-0.117542889662,-0.108300917075,0.0,0.0,0.0,0.0,0.0,0.0,0.0,0.0,0.0,0.0,0.0,0.0,0.0,0.0,0.0,0.0,0.0,0.0,0.0,0.0,0.0,0.0,0.0,0.0,0.766400577845,4.19063496691,4.61816635625,-0.016903333718,-0.528764239662,-0.295190881599
1455906288246785913,69,1455906288246785913,,0.143770217896,-0.000323361170597,-1.57309672917,0.170915570088,-1.57016278048,0.00264561076836,0.00123988038053,-0.000270720316441,-0.0301063144025,-0.0245755095837,-0.00813130327875,0.00930983006502,0.00420186306934,0.0801741341584,-0.0497518469907,0.0442707225474,-0.131068271518,-0.102619886477,-0.105032385786,-0.000315277175802,-1.57276274931,0.171193422761,-1.57007999855,0.00253498342686,0.00118619883939,-0.0011193919993,-0.0293987451589,-0.025025757341,-0.00654752608211,0.0105271309509,0.00539969641473,0.0709733985485,-0.077731122155,0.0367095049014,-0.151345913797,-0.115209539319,-0.10798210177,0.0,0.0,0.0,0.0,0.0,0.0,0.0,0.0,0.0,0.0,0.0,0.0,0.0,0.0,0.0,0.0,0.0,0.0,0.0,0.0,0.0,0.0,0.0,0.0,0.771615705293,4.25416912633,4.65977006522,0.0118091293502,-0.53025166837,-0.2828165286
1455906288248840177,70,1455906288248840177,,0.145824432373,-0.000323740714729,-1.57315703649,0.17086650905,-1.57017930155,0.00266402744955,0.00124807472668,-0.000108823815911,-0.0302010076914,-0.0244855282673,-0.00838977557401,0.00910685112578,0.00399248307296,0.0817223663721,-0.044941441857,0.0457105938089,-0.127404023739,-0.100359052765,-0.104347610593,-0.000317372299324,-1.57282169713,0.171143446023,-1.57009339281,0.00255580951342,0.00119678264887,-0.00097573173697,-0.0295490613954,-0.0249510281203,-0.00684670345338,0.0102989874749,0.00518411345747,0.0726866501478,-0.0725725479164,0.0379722815886,-0.147796975518,-0.112902071808,-0.107600469583,0.0,0.0,0.0,0.0,0.0,0.0,0.0,0.0,0.0,0.0,0.0,0.0,0.0,0.0,0.0,0.0,0.0,0.0,0.0,0.0,0.0,0.0,0.0,0.0,0.776611488301,4.3173690667,4.70126440324,0.0405234726989,-0.531722604576,-0.270413397962
1455906288250903723,71,1455906288250903723,,0.147887945175,-0.000323793386958,-1.57321752362,0.170817630864,-1.57019633224,0.00268204278464,0.00125585174451,5.61515867894e-05,-0.0302861225732,-0.024392657043,-0.00864090503614,0.00890848397185,0.00378453475614,0.0832530363281,-0.0401734399494,0.0471606304925,-0.123725438395,-0.0980081011613,-0.103600706225,-0.000319176705651,-1.57288093533,0.171093621305,-1.5701073783,0.00257618390901,0.00120693611621,-0.000828674804555,-0.0296891275257,-0.0248737372206,-0.007138754652,0.0100754401048,0.00496935426808,0.0743700678231,-0.0674809684188,0.0392710041492,-0.144219610476,-0.110613312552,-0.10715833244,0.0,0.0,0.0,0.0,0.0,0.0,0.0,0.0,0.0,0.0,0.0,0.0,0.0,0.0,0.0,0.0,0.0,0.0,0.0,0.0,0.0,0.0,0.0,0.0,0.781536392565,4.38030484343,4.74267302636,0.0692604115974,-0.533170812814,-0.25795743072
1455906288252966754,72,1455906288252966754,,0.14995098114,-0.000323513073033,-1.5732781715,0.170768941336,-1.5702138578,0.00269966601989,0.00126321440829,0.000224162338724,-0.0303617547081,-0.0242968718248,-0.00888465995063,0.00871475126875,0.00357812902981,0.0847577156065,-0.0354586949877,0.0486245877786,-0.120029476089,-0.0957246019455,-0.102805020111,-0.000320683660486,-1.57294044354,0.171043953795,-1.57012194072,0.00259611577874,0.001216661008,-0.000678280233129,-0.0298190742487,-0.0247938179638,-0.00742362398882,0.00985645998362,0.00475553788785,0.0760243000508,-0.0624537812676,0.0406030569656,-0.140616871713,-0.108336447505,-0.106657680094,0.0,0.0,0.0,0.0,0.0,0.0,0.0,0.0,0.0,0.0,0.0,0.0,0.0,0.0,0.0,0.0,0.0,0.0,0.0,0.0,0.0,0.0,0.0,0.0,0.786318835137,4.44293728593,4.78397348724,0.0979963069041,-0.53460273589,-0.245469119496
1455906288255033832,73,1455906288255033832,,0.152018070221,-0.000322893749546,-1.57333896126,0.170720446318,-1.57023186347,0.00271690634207,0.0012701659043,0.000395161147937,-0.030428005089,-0.0241981460142,-0.00912101198524,0.0085255709152,0.00337336697759,0.0862410936062,-0.0307916859066,0.0501012228309,-0.116322558527,-0.0934557515996,-0.101957032104,-0.000321886546134,-1.57300020165,0.17099444881,-1.57013706563,0.0026156142402,0.00122595932522,-0.000524605600729,-0.0299390272631,-0.0247112083186,-0.00770126218014,0.00964202907691,0.00454277967156,0.0776501473079,-0.0574883486586,0.0419655028004,-0.136991452813,-0.106066859149,-0.106100201943,0.0,0.0,0.0,0.0,0.0,0.0,0.0,0.0,0.0,0.0,0.0,0.0,0.0,0.0,0.0,0.0,0.0,0.0,0.0,0.0,0.0,0.0,0.0,0.0,0.790996211552,4.50528113223,4.82516782836,0.126728807383,-0.536016580581,-0.232946782189
1455906288257100717,74,1455906288257100717,,0.154085159302,-0.000321929486622,-1.57339987424,0.170672151724,-1.57025033443,0.00273377278604,0.00127670961761,0.000569101775816,-0.0304849739851,-0.0240964482421,-0.00934994356872,0.00834087305346,0.00317034633712,0.0876995342726,-0.0261772102256,0.0515965492228,-0.112609024945,-0.0912421101386,-0.101063608366,-0.000322778858426,-1.5730601898,0.170945111786,-1.57015273855,0.00263468838016,0.00123483329632,-0.000367706853288,-0.0300491073619,-0.0246258513733,-0.00797162565003,0.00943213507549,0.00433119171408,0.0792484379544,-0.0525822104988,0.0433554332469,-0.133345840418,-0.10380295229,-0.105487462578,0.0,0.0,0.0,0.0,0.0,0.0,0.0,0.0,0.0,0.0,0.0,0.0,0.0,0.0,0.0,0.0,0.0,0.0,0.0,0.0,0.0,0.0,0.0,0.0,0.79553841869,4.56731770074,4.86624359223,0.155442343056,-0.537414421607,-0.22040215782
1455906288259167730,75,1455906288259167730,,0.156152009964,-0.000320614450512,-1.57346089198,0.170624063536,-1.57026925582,0.002750274215,0.00128284911954,0.000745934335058,-0.0305327660191,-0.0239917397304,-0.0095714456519,0.00816055590636,0.00296915559129,0.0891330249695,-0.0216148236913,0.0531119624825,-0.108893058237,-0.0890750369656,-0.100127137472,-0.000323354203479,-1.57312038834,0.17089594827,-1.57016894487,0.00265334726075,0.00124328537076,-0.000207638336889,-0.0301494308709,-0.0245376951347,-0.00823467618276,0.00922676601781,0.00412088297931,0.0808199409569,-0.0477332112023,0.0447702782346,-0.129682500857,-0.101545598162,-0.10482102384,0.0,0.0,0.0,0.0,0.0,0.0,0.0,0.0,0.0,0.0,0.0,0.0,0.0,0.0,0.0,0.0,0.0,0.0,0.0,0.0,0.0,0.0,0.0,0.0,0.799944820841,4.62904308675,4.90719412276,0.184127746844,-0.538796276084,-0.207840781146
1455906288261237006,76,1455906288261237006,,0.158221244812,-0.000318942904279,-1.57352199623,0.170576187813,-1.57028861278,0.00276641935962,0.00128858815744,0.000925611897823,-0.0305714801328,-0.0238839825634,-0.00978551802694,0.00798458871155,0.00276988230374,0.0905445377954,-0.0170992900654,0.054645204497,-0.105179316803,-0.0868921578489,-0.0991461500705,-0.000323606294653,-1.57318077789,0.170846963908,-1.57018566995,0.0026715999167,0.00125131821279,-4.44529497409e-05,-0.0302401102254,-0.0244466918734,-0.00849038088239,0.00902590676161,0.00391195925354,0.082365333355,-0.0429395060681,0.0462079296239,-0.126003986388,-0.0992968278801,-0.104102498102,0.0,0.0,0.0,0.0,0.0,0.0,0.0,0.0,0.0,0.0,0.0,0.0,0.0,0.0,0.0,0.0,0.0,0.0,0.0,0.0,0.0,0.0,0.0,0.0,0.804239343735,4.69046592678,4.94801726641,0.212781106884,-0.540159989783,-0.195262855459
1455906288263305472,77,1455906288263305472,,0.160289764404,-0.000316909204658,-1.57358316892,0.170528530689,-1.57030839046,0.00278221690098,0.00129393064938,0.00110808772268,-0.0306012128003,-0.0237731413277,-0.00999216468272,0.00781295265154,0.00257260963413,0.0919312870589,-0.0126333773848,0.0561960312699,-0.101467338976,-0.0847439021594,-0.0981265195441,-0.000323528949806,-1.57324133926,0.170798164439,-1.57020289905,0.00268945534842,0.00125893469496,0.000121797706745,-0.0303212544557,-0.0243527973949,-0.00873871226635,0.00882953831147,0.00370452307561,0.0838852336038,-0.0381994580084,0.0476666707444,-0.122312947292,-0.0970582686959,-0.103333518104,0.0,0.0,0.0,0.0,0.0,0.0,0.0,0.0,0.0,0.0,0.0,0.0,0.0,0.0,0.0,0.0,0.0,0.0,0.0,0.0,0.0,0.0,0.0,0.0,0.80839775006,4.75157050406,4.98870076079,0.241389559432,-0.541507746006,-0.182678278586
1455906288265375282,78,1455906288265375282,,0.162359714508,-0.000314507802037,-1.57364439219,0.170481098363,-1.57032857402,0.0027976754604,0.00129888067493,0.00129331489832,-0.0306220589061,-0.0236591851933,-0.0101913908754,0.00764560676594,0.00237741592243,0.0932958885871,-0.00821272840263,0.0577601030773,-0.0977588536903,-0.082601983437,-0.0970671921565,-0.000323116088836,-1.57330205349,0.170749555686,-1.57022061742,0.00270692251505,0.00126613789158,0.000291063195026,-0.0303929695462,-0.0242559704792,-0.0089796482888,0.00863763852543,0.0034986736671,0.0853801862701,-0.0335116087275,0.0491450563768,-0.118612033923,-0.0948313140829,-0.10251576684,0.0,0.0,0.0,0.0,0.0,0.0,0.0,0.0,0.0,0.0,0.0,0.0,0.0,0.0,0.0,0.0,0.0,0.0,0.0,0.0,0.0,0.0,0.0,0.0,0.812440187475,4.81236316276,5.02924179433,0.269949207511,-0.542838559979,-0.170087783689
1455906288267442731,79,1455906288267442731,,0.164427042007,-0.000311733242024,-1.57370564836,0.170433897091,-1.57034914861,0.00281280353967,0.00130344246457,0.00148124511499,-0.0306341135852,-0.023542086249,-0.0103832032669,0.00748247250599,0.00218437371935,0.0946343280766,-0.00384195078571,0.0593388412216,-0.094053537813,-0.0805322765108,-0.095975010921,-0.000322361731526,-1.57336290182,0.170701143554,-1.57023881025,0.00272401032797,0.00127293107195,0.000463294065324,-0.0304553587782,-0.0241561725242,-0.00921317217534,0.00845018184419,0.00329450679572,0.0868506340804,-0.0288746852864,0.050641808567,-0.114903790772,-0.0926179171574,-0.101651014313,0.0,0.0,0.0,0.0,0.0,0.0,0.0,0.0,0.0,0.0,0.0,0.0,0.0,0.0,0.0,0.0,0.0,0.0,0.0,0.0,0.0,0.0,0.0,0.0,0.81633260526,4.87282306937,5.06962638987,0.298445472322,-0.544155250931,-0.157502787161
1455906288269507696,80,1455906288269507696,,0.166491985321,-0.000308580170466,-1.57376691995,0.170386933189,-1.57037009943,0.00282760943243,0.00130762038595,0.00167182644278,-0.0306374751671,-0.0234218158126,-0.0105676110959,0.00732342026053,0.00199354766071,0.0959469997204,0.000480368956495,0.0609315951845,-0.0903542911832,-0.078519968951,-0.0948510477179,-0.000321259995835,-1.57342386571,0.170652934022,-1.5702574627,0.00274072764199,0.00127931769322,0.000638441591425,-0.0305085231422,-0.0240533672846,-0.00943927211428,0.00826713730168,0.00309211453937,0.08829685768,-0.0242876587007,0.052155806195,-0.111190605365,-0.090421503223,-0.10074118001,0.0,0.0,0.0,0.0,0.0,0.0,0.0,0.0,0.0,0.0,0.0,0.0,0.0,0.0,0.0,0.0,0.0,0.0,0.0,0.0,0.0,0.0,0.0,0.0,0.820077732442,4.93294779757,5.10984843264,0.326871044199,-0.545457490403,-0.144927038906
1455906288271572275,81,1455906288271572275,,0.168556690216,-0.000305043334136,-1.57382818966,0.170340213026,-1.57039141167,0.00284210125257,0.00131141893672,0.00186500988725,-0.0306322358355,-0.0232983474766,-0.0107446312899,0.00716839987766,0.00180500310332,0.0972364447495,0.00475896263863,0.0625367407843,-0.0866659028723,-0.0765004139208,-0.0936935096745,-0.000319805096751,-1.57348492679,0.170604933139,-1.57027655992,0.00275708324269,0.00128530139276,0.00081645747064,-0.030552561756,-0.023947520612,-0.00965794096543,0.00808846661459,0.00289158503868,0.0897189999679,-0.0197496865336,0.0536860778836,-0.107474764767,-0.0882459670379,-0.0997882817211,0.0,0.0,0.0,0.0,0.0,0.0,0.0,0.0,0.0,0.0,0.0,0.0,0.0,0.0,0.0,0.0,0.0,0.0,0.0,0.0,0.0,0.0,0.0,0.0,0.823696459971,4.99274416516,5.14990545475,0.355222267574,-0.54674302901,-0.132360373831
1455906288273638268,82,1455906288273638268,,0.170622587204,-0.000301117573293,-1.57388944038,0.170293743019,-1.57041307059,0.00285628710754,0.00131484274786,0.00206075095571,-0.0306184795208,-0.0231716595646,-0.010914287706,0.00701745509423,0.00161880803704,0.0985046237024,0.00899735205425,0.064151171233,-0.0829905132382,-0.074444369506,-0.092501556602,-0.000317991345588,-1.57354606693,0.170557147021,-1.57029608704,0.00277308583353,0.00129088598026,0.000997293681085,-0.0305875720265,-0.0238386002738,-0.00986917613882,0.00791412592955,0.00269300248275,0.0911171990162,-0.0152599097586,0.0552317155269,-0.103758558711,-0.0860930084853,-0.0987942535046,0.0,0.0,0.0,0.0,0.0,0.0,0.0,0.0,0.0,0.0,0.0,0.0,0.0,0.0,0.0,0.0,0.0,0.0,0.0,0.0,0.0,0.0,0.0,0.0,0.827204101895,5.05221588394,5.18979396233,0.383494887829,-0.548010868975,-0.119803802668
1455906288275656218,83,1455906288275656218,,0.172640562057,-0.00029679787186,-1.57395065522,0.170247529662,-1.57043506146,0.0028701743088,0.00131789651825,0.0022589504771,-0.0305963624298,-0.0230416970384,-0.0110765800124,0.00686974616588,0.0014349623581,0.0996948976887,0.0131197389812,0.0658113549371,-0.0793017930694,-0.0732645588429,-0.0913441223367,-0.000315813150107,-1.57360726815,0.170509581846,-1.57031602919,0.00278874401801,0.00129607542922,0.00118090179568,-0.0306136505167,-0.0237265754357,-0.0100729792312,0.00774405911282,0.00249644648056,0.0924909118169,-0.0108183589184,0.0567922863745,-0.100043925868,-0.083973246555,-0.0977617418843,0.0,0.0,0.0,0.0,0.0,0.0,0.0,0.0,0.0,0.0,0.0,0.0,0.0,0.0,0.0,0.0,0.0,0.0,0.0,0.0,0.0,0.0,0.0,0.0,0.83013238131,5.11112444121,5.22940875998,0.411589255792,-0.549297373549,-0.107354004833
1455906288277724075,84,1455906288277724075,,0.174708366394,-0.000292079356063,-1.57401181754,0.170201579527,-1.57045736959,0.00288376958019,0.00132058501338,0.00245956532019,-0.0305659582544,-0.0229084382417,-0.0112315503654,0.00672552521663,0.00125353276365,0.100919945409,0.0172844363805,0.0674474417816,-0.0756685599264,-0.0709563904097,-0.090085472121,-0.000313265016443,-1.57366851269,0.170462243854,-1.57033637153,0.00280406626333,0.00130087386668,0.00136723187087,-0.0306308943176,-0.0236114158418,-0.0102693555616,0.00757818593882,0.00230199097338,0.0938391651995,-0.00642554964448,0.0583677137076,-0.0963326997233,-0.0819002002793,-0.0966937685961,0.0,0.0,0.0,0.0,0.0,0.0,0.0,0.0,0.0,0.0,0.0,0.0,0.0,0.0,0.0,0.0,0.0,0.0,0.0,0.0,0.0,0.0,0.0,0.0,0.833415749017,5.16993630997,5.26893723026,0.439681263894,-0.55052406802,-0.0948275712829
1455906288279807074,85,1455906288279807074,,0.17679142952,-0.000286957163616,-1.57407291073,0.170155899175,-1.57047998042,0.00289708146765,0.00132291321986,0.00266262712669,-0.0305272337286,-0.0227719138069,-0.0113792849163,0.00658636224957,0.00107467372559,0.102141861087,0.0214400894081,0.0690769930707,-0.0720659910264,-0.0682065766546,-0.088773565938,-0.000310341551063,-1.57372978299,0.170415139345,-1.5703570992,0.00281906088019,0.00130528556348,0.00155623351447,-0.0306393993136,-0.0234930923533,-0.0104583150463,0.0074164300751,0.00210970582311,0.0951624840507,-0.00207977880572,0.0599570299588,-0.0926276974061,-0.0798565066087,-0.095591391881,0.0,0.0,0.0,0.0,0.0,0.0,0.0,0.0,0.0,0.0,0.0,0.0,0.0,0.0,0.0,0.0,0.0,0.0,0.0,0.0,0.0,0.0,0.0,0.0,0.836738069269,5.22848843069,5.30830620407,0.467702687966,-0.551717872111,-0.0822916671092
1455906288281891123,86,1455906288281891123,,0.17887544632,-0.000281426421942,-1.57413391821,0.170110495106,-1.57050287951,0.00291012020028,0.00132488636123,0.00286811454698,-0.0304802380082,-0.0226321557198,-0.0115198007702,0.00645237037201,0.000898467645125,0.103345559203,0.0255556310025,0.0706810940252,-0.0684498628804,-0.0657853008977,-0.0874325145244,-0.00030703745886,-1.57379106164,0.170368274671,-1.57037819739,0.00283373608029,0.00130931492974,0.00174785869667,-0.0306392561714,-0.0233715791282,-0.0106398733877,0.00725876882402,0.00191966041831,0.0964627061776,0.00222244862667,0.0615579782532,-0.0889319402732,-0.0778059423199,-0.0944540274307,0.0,0.0,0.0,0.0,0.0,0.0,0.0,0.0,0.0,0.0,0.0,0.0,0.0,0.0,0.0,0.0,0.0,0.0,0.0,0.0,0.0,0.0,0.0,0.0,0.839958919292,5.2867000869,5.34748453149,0.495624029474,-0.552906914955,-0.0697814668936
1455906288284027376,87,1455906288284027376,,0.181011676788,-0.000275482252608,-1.57419482341,0.170065373695,-1.57052605241,0.00292289640847,0.00132650987335,0.0030760547876,-0.0304249693265,-0.0224892546117,-0.011653102024,0.00632383781833,0.000725044470658,0.104594681418,0.0297130506643,0.072220014071,-0.0648513909077,-0.0627472527845,-0.0859906599429,-0.000303347536347,-1.57385233145,0.170321656234,-1.57039965131,0.00284810009663,0.00131296651628,0.00194206382573,-0.0306305479015,-0.0232468564907,-0.0108140511672,0.00710524613994,0.0017319261091,0.097742432152,0.00648527604604,0.0631667171088,-0.0852473351916,-0.075718124212,-0.0932802985171,0.0,0.0,0.0,0.0,0.0,0.0,0.0,0.0,0.0,0.0,0.0,0.0,0.0,0.0,0.0,0.0,0.0,0.0,0.0,0.0,0.0,0.0,0.0,0.0,0.843602269317,5.34482715044,5.38658063429,0.523542541481,-0.554053736389,-0.0571993058597
1455906288286221798,88,1455906288286221798,,0.18320608139,-0.000269119648906,-1.57425560972,0.170020541107,-1.57054948475,0.00293542232265,0.00132778953016,0.00328654891454,-0.0303613384222,-0.0223433337519,-0.0117792354313,0.00620207636283,0.000554612341585,0.105899445518,0.0339178536953,0.0737008457433,-0.0612820164322,-0.0590142027205,-0.0844414691299,-0.000299266659989,-1.57391357534,0.17027529046,-1.57042144623,0.00286216132129,0.00131624502157,0.00213881254181,-0.0306133471294,-0.0231189146339,-0.0109808722484,0.00695597708099,0.00154657916119,0.0990062935738,0.0107149290163,0.0647772802003,-0.0815753020714,-0.0735523726867,-0.092066666814,0.0,0.0,0.0,0.0,0.0,0.0,0.0,0.0,0.0,0.0,0.0,0.0,0.0,0.0,0.0,0.0,0.0,0.0,0.0,0.0,0.0,0.0,0.0,0.0,0.847752995587,5.40290383471,5.4256153919,0.551468376351,-0.555155530007,-0.0445360384047
1455906288288459831,89,1455906288288459831,,0.185444116592,-0.000262333406754,-1.57431626035,0.169976003271,-1.57057316222,0.00294771222164,0.00132873150178,0.00349969323763,-0.030289286419,-0.0221945018385,-0.0118982347411,0.00608782263394,0.000387359275608,0.107244877574,0.0381341495022,0.0751310676465,-0.0577172933615,-0.0552395261637,-0.0828115968469,-0.000294789767609,-1.5739747764,0.170229183787,-1.57044356746,0.00287592846891,0.00131915530577,0.00233807984725,-0.0305877121255,-0.0229877571484,-0.0111403632753,0.00681116913328,0.00136370501907,0.10026102125,0.014919522751,0.0663822893692,-0.0779172397678,-0.0712569750346,-0.0908074922554,0.0,0.0,0.0,0.0,0.0,0.0,0.0,0.0,0.0,0.0,0.0,0.0,0.0,0.0,0.0,0.0,0.0,0.0,0.0,0.0,0.0,0.0,0.0,0.0,0.852278853531,5.46085173962,5.46456754057,0.579372425942,-0.556236929728,-0.0318276985187
1455906288290530520,90,1455906288290530520,,0.187514781952,-0.000255118416836,-1.5743767588,0.169931766107,-1.57059707044,0.0029597766945,0.00132934199122,0.00371529667943,-0.0302091684029,-0.0220426627443,-0.0120099884946,0.00597665021839,0.000223130165151,0.108358564228,0.041983866533,0.0767080264921,-0.0540364601482,-0.0559328893914,-0.0814175136099,-0.000289911836356,-1.5740359178,0.170183342627,-1.57046600038,0.00288941070089,0.00132170240753,0.00253985141463,-0.0305536899635,-0.0228534000901,-0.0112925514538,0.00667106155043,0.0011833967268,0.101510554841,0.019102127136,0.0679767021337,-0.0742723440369,-0.0688519064324,-0.0895008157487,0.0,0.0,0.0,0.0,0.0,0.0,0.0,0.0,0.0,0.0,0.0,0.0,0.0,0.0,0.0,0.0,0.0,0.0,0.0,0.0,0.0,0.0,0.0,0.0,0.854931158438,5.51753638388,5.50296727372,0.606803098471,-0.55747709288,-0.0195185346577
1455906288292598589,91,1455906288292598589,,0.189582824707,-0.000247470020954,-1.57443708938,0.169887835861,-1.57062119489,0.00297161759503,0.0013296268168,0.00393309920266,-0.0301214157743,-0.0218875829863,-0.0121144601473,0.00586425031527,6.16954175345e-05,0.109443959003,0.0457687621419,0.0783717315823,-0.0504351924643,-0.056467013725,-0.080017234007,-0.000284627871081,-1.57409698282,0.170137773362,-1.57048873039,0.00290261750068,0.00132389154725,0.00274411386838,-0.0305113318175,-0.0227158631581,-0.011437459915,0.00653573707879,0.00100574298326,0.102751906665,0.0232555620585,0.0695619538031,-0.0706373704007,-0.066473723355,-0.088152941812,0.0,0.0,0.0,0.0,0.0,0.0,0.0,0.0,0.0,0.0,0.0,0.0,0.0,0.0,0.0,0.0,0.0,0.0,0.0,0.0,0.0,0.0,0.0,0.0,0.8574301881,5.57382924571,5.5411640654,0.634084415785,-0.558699393711,-0.00726858600111
1455906288294663091,92,1455906288294663091,,0.191647529602,-0.000239383880834,-1.57449723692,0.169844219241,-1.57064552124,0.00298323412492,0.0013295915844,0.00415304091773,-0.0300261247321,-0.0217290374509,-0.0122118907684,0.0057522795763,-9.69278199921e-05,0.110497756062,0.0495222800318,0.0801738037645,-0.0469954286492,-0.0555037252489,-0.0786060035195,-0.000278932912305,-1.57415795486,0.170092482341,-1.57051174296,0.00291555825097,0.00132572810697,0.00295084491426,-0.0304607065566,-0.0225751570233,-0.0115751084525,0.00640501222153,0.000830816724712,0.103979145905,0.0273693054181,0.0711456664034,-0.0670122468976,-0.0642521317115,-0.0867733288215,0.0,0.0,0.0,0.0,0.0,0.0,0.0,0.0,0.0,0.0,0.0,0.0,0.0,0.0,0.0,0.0,0.0,0.0,0.0,0.0,0.0,0.0,0.0,0.0,0.859785641462,5.62975015675,5.57913463057,0.661203880926,-0.559856901666,0.00493132422489
1455906288296728176,93,1455906288296728176,,0.193712472916,-0.000230855772862,-1.57455718639,0.169800923357,-1.57067003566,0.00299462964691,0.00132924194298,0.00437506705462,-0.0299233397828,-0.0215668464102,-0.0123025235622,0.0056432424139,-0.000252713602523,0.111528380831,0.053262669261,0.0820172369391,-0.0436373651569,-0.0535334371479,-0.077179779011,-0.000272822056003,-1.57421881747,0.170047475909,-1.57053502359,0.00292824181086,0.00132721759739,0.00316001139262,-0.0304019006994,-0.0224312739228,-0.0117055226652,0.00627854683621,0.000658673679489,0.105187338043,0.0314362235853,0.0727386727886,-0.0634028662383,-0.0622140857226,-0.0853697264794,0.0,0.0,0.0,0.0,0.0,0.0,0.0,0.0,0.0,0.0,0.0,0.0,0.0,0.0,0.0,0.0,0.0,0.0,0.0,0.0,0.0,0.0,0.0,0.0,0.862039209063,5.68531657872,5.61686602956,0.688176343057,-0.56096431772,0.0170872169316
1455906288298793817,94,1455906288298793817,,0.195778131485,-0.000221881569114,-1.57461692281,0.169757955477,-1.5706947246,0.00300581120925,0.00132858359957,0.00459913669253,-0.0298130804694,-0.0214010332659,-0.0123864253528,0.00553831992895,-0.000405629806243,0.112541257078,0.0569966441536,0.0837959073607,-0.0402644254448,-0.0513890478048,-0.0757364247096,-0.000266290473125,-1.57427955438,0.170002760448,-1.57055855785,0.00294067637236,0.00132836562696,0.00337157149012,-0.0303350112479,-0.0222841860921,-0.0118287414639,0.00615601398807,0.000489355888452,0.106372763954,0.0354529631624,0.0743501574357,-0.0598166590873,-0.060319433913,-0.0839480726897,0.0,0.0,0.0,0.0,0.0,0.0,0.0,0.0,0.0,0.0,0.0,0.0,0.0,0.0,0.0,0.0,0.0,0.0,0.0,0.0,0.0,0.0,0.0,0.0,0.864199411321,5.74052552578,5.65434135823,0.715010533775,-0.562048734082,0.0291982890414
1455906288300858813,95,1455906288300858813,,0.197843074799,-0.000212457218187,-1.57467643126,0.169715322692,-1.57071957457,0.00301678697056,0.00132762232915,0.00482521423459,-0.0296953672514,-0.0212317521109,-0.0124635402286,0.00543744138095,-0.000555640614364,0.113536284985,0.0607165738304,0.0854852476172,-0.0368504504084,-0.049489500192,-0.0742743834112,-0.000259333424377,-1.57434014953,0.169958342407,-1.57058233141,0.00295286956441,0.00132917787809,0.00358547726182,-0.0302601387577,-0.0221338535142,-0.011944815298,0.00603717753902,0.000322895235807,0.107533011253,0.0394193207448,0.0759831991088,-0.0562577410385,-0.0585175381905,-0.0825125862895,0.0,0.0,0.0,0.0,0.0,0.0,0.0,0.0,0.0,0.0,0.0,0.0,0.0,0.0,0.0,0.0,0.0,0.0,0.0,0.0,0.0,0.0,0.0,0.0,0.866252052868,5.79536120311,5.69155362291,0.741699730987,-0.563124856648,0.0412592698742
1455906288302922428,96,1455906288302922428,,0.199906826019,-0.000202578741234,-1.57473569686,0.169673031794,-1.57074457193,0.00302756455608,0.00132636398322,0.00505326271847,-0.0295702397626,-0.0210591456126,-0.0125338168814,0.00534014413253,-0.000702705311867,0.114512198888,0.0644109149688,0.0871212506789,-0.0334262023236,-0.0478077482256,-0.072790314092,-0.000251946270082,-1.57440058705,0.169914228317,-1.57060633002,0.00296482862766,0.00132966009005,0.00380167703569,-0.0301773822395,-0.0219802360579,-0.012053798722,0.00592188531649,0.000159316713239,0.108666765241,0.043337043221,0.0776348392856,-0.0527261060837,-0.0567750753922,-0.0810659410149,0.0,0.0,0.0,0.0,0.0,0.0,0.0,0.0,0.0,0.0,0.0,0.0,0.0,0.0,0.0,0.0,0.0,0.0,0.0,0.0,0.0,0.0,0.0,0.0,0.868192743235,5.84981296532,5.72850748941,0.76823134368,-0.564193012722,0.0532666705091
1455906288304990029,97,1455906288304990029,,0.201974391937,-0.000192242228489,-1.57479470485,0.169631089365,-1.57076970302,0.00303815096926,0.00132481450783,0.00528325002671,-0.0294377478971,-0.0208832834728,-0.0125972755437,0.00524626905027,-0.000846770085694,0.115475109357,0.0680809505264,0.0887408892055,-0.0300324600018,-0.0460673340332,-0.0712744597347,-0.000244124475652,-1.57446085127,0.169870424778,-1.57063053956,0.00297656054995,0.0013298180482,0.00402011739639,-0.0300868363289,-0.0218233024585,-0.0121557444046,0.00581003669887,-1.35856876752e-06,0.109773597316,0.0472087578632,0.0792991734215,-0.0492198769448,-0.0550738198758,-0.0796093443541,0.0,0.0,0.0,0.0,0.0,0.0,0.0,0.0,0.0,0.0,0.0,0.0,0.0,0.0,0.0,0.0,0.0,0.0,0.0,0.0,0.0,0.0,0.0,0.0,0.87008200424,5.90390406318,5.76522069718,0.794605904156,-0.565244204595,0.0652290504743
1455906288307047336,98,1455906288307047336,,0.204031705856,-0.000181443848906,-1.57485344057,0.169589501913,-1.57079495428,0.00304855290233,0.00132297994348,0.00551512955656,-0.029297971406,-0.0207041679113,-0.0126539834207,0.00515566401818,-0.000987794259885,0.116404420495,0.0716955405955,0.0903746722377,-0.0266754169991,-0.0445376980626,-0.0697497144561,-0.00023586361367,-1.57452092669,0.169826938442,-1.57065494601,0.00298807214694,0.00132965757881,0.00424074458653,-0.0299885904661,-0.0216630331341,-0.0122507016315,0.0057015601089,-0.000159110823006,0.110853594054,0.0510370326734,0.0809704238985,-0.0457375483369,-0.0534029534051,-0.078142912104,0.0,0.0,0.0,0.0,0.0,0.0,0.0,0.0,0.0,0.0,0.0,0.0,0.0,0.0,0.0,0.0,0.0,0.0,0.0,0.0,0.0,0.0,0.0,0.0,0.87175385904,5.95754550025,5.80165795143,0.820783240813,-0.566289963644,0.0771113571789
1455906288309114802,99,1455906288309114802,,0.206099033356,-0.000170179855699,-1.57491188952,0.169548275954,-1.57082031229,0.00305877697391,0.00132086641866,0.00574886364993,-0.0291509802104,-0.0205217915958,-0.0127040268002,0.00506840756242,-0.00112573055731,0.117329672878,0.0752956550304,0.0920016433078,-0.0233679625473,-0.0427187576932,-0.0681865829719,-0.00022715936378,-1.57458079801,0.16978377599,-1.57067953543,0.00299937011017,0.00132918454818,0.00446350530434,-0.0298827294017,-0.0214994186302,-0.0123387179022,0.00559640301017,-0.000313919809835,0.111907124472,0.054823989341,0.0826442399148,-0.042278838586,-0.051754252721,-0.0766660760262,0.0,0.0,0.0,0.0,0.0,0.0,0.0,0.0,0.0,0.0,0.0,0.0,0.0,0.0,0.0,0.0,0.0,0.0,0.0,0.0,0.0,0.0,0.0,0.0,0.873452836728,6.01085534378,5.83786583243,0.846808043741,-0.567310594158,0.0889568390158
1455906288311169708,100,1455906288311169708,,0.208153963089,-0.00015844658037,-1.57497003735,0.169507418008,-1.5708457638,0.00306882989593,0.00131848014795,0.00598441167907,-0.028996846238,-0.0203361541078,-0.0127474841169,0.00498451446266,-0.00126054015309,0.118218356255,0.0788383173283,0.0936358446638,-0.020089354079,-0.0411743420679,-0.0666230128075,-0.000218007511232,-1.57464045008,0.169740944115,-1.57070429399,0.00301046104251,0.00132840486464,0.00468834724414,-0.0297693339654,-0.0213324569239,-0.012419841177,0.0054945292827,-0.000465763728811,0.112934815654,0.0585714278726,0.0843175384584,-0.038844488711,-0.0501195232076,-0.075177843537,0.0,0.0,0.0,0.0,0.0,0.0,0.0,0.0,0.0,0.0,0.0,0.0,0.0,0.0,0.0,0.0,0.0,0.0,0.0,0.0,0.0,0.0,0.0,0.0,0.874908754605,6.06369391788,5.87378130041,0.872623457197,-0.568328226044,0.10071105721
1455906288313234704,101,1455906288313234704,,0.210219144821,-0.000146240434133,-1.57502786983,0.169466934584,-1.57087129571,0.00307871836,0.00131582741954,0.00622173455855,-0.0288356378861,-0.0201472701855,-0.0127844221022,0.00490394960207,-0.00139218826078,0.119104523227,0.0823700345702,0.0952480776048,-0.016848631228,-0.0393905185194,-0.0650250948836,-0.000208403944505,-1.57469986789,0.169698449506,-1.57072920795,0.00302135148901,0.00132732448219,0.00491521948274,-0.0296484816887,-0.0211621513972,-0.0124941213165,0.00539591721765,-0.000614618716831,0.113937422981,0.0622808469806,0.0859879950072,-0.0354356556792,-0.0484925463987,-0.0736771445375,0.0,0.0,0.0,0.0,0.0,0.0,0.0,0.0,0.0,0.0,0.0,0.0,0.0,0.0,0.0,0.0,0.0,0.0,0.0,0.0,0.0,0.0,0.0,0.0,0.876401360446,6.11619658619,5.90945826422,0.898282184289,-0.56932225367,0.112423821121
1455906288315251980,102,1455906288315251980,,0.212236404419,-0.000133557961079,-1.57508537297,0.16942683219,-1.57089689501,0.0030884480849,0.00131291453027,0.00646073849487,-0.0286674965976,-0.0199551232935,-0.0128148813669,0.00482577530372,-0.00152070101006,0.119899413091,0.0857712539696,0.0968988144105,-0.0136106335366,-0.0387837798393,-0.0634876543893,-0.000198344653075,-1.57475903662,0.169656298846,-1.57075426368,0.0030320479493,0.00132594940383,0.00514407194705,-0.0295202483267,-0.0209885092066,-0.0125616102217,0.00530054309954,-0.00076045964121,0.114915041143,0.0659525254484,0.0876541561889,-0.0320532208754,-0.0468815452581,-0.0721637795213,0.0,0.0,0.0,0.0,0.0,0.0,0.0,0.0,0.0,0.0,0.0,0.0,0.0,0.0,0.0,0.0,0.0,0.0,0.0,0.0,0.0,0.0,0.0,0.0,0.877198396982,6.16799252371,5.94473716741,0.923633483855,-0.570349123326,0.123954977739
1455906288317317484,103,1455906288317317484,,0.21430182457,-0.000120395834907,-1.57514253294,0.169387117342,-1.57092254884,0.00309802412216,0.00130974778508,0.00670138767769,-0.0284924789443,-0.0197597249628,-0.0128389450792,0.00475026195429,-0.00164604417384,0.120749769731,0.0892463992524,0.0984995163161,-0.0104530787739,-0.0367295695853,-0.0618555093923,-0.000187825726799,-1.57481794158,0.169614498797,-1.57077944765,0.00304255685352,0.00132428568259,0.00537485432895,-0.0293847097897,-0.0208115396811,-0.0126223615382,0.00520836116348,-0.00090326159861,0.115867340446,0.0695860300931,0.0893152997254,-0.0286980450088,-0.0453003440099,-0.0706381773119,0.0,0.0,0.0,0.0,0.0,0.0,0.0,0.0,0.0,0.0,0.0,0.0,0.0,0.0,0.0,0.0,0.0,0.0,0.0,0.0,0.0,0.0,0.0,0.0,0.878518856594,6.21969020098,5.97986899064,0.948915128024,-0.571305866386,0.135532749737
1455906288319379682,104,1455906288319379682,,0.21636390686,-0.000106750731912,-1.57519933597,0.169347796487,-1.57094824451,0.00310745334904,0.00130633362886,0.00694371531684,-0.0283105428796,-0.0195611304715,-0.0128567343955,0.00467896492367,-0.00176811205202,0.12157786942,0.0926896654563,0.100094975003,-0.00733623748558,-0.0345674610356,-0.0602123687865,-0.000176843355391,-1.57487656823,0.169573056003,-1.57080474644,0.00305288454274,0.00132233942179,0.00560751707781,-0.0292419408795,-0.0206312539993,-0.0126764316509,0.00511932811199,-0.0010429991997,0.116795408024,0.0731829031409,0.0909702949842,-0.0253720043293,-0.0437326489499,-0.0690994230714,0.0,0.0,0.0,0.0,0.0,0.0,0.0,0.0,0.0,0.0,0.0,0.0,0.0,0.0,0.0,0.0,0.0,0.0,0.0,0.0,0.0,0.0,0.0,0.0,0.879718162718,6.2709619442,6.01471255776,0.97399518188,-0.572245255677,0.14703321865
1455906288321445806,105,1455906288321445806,,0.218430042267,-9.26193265851e-05,-1.57525576825,0.169308875967,-1.57097396955,0.00311674409079,0.00130267864336,0.00718769001034,-0.0281217453882,-0.0193593891732,-0.0128682977834,0.00461177682932,-0.00188687344554,0.122396824085,0.0961078259758,0.101646323272,-0.00422715036854,-0.0326206333151,-0.0585490247376,-0.000165393824502,-1.57493490218,0.169531977083,-1.57083014676,0.00306303731921,0.00132011677822,0.00584201381113,-0.029092012018,-0.0204476663293,-0.0127238808471,0.00503344842522,-0.00117964437308,0.117701324866,0.0767459834492,0.0926172802563,-0.0220771230447,-0.0421469741936,-0.0675457495319,0.0,0.0,0.0,0.0,0.0,0.0,0.0,0.0,0.0,0.0,0.0,0.0,0.0,0.0,0.0,0.0,0.0,0.0,0.0,0.0,0.0,0.0,0.0,0.0,0.880888862881,6.32184355121,6.04928730173,0.998892998098,-0.573177536196,0.158468334943
1455906288323511417,106,1455906288323511417,,0.220495700836,-7.79983502405e-05,-1.57531181615,0.169270362001,-1.5709997115,0.00312590404421,0.00129878947389,0.00743328633426,-0.027926148189,-0.0191545767356,-0.0128736549144,0.00454817658935,-0.00200229602571,0.123199499826,0.0994893731678,0.10316611434,-0.00112998069101,-0.0309796066545,-0.0568735554346,-0.00015347350858,-1.57499292919,0.169491268622,-1.57085563541,0.00307302153835,0.00131762396786,0.00607830211047,-0.028934988579,-0.0202607952455,-0.0127647721043,0.00495077077927,-0.00131316598996,0.118586974044,0.0802774807526,0.09425370852,-0.0188140651436,-0.0405306079451,-0.0659758665809,0.0,0.0,0.0,0.0,0.0,0.0,0.0,0.0,0.0,0.0,0.0,0.0,0.0,0.0,0.0,0.0,0.0,0.0,0.0,0.0,0.0,0.0,0.0,0.0,0.881974090983,6.37230136039,6.08357950475,1.02359235611,-0.574106744161,0.169824899402
1455906288325575131,107,1455906288325575131,,0.222559452057,-6.28845953722e-05,-1.57536746613,0.169232260694,-1.57102545801,0.00313493989841,0.00129467281877,0.00768046853401,-0.027723830275,-0.0189467304535,-0.0128728511805,0.00448767760831,-0.00211435909813,0.123982699925,0.102828540878,0.104680167757,0.00193371458362,-0.0295193743897,-0.0551895169787,-0.000141078863443,-1.57505063511,0.169450937162,-1.57088119935,0.00308284365944,0.00131486727098,0.00631634302606,-0.0287709323703,-0.0200706645973,-0.0127991686996,0.00487135036843,-0.00144353088509,0.119453941142,0.0837787517441,0.0958768496205,-0.015582464669,-0.038889742366,-0.0643890278154,0.0,0.0,0.0,0.0,0.0,0.0,0.0,0.0,0.0,0.0,0.0,0.0,0.0,0.0,0.0,0.0,0.0,0.0,0.0,0.0,0.0,0.0,0.0,0.0,0.882955364353,6.4223215381,6.11758563723,1.04808296717,-0.57502931219,0.181096955529
1455906288327640329,108,1455906288327640329,,0.224624633789,-4.72749242117e-05,-1.57542270482,0.169194578112,-1.57105119683,0.00314385772879,0.00129033541831,0.00792920262644,-0.0275148686732,-0.0187358513773,-0.0128659703026,0.00443015276821,-0.00222304135316,0.124751392506,0.106133060913,0.106198908386,0.00494716336735,-0.0280054657034,-0.0534927380579,-0.000128206420045,-1.57510800594,0.169410989195,-1.57090682565,0.0030925102321,0.00131185303513,0.00655610037173,-0.0285999033621,-0.019877302678,-0.0128271333328,0.00479522234567,-0.00157070496858,0.120303404159,0.0872502782209,0.0974849877623,-0.0123821089818,-0.0372382254086,-0.0627850550082,0.0,0.0,0.0,0.0,0.0,0.0,0.0,0.0,0.0,0.0,0.0,0.0,0.0,0.0,0.0,0.0,0.0,0.0,0.0,0.0,0.0,0.0,0.0,0.0,0.883879625576,6.47192395973,6.1513131735,1.07236916712,-0.575936936407,0.192291072121
1455906288329703575,109,1455906288329703575,,0.226687908173,-3.11662673463e-05,-1.57547751903,0.169157320331,-1.57107691591,0.00315266352806,0.00128578405226,0.00817945423901,-0.0272993381916,-0.0185219297199,-0.0128531089683,0.00437564650706,-0.00232832469636,0.125500220064,0.109397420675,0.107722749014,0.00791417088179,-0.0265007954448,-0.0517906051369,-0.000114852779686,-1.57516502781,0.169371431152,-1.57093250152,0.00310202785103,0.00130858767592,0.00679753998715,-0.0284219611439,-0.0196807397798,-0.0128487290834,0.00472239663532,-0.00169465423659,0.121136210937,0.0906919589295,0.0990778387761,-0.0092135895376,-0.0355874367723,-0.061164212422,0.0,0.0,0.0,0.0,0.0,0.0,0.0,0.0,0.0,0.0,0.0,0.0,0.0,0.0,0.0,0.0,0.0,0.0,0.0,0.0,0.0,0.0,0.0,0.0,0.884703109225,6.52108310883,6.18474774946,1.09643958038,-0.576832174077,0.20339701329
1455906288331768366,110,1455906288331768366,,0.228752613068,-1.45556233986e-05,-1.57553189568,0.169120493432,-1.57110260337,0.00316136337239,0.00128102553325,0.00843118970873,-0.0270773093631,-0.0183049695333,-0.0128343538996,0.00432419781797,-0.00243019431342,0.126235249653,0.112631407831,0.109237437651,0.0108408978595,-0.0249478936481,-0.0500790119278,-0.000101014610563,-1.57522168693,0.169332269407,-1.57095821427,0.00311140311258,0.00130507767609,0.00704062913524,-0.028237165825,-0.0194810057833,-0.012864020787,0.00465286495877,-0.00181534559662,0.12195293688,0.0941033761266,0.100656097002,-0.00607806986387,-0.0339441989596,-0.0595271471098,0.0,0.0,0.0,0.0,0.0,0.0,0.0,0.0,0.0,0.0,0.0,0.0,0.0,0.0,0.0,0.0,0.0,0.0,0.0,0.0,0.0,0.0,0.0,0.0,0.885473905994,6.56981925187,6.21789368707,1.12030219534,-0.577712377492,0.214421639444
1455906288333833740,111,1455906288333833740,,0.230818033218,2.55994702489e-06,-1.57558582183,0.169084103467,-1.5711282475,0.0031699634274,0.00127606670558,0.00868438071474,-0.0268488431611,-0.0180849954642,-0.0128097797545,0.00427585719638,-0.00252863336348,0.126955756358,0.115834794149,0.11073663147,0.0137332471807,-0.0233927279401,-0.0483600381259,-8.66886453387e-05,-1.57527796968,0.169293510272,-1.57098395136,0.00312064258654,0.00130132958299,0.00728533608888,-0.0280455783646,-0.0192781289909,-0.0128730756511,0.00458660903148,-0.00193274750073,0.122754016543,0.0974840973833,0.102220645498,-0.00297675797887,-0.0323116948533,-0.0578747565919,0.0,0.0,0.0,0.0,0.0,0.0,0.0,0.0,0.0,0.0,0.0,0.0,0.0,0.0,0.0,0.0,0.0,0.0,0.0,0.0,0.0,0.0,0.0,0.0,0.886184619481,6.61812464364,6.25074450553,1.14395329621,-0.578579133721,0.225361715692
1455906288335898161,112,1455906288335898161,,0.232882499695,2.01833233566e-05,-1.57563928468,0.169048156432,-1.57115383674,0.0031784698397,0.00127091444178,0.00893899561694,-0.0266140049584,-0.0178620391174,-0.012779452194,0.00423055510155,-0.0026236304328,0.127659145847,0.119003408553,0.112219715318,0.0165943133415,-0.0219093668925,-0.0466370311983,-7.18716793545e-05,-1.57533386252,0.169255160007,-1.5710097004,0.00312975280102,0.00129735000512,0.00753162989516,-0.0278472605057,-0.0190721362216,-0.012875962985,0.00452360547389,-0.00204683036905,0.123539789558,0.10083377202,0.103772084328,8.94528263661e-05,-0.0306918361805,-0.0562081114085,0.0,0.0,0.0,0.0,0.0,0.0,0.0,0.0,0.0,0.0,0.0,0.0,0.0,0.0,0.0,0.0,0.0,0.0,0.0,0.0,0.0,0.0,0.0,0.0,0.886813132802,6.66598366915,6.28329215856,1.16738556885,-0.579435289264,0.236211303328
1455906288337961048,113,1455906288337961048,,0.234945297241,3.83173179481e-05,-1.57569227155,0.169012658263,-1.57117935962,0.00318688853325,0.00126557563243,0.0091949989746,-0.0263728664051,-0.0176361299762,-0.0127434357541,0.00418813844631,-0.00271517892023,0.128344211811,0.122135144784,0.11368942588,0.0194221265451,-0.0205072883506,-0.0449114562319,-5.65605693586e-05,-1.57538935205,0.169217224817,-1.57103544912,0.00313874023183,0.00129314560779,0.00777948010062,-0.0276422747589,-0.0188630533885,-0.0128727534813,0.00446382535617,-0.00215756696366,0.124310415766,0.104151982764,0.105310718521,0.00312007280951,-0.0290882612642,-0.0545284829571,0.0,0.0,0.0,0.0,0.0,0.0,0.0,0.0,0.0,0.0,0.0,0.0,0.0,0.0,0.0,0.0,0.0,0.0,0.0,0.0,0.0,0.0,0.0,0.0,0.887350352378,6.7133874736,6.31553182035,1.19059373067,-0.580281394475,0.246967098473
1455906288340024293,114,1455906288340024293,,0.237008571625,5.69646748765e-05,-1.57574476991,0.168977614839,-1.57120480486,0.00319522521564,0.00126005718334,0.00945235795378,-0.0261254959515,-0.0174072941929,-0.0127018024974,0.00414854394626,-0.00280327016409,0.12901476737,0.125235308843,0.115146357408,0.0222111302285,-0.0190872117001,-0.0431797876264,-4.07522328369e-05,-1.57544442501,0.169179710858,-1.57106118539,0.00314761128871,0.00128872310812,0.00802885642099,-0.0274306845351,-0.0186509059451,-0.0128635185887,0.00440723153952,-0.00226493269904,0.1250659045,0.107438246849,0.106836702868,0.00611483572343,-0.0275055405924,-0.052837252241,0.0,0.0,0.0,0.0,0.0,0.0,0.0,0.0,0.0,0.0,0.0,0.0,0.0,0.0,0.0,0.0,0.0,0.0,0.0,0.0,0.0,0.0,0.0,0.0,0.8878294374,6.76034871159,6.34746744589,1.21358092424,-0.581113802614,0.257633672649
1455906288342083334,115,1455906288342083334,,0.239067554474,7.61280679112e-05,-1.57579676738,0.168943031993,-1.57123016129,0.00320348543765,0.00125436601251,0.00971103508089,-0.0258719681587,-0.0171755514213,-0.0126546278172,0.00411167806096,-0.00288790066796,0.129662359743,0.128292483933,0.116596414142,0.0249635499795,-0.0177786735936,-0.0414507162426,-2.44436479583e-05,-1.57549906825,0.169142624233,-1.57108689724,0.00315637229837,0.00128408926963,0.0082797284575,-0.0272125542698,-0.0184357190173,-0.0128483302629,0.0043537781305,-0.00236890579617,0.125806131948,0.110692022514,0.108350209891,0.00907350115015,-0.0259478582753,-0.0511358447665,0.0,0.0,0.0,0.0,0.0,0.0,0.0,0.0,0.0,0.0,0.0,0.0,0.0,0.0,0.0,0.0,0.0,0.0,0.0,0.0,0.0,0.0,0.0,0.0,0.888181134593,6.80682872079,6.37908102948,1.23633020707,-0.581937766819,0.268196891691
1455906288344146025,116,1455906288344146025,,0.24113035202,9.58101022858e-05,-1.57584825169,0.168908915515,-1.57125541791,0.00321167468769,0.00124850905011,0.00997099929371,-0.0256123483019,-0.0169409265063,-0.0126019905869,0.00407757197906,-0.00296906173065,0.130301853076,0.131327372843,0.118028500851,0.0276736802793,-0.0163274083049,-0.039710346451,-7.63185400001e-06,-1.57555326875,0.169105970997,-1.57111257283,0.00316502948912,0.00127925089655,0.00853206550076,-0.0269879494518,-0.0182175173651,-0.012827261,0.00430341262391,-0.00246946728154,0.126530911261,0.113912798018,0.109851432796,0.0119957686342,-0.0244176419433,-0.0494256405294,0.0,0.0,0.0,0.0,0.0,0.0,0.0,0.0,0.0,0.0,0.0,0.0,0.0,0.0,0.0,0.0,0.0,0.0,0.0,0.0,0.0,0.0,0.0,0.0,0.888528728061,6.85288544782,6.41039496781,1.25886366699,-0.582743266164,0.27867776775
1455906288346209027,117,1455906288346209027,,0.243193387985,0.000116013329898,-1.57589921073,0.168875271135,-1.57128056387,0.00321979864709,0.00124249325101,0.0102322283189,-0.0253466894418,-0.0167034540445,-0.0125439707904,0.00404638742426,-0.00304673737356,0.130927172081,0.134331487328,0.119443960963,0.0303461162219,-0.0148571465017,-0.0379652964617,9.68604813727e-06,-1.57560701364,0.169069757154,-1.57113820047,0.00317358898417,0.0012742148286,0.0087858366365,-0.0267569362578,-0.0179963255579,-0.0128003839846,0.00425608243033,-0.00256660066924,0.127240224455,0.117100397233,0.11134036933,0.0148812503718,-0.0229125482657,-0.0477077471331,0.0,0.0,0.0,0.0,0.0,0.0,0.0,0.0,0.0,0.0,0.0,0.0,0.0,0.0,0.0,0.0,0.0,0.0,0.0,0.0,0.0,0.0,0.0,0.0,0.888821449509,6.89848937224,6.4413951358,1.28116867763,-0.58353511966,0.289065484001
1455906288348276713,118,1455906288348276713,,0.245260953903,0.000136740260502,-1.57594963246,0.168842104504,-1.57130558848,0.00322786326624,0.00123632560257,0.0104947022848,-0.0250750432895,-0.0164631768803,-0.0124806423638,0.00401823172138,-0.00312091106125,0.131546793872,0.137314664917,0.120833203246,0.0329823103901,-0.013298556372,-0.0362083912261,2.75128959571e-05,-1.57566029016,0.16903398866,-1.57116376863,0.00318205681048,0.0012689879366,0.00904101118332,-0.0265195807912,-0.0177721685471,-0.0127677731514,0.00421174388291,-0.00266029133381,0.127934322362,0.12025506988,0.112816639911,0.0177295840179,-0.021425998062,-0.0459829174154,0.0,0.0,0.0,0.0,0.0,0.0,0.0,0.0,0.0,0.0,0.0,0.0,0.0,0.0,0.0,0.0,0.0,0.0,0.0,0.0,0.0,0.0,0.0,0.0,0.889127671547,6.94366995672,6.47209361852,1.30325693815,-0.584310294715,0.299370525702
1455906288350344933,119,1455906288350344933,,0.247329235077,0.000157993365864,-1.57599950497,0.168809421183,-1.5713304812,0.00323587462345,0.0012300131252,0.0107584030767,-0.024797462644,-0.0162201436376,-0.0124120736398,0.00399312548852,-0.00319156631521,0.132153997957,0.140265980623,0.122200039468,0.0355864135497,-0.0118076764941,-0.0344468627284,4.58514663325e-05,-1.57571308569,0.168998671419,-1.57118926591,0.00319043892157,0.0012635771194,0.00929755919206,-0.0262759483668,-0.0175450724746,-0.0127295029667,0.00417036720553,-0.00275052585987,0.128613686379,0.123377354305,0.114279433376,0.0205406000823,-0.0199506798869,-0.044251608653,0.0,0.0,0.0,0.0,0.0,0.0,0.0,0.0,0.0,0.0,0.0,0.0,0.0,0.0,0.0,0.0,0.0,0.0,0.0,0.0,0.0,0.0,0.0,0.0,0.889391178671,6.9883943835,6.50247665952,1.32511470425,-0.585074884335,0.309580868524
1455906288352409829,120,1455906288352409829,,0.249394178391,0.000179775067104,-1.57604881646,0.168777226648,-1.5713552316,0.00324383854078,0.00122356285707,0.0110232981634,-0.0245140233928,-0.0159743914338,-0.0123383275344,0.0039707918491,-0.0032587018081,0.132741088794,0.143173270593,0.123552164319,0.0381596918901,-0.0105259629239,-0.0326886301626,6.47044771676e-05,-1.57576538774,0.168963811281,-1.57121468106,0.00319874122101,0.00125798930182,0.00955545164308,-0.0260261033724,-0.0173150652879,-0.0126856479442,0.00413193223496,-0.0028372917182,0.129278764657,0.126467639408,0.115727755919,0.0233144205256,-0.0184842923767,-0.0425142496971,0.0,0.0,0.0,0.0,0.0,0.0,0.0,0.0,0.0,0.0,0.0,0.0,0.0,0.0,0.0,0.0,0.0,0.0,0.0,0.0,0.0,0.0,0.0,0.0,0.889548880516,7.03262657949,6.53252951043,1.34672653462,-0.585834601393,0.319683392571
1455906288354469778,121,1455906288354469778,,0.251454114914,0.000202087708975,-1.5760975553,0.168745526316,-1.5713798294,0.00325176016678,0.00121698182753,0.0112893437082,-0.0242248178562,-0.0157259406434,-0.0122594719,0.00395083415244,-0.00332232773221,0.133304456036,0.14603226593,0.124898626072,0.0406959425374,-0.00943173373909,-0.030937293946,8.40745888329e-05,-1.57581718395,0.168929414039,-1.57124000299,0.00320696956745,0.00125223143256,0.0098146600222,-0.0257701100714,-0.0170821766193,-0.0126362821496,0.00409641420191,-0.00292057755073,0.129929614475,0.129525660587,0.11716091622,0.026051371484,-0.0170337430721,-0.0407715828597,0.0,0.0,0.0,0.0,0.0,0.0,0.0,0.0,0.0,0.0,0.0,0.0,0.0,0.0,0.0,0.0,0.0,0.0,0.0,0.0,0.0,0.0,0.0,0.0,0.889574148196,7.07634999596,6.5622441362,1.36808380259,-0.586589122163,0.329672167948
1455906288356534156,122,1455906288356534156,,0.25351858139,0.00022493356336,-1.57614571003,0.168714325566,-1.57140426447,0.00325964429436,0.00121027705878,0.0115565106767,-0.0239299153026,-0.0154748097247,-0.0121755948981,0.00393329342234,-0.00338244102063,0.133862512384,0.148870287652,0.12623229262,0.0431810593222,-0.00810899635611,-0.0291759944763,0.000103964404555,-1.57586846209,0.168895485425,-1.57126522075,0.00321512975434,0.00124631048136,0.0100751556995,-0.025508033612,-0.016846436986,-0.0125814792077,0.00406377268361,-0.0030003736408,0.130566062803,0.132550797767,0.118578721184,0.0287515675097,-0.0156077779936,-0.0390245072508,0.0,0.0,0.0,0.0,0.0,0.0,0.0,0.0,0.0,0.0,0.0,0.0,0.0,0.0,0.0,0.0,0.0,0.0,0.0,0.0,0.0,0.0,0.0,0.0,0.889622878242,7.11964025586,6.59164999023,1.38921500141,-0.587322521275,0.339574272087
1455906288358599308,123,1455906288358599308,,0.255583763123,0.000248314855569,-1.57619326931,0.168683629731,-1.57142852685,0.00326749607201,0.00120345558851,0.0118247815321,-0.0236293666476,-0.0152210249251,-0.0120867916393,0.0039184842279,-0.00343902925087,0.134408343025,0.151678367386,0.127552507054,0.0456221994561,-0.00670019808883,-0.027412235765,0.000124376470152,-1.57591921007,0.168862031111,-1.57129032354,0.00322322748547,0.00124023343589,0.010336909898,-0.0252399400451,-0.0166078770103,-0.0125213130325,0.00403395844542,-0.00307667182974,0.131188135779,0.135542767997,0.119981258776,0.0314146045894,-0.01420646306,-0.0372736817179,0.0,0.0,0.0,0.0,0.0,0.0,0.0,0.0,0.0,0.0,0.0,0.0,0.0,0.0,0.0,0.0,0.0,0.0,0.0,0.0,0.0,0.0,0.0,0.0,0.889636899684,7.16246476634,6.62073106744,1.4101069388,-0.588040253549,0.349377935903
1455906288360664360,124,1455906288360664360,,0.257648706436,0.000272233767655,-1.57624022191,0.168653444084,-1.57145260678,0.00327532099181,0.00119652446943,0.0120941305546,-0.0233232350685,-0.0149646224504,-0.0119931387042,0.0039064355696,-0.00349208982438,0.134940679524,0.154453211768,0.128849967584,0.0480307356412,-0.00534846021018,-0.0256483377468,0.000145313274126,-1.5759694159,0.168829056707,-1.57131530071,0.00323126837197,0.00123400729898,0.0105998940758,-0.0249658956549,-0.0163665271835,-0.0124558585333,0.00400692804772,-0.00314946507918,0.131796042025,0.138501621103,0.121368572167,0.0340398915511,-0.0128239374339,-0.0355195677603,0.0,0.0,0.0,0.0,0.0,0.0,0.0,0.0,0.0,0.0,0.0,0.0,0.0,0.0,0.0,0.0,0.0,0.0,0.0,0.0,0.0,0.0,0.0,0.0,0.889601939504,7.20481192356,6.64948146511,1.43075599915,-0.588747351479,0.359078986215
1455906288362730305,125,1455906288362730305,,0.259714603424,0.000296692431655,-1.57628655673,0.16862377381,-1.57147649462,0.00328312448031,0.00118949075916,0.0123645334449,-0.0230115841468,-0.0147056509602,-0.0118947008226,0.00389705292809,-0.00354162045266,0.135462210805,0.157197709863,0.130121522631,0.0504071459687,-0.00403418129755,-0.0238822905297,0.000166777248336,-1.57601906777,0.168796567762,-1.57134014176,0.00323925794817,0.00122763908666,0.0108640801344,-0.0246859665645,-0.0161224182438,-0.0123851914954,0.00398264814836,-0.00321874724619,0.132390016573,0.14142746828,0.122740371412,0.0366271434955,-0.0114559645123,-0.0337625992769,0.0,0.0,0.0,0.0,0.0,0.0,0.0,0.0,0.0,0.0,0.0,0.0,0.0,0.0,0.0,0.0,0.0,0.0,0.0,0.0,0.0,0.0,0.0,0.0,0.889539888802,7.24668888424,6.67790358437,1.45116465026,-0.589442981172,0.368680052658
1455906288364790686,126,1455906288364790686,,0.261775016785,0.000321692920482,-1.57633226281,0.168594624011,-1.57150018087,0.00329091160152,0.00118236150974,0.0126359553818,-0.0226944933344,-0.0144441488666,-0.0117915419208,0.00389006828626,-0.00358762896261,0.135959726029,0.159893102557,0.131380570954,0.0527517559043,-0.00295046053182,-0.022126219421,0.0001887707688,-1.57606815395,0.168764569762,-1.57136483634,0.00324720168486,0.00122113582626,0.0111294403298,-0.0244002188549,-0.0158755817567,-0.012309387875,0.00396108854574,-0.00328451315235,0.132970178815,0.144320240387,0.12409611911,0.0391764744654,-0.0101036404211,-0.0320033069115,0.0,0.0,0.0,0.0,0.0,0.0,0.0,0.0,0.0,0.0,0.0,0.0,0.0,0.0,0.0,0.0,0.0,0.0,0.0,0.0,0.0,0.0,0.0,0.0,0.889343163401,7.28803819503,6.70597318646,1.47130842879,-0.590135093057,0.378160879607
1455906288366851891,127,1455906288366851891,,0.263836145401,0.00034723723671,-1.57637732935,0.168565999718,-1.57152365615,0.00329868697217,0.00117514375683,0.0129083608469,-0.0223720431871,-0.0141801436933,-0.0116837368224,0.00388530236879,-0.00363012395185,0.13644573907,0.1625570447,0.132624602319,0.0550533424348,-0.0018154569387,-0.0203687698247,0.000211296156049,-1.57611666289,0.16873306813,-1.57138937425,0.00325510498544,0.00121450455424,0.0113959469194,-0.0241087190949,-0.0156260502251,-0.0122285232612,0.00394221203463,-0.00334675886542,0.133536410841,0.147179518814,0.12543541549,0.0416881371788,-0.00877287267702,-0.03024240619,0.0,0.0,0.0,0.0,0.0,0.0,0.0,0.0,0.0,0.0,0.0,0.0,0.0,0.0,0.0,0.0,0.0,0.0,0.0,0.0,0.0,0.0,0.0,0.0,0.88911817604,7.3289102869,6.73371075378,1.49120606518,-0.590812983487,0.387539496409
1455906288368912567,128,1455906288368912567,,0.26589679718,0.000373327322069,-1.57642174569,0.168537905912,-1.57154691126,0.00330645514022,0.00116784452773,0.0131817245122,-0.0220442986519,-0.0139136626326,-0.01157137324,0.00388286567991,-0.00366910514785,0.136917926225,0.165187490582,0.133856458378,0.0573102400098,-0.000621231938986,-0.0186124261745,0.00023435567486,-1.57616458314,0.168702068223,-1.57141374545,0.00326297316908,0.00120775231351,0.0116635718918,-0.0238115347193,-0.0153738566835,-0.0121426729719,0.00392597159494,-0.00340548186738,0.134088561533,0.150004856154,0.126758128499,0.044162150283,-0.00746756866396,-0.0284805957841,0.0,0.0,0.0,0.0,0.0,0.0,0.0,0.0,0.0,0.0,0.0,0.0,0.0,0.0,0.0,0.0,0.0,0.0,0.0,0.0,0.0,0.0,0.0,0.0,0.888847310648,7.36929369182,6.76110956779,1.51085190305,-0.59147658373,0.396811939538
1455906288370971685,129,1455906288370971685,,0.267956018448,0.000399965063673,-1.57646550132,0.168510347514,-1.57156993716,0.00331422080305,0.00116047084561,0.0134560170913,-0.0217113292924,-0.0136447346661,-0.0114545343624,0.00388279714487,-0.00370457696843,0.137374652894,0.167781868859,0.135071508159,0.0595286376031,0.00055269689299,-0.0168593943998,0.000257951533753,-1.57621190341,0.168671575332,-1.57143794004,0.00327081145759,0.00120088615071,0.0119322870011,-0.0235087339071,-0.0151190342557,-0.0120519125646,0.00391231691752,-0.00346068093252,0.134626547831,0.152795955568,0.128064301306,0.046598255618,-0.00618711009623,-0.0267184693786,0.0,0.0,0.0,0.0,0.0,0.0,0.0,0.0,0.0,0.0,0.0,0.0,0.0,0.0,0.0,0.0,0.0,0.0,0.0,0.0,0.0,0.0,0.0,0.0,0.888515429844,7.4091774,6.78816359554,1.53024183722,-0.592128758992,0.405974410204
1455906288373029425,130,1455906288373029425,,0.270013809204,0.000427152288707,-1.57650858585,0.168483329382,-1.57159272499,0.00332198863162,0.0011530297224,0.0137312079429,-0.0213732069445,-0.013373397427,-0.0113332938466,0.00388503143102,-0.00373654624076,0.137816198682,0.170340479026,0.136265730963,0.061711878114,0.00168158926042,-0.0151098779347,0.000282085884571,-1.57625861253,0.168641594682,-1.57146194827,0.00327862497423,0.00119391311377,0.0122020638168,-0.0232003854015,-0.0148616159979,-0.0119563181053,0.00390119971972,-0.00351235601209,0.135150267833,0.155552549583,0.129353958102,0.048996202573,-0.00493008873993,-0.0249566101957,0.0,0.0,0.0,0.0,0.0,0.0,0.0,0.0,0.0,0.0,0.0,0.0,0.0,0.0,0.0,0.0,0.0,0.0,0.0,0.0,0.0,0.0,0.0,0.0,0.888123991342,7.44855895211,6.81487041827,1.54937484936,-0.592770338729,0.415026220525
1455906288375090054,131,1455906288375090054,,0.272074460983,0.000454890772843,-1.57655098905,0.168456856287,-1.57161526601,0.00332976330566,0.0011455281643,0.0140072761934,-0.0210299903943,-0.0130996984408,-0.0112077260283,0.00388964260703,-0.00376501186508,0.138252051853,0.172876071237,0.137433255247,0.0638559402592,0.00292958674782,-0.0133557463799,0.000306760822197,-1.57630469947,0.168612131431,-1.57148576055,0.00328641874943,0.00118684024964,0.0124728738089,-0.022886558302,-0.0146016351802,-0.0118559660244,0.0038925754833,-0.00356050811152,0.135659724261,0.158274549584,0.130626860754,0.0513558774957,-0.00369414845258,-0.0231954892481,0.0,0.0,0.0,0.0,0.0,0.0,0.0,0.0,0.0,0.0,0.0,0.0,0.0,0.0,0.0,0.0,0.0,0.0,0.0,0.0,0.0,0.0,0.0,0.0,0.887752063336,7.48747486768,6.84124479887,1.56826513087,-0.593394901553,0.42398033872
1455906288377149646,132,1455906288377149646,,0.27413392067,0.000483182251028,-1.57659270078,0.168430932902,-1.57163755164,0.00333754964381,0.00113797317998,0.0142842019913,-0.0206817385797,-0.0128236858221,-0.0110779052452,0.00389669553648,-0.00378997245075,0.138673746093,0.175375743349,0.138579363449,0.0659648427791,0.00412334270623,-0.0116048392919,0.000331978384676,-1.57635015335,0.168583190669,-1.57150936745,0.0032941977316,0.00117967460257,0.0127446886703,-0.0225673215829,-0.0143391258603,-0.0117509328866,0.00388640668011,-0.00360513896471,0.136155137171,0.160962169352,0.131882459965,0.0536772597045,-0.00247465529298,-0.0214353639481,0.0,0.0,0.0,0.0,0.0,0.0,0.0,0.0,0.0,0.0,0.0,0.0,0.0,0.0,0.0,0.0,0.0,0.0,0.0,0.0,0.0,0.0,0.0,0.0,0.887329229626,7.52588632253,6.86727052963,1.58689677869,-0.594009264797,0.432823261073
1455906288379210479,133,1455906288379210479,,0.276194810867,0.000512028416047,-1.57663371104,0.16840556381,-1.57165957345,0.00334535248721,0.00113037177788,0.0145619630272,-0.020328516649,-0.012545406696,-0.0109439027006,0.00390614786825,-0.00381142964935,0.139087289729,0.177846187304,0.139699762587,0.0680377017993,0.00532898906214,-0.00985235930989,0.000357740554002,-1.57639496342,0.16855477742,-1.57153275968,0.00330196680312,0.00117242321291,0.0130174806555,-0.0222427436752,-0.0140741233778,-0.0116412951898,0.00388266484346,-0.00364625069365,0.136636848002,0.163615738205,0.133120023051,0.0559604366309,-0.00126718171632,-0.0196763649972,0.0,0.0,0.0,0.0,0.0,0.0,0.0,0.0,0.0,0.0,0.0,0.0,0.0,0.0,0.0,0.0,0.0,0.0,0.0,0.0,0.0,0.0,0.0,0.0,0.886904812893,7.5638144531,6.89295704868,1.60527829306,-0.594610741101,0.441562441382
1455906288381269689,134,1455906288381269689,,0.278254032135,0.000541430915331,-1.57667400994,0.168380753497,-1.57168132314,0.00335317655162,0.00112273096162,0.0148405362576,-0.0199703929528,-0.012264906003,-0.0108057897635,0.00391791654341,-0.00382938661498,0.139485940674,0.180277508883,0.140800930452,0.0700752353396,0.00643968609932,-0.00810460632099,0.000384049257383,-1.57643911906,0.168526896632,-1.5715559281,0.00330973079597,0.00116509311657,0.0132912227258,-0.0219128924138,-0.0138066645847,-0.0115271291465,0.0038813280044,-0.00368384564666,0.137105222382,0.166235523093,0.134338770346,0.058205606474,-6.96575606192e-05,-0.017918588015,0.0,0.0,0.0,0.0,0.0,0.0,0.0,0.0,0.0,0.0,0.0,0.0,0.0,0.0,0.0,0.0,0.0,0.0,0.0,0.0,0.0,0.0,0.0,0.0,0.886423858275,7.60122869347,6.91829147538,1.62339680044,-0.595203705558,0.450187257074
1455906288383327189,135,1455906288383327189,,0.280311584473,0.000571391343464,-1.57671358778,0.168356506371,-1.57170279257,0.00336102629637,0.00111505772173,0.0151198918754,-0.0196074461507,-0.0119822199089,-0.010663639152,0.0039318282004,-0.00384385327288,0.139869677165,0.182669293288,0.14188516365,0.0720753762184,0.00747197089176,-0.0063620515741,0.00041090636858,-1.57648260978,0.16849955318,-1.57157886374,0.00331749449879,0.00115769134448,0.0135658884714,-0.0215778353382,-0.0135367877372,-0.0114085105257,0.00388237482117,-0.00371792644413,0.1375605232,0.168821552491,0.135538077327,0.0604130142393,0.00111647423666,-0.0161622094524,0.0,0.0,0.0,0.0,0.0,0.0,0.0,0.0,0.0,0.0,0.0,0.0,0.0,0.0,0.0,0.0,0.0,0.0,0.0,0.0,0.0,0.0,0.0,0.0,0.885887310953,7.63812670022,6.94327272488,1.64125083992,-0.595787681672,0.458696931971
1455906288385387745,136,1455906288385387745,,0.282371997833,0.000601911245797,-1.57675243497,0.168332826764,-1.57172397374,0.00336890606683,0.00110735903683,0.0154000104574,-0.0192397405078,-0.0116973870334,-0.0105175318452,0.00394794226015,-0.00385483162314,0.140248904798,0.185036349565,0.142947711905,0.074031930532,0.00864208885761,-0.00461629868836,0.000438313709022,-1.57652542526,0.16847275186,-1.57160155777,0.0033252626542,0.00115022492194,0.0138414519703,-0.0212376400449,-0.0132645321138,-0.0112855147152,0.00388578058436,-0.00374849609115,0.138002975642,0.171373740781,0.136717546019,0.062582796261,0.00228928894074,-0.0144074375692,0.0,0.0,0.0,0.0,0.0,0.0,0.0,0.0,0.0,0.0,0.0,0.0,0.0,0.0,0.0,0.0,0.0,0.0,0.0,0.0,0.0,0.0,0.0,0.0,0.885382924527,7.67455013668,6.96791753908,1.65885666945,-0.596354346257,0.467105935726
1455906288387451379,137,1455906288387451379,,0.284435749054,0.000632992140871,-1.57679054204,0.168309718923,-1.57174485883,0.00337682053845,0.00109964189043,0.015680884617,-0.018867323898,-0.0114104544401,-0.0103675524391,0.00396652935951,-0.0038623147809,0.140625254804,0.187380260296,0.143984881308,0.0759474755378,0.00994501049832,-0.00286685907572,0.000466273049004,-1.57656755527,0.16844649739,-1.5716240015,0.00333303995721,0.00114270086805,0.0141178880119,-0.0208923739659,-0.0129899377548,-0.0111582170722,0.00389152243168,-0.00377555779594,0.138433065959,0.173892338227,0.137876812917,0.0647148467439,0.00345255844192,-0.0126542672216,0.0,0.0,0.0,0.0,0.0,0.0,0.0,0.0,0.0,0.0,0.0,0.0,0.0,0.0,0.0,0.0,0.0,0.0,0.0,0.0,0.0,0.0,0.0,0.0,0.88492349742,7.71050251579,6.99222705117,1.67621608222,-0.596903762735,0.475415395384
1455906288389519511,138,1455906288389519511,,0.286503791809,0.000664635537016,-1.5768278996,0.168287186988,-1.57176544016,0.00338477486952,0.00109191328169,0.0159625115278,-0.0184902409647,-0.0111214804626,-0.0102137764717,0.00398780171586,-0.00386629395576,0.141001656053,0.189702672993,0.144989096216,0.0778284919317,0.0113273458564,-0.00111231578333,0.000494786109753,-1.57660898975,0.168420794407,-1.57164618641,0.00334083107052,0.0011351261958,0.014395172737,-0.0205421035484,-0.012713045647,-0.0110266932571,0.00389959087709,-0.00379911446298,0.13885165912,0.17637807927,0.139015294738,0.0668089685296,0.00461588705746,-0.0109023998143,0.0,0.0,0.0,0.0,0.0,0.0,0.0,0.0,0.0,0.0,0.0,0.0,0.0,0.0,0.0,0.0,0.0,0.0,0.0,0.0,0.0,0.0,0.0,0.0,0.884530591568,7.74599095408,7.01620512142,1.69333316912,-0.597437595304,0.483627641704
1455906288391581496,139,1455906288391581496,,0.2885658741,0.000696842916073,-1.57686449841,0.168265234991,-1.57178571019,0.00339277411826,0.00108418020808,0.0162448675292,-0.0181085696662,-0.0108305167087,-0.0100562616683,0.00401144702719,-0.00386677965759,0.141354345301,0.191968625528,0.145974657682,0.0796863114148,0.0123179654689,0.000626613950344,0.000523854566508,-1.57664971875,0.168395647463,-1.57166810412,0.00334864065283,0.00112750791289,0.014673284018,-0.0201868938727,-0.0124338981275,-0.0108910190187,0.00390999143024,-0.0038191684422,0.139259621901,0.178831596554,0.140132224622,0.0688652699258,0.00578466621285,-0.00915157940862,0.0,0.0,0.0,0.0,0.0,0.0,0.0,0.0,0.0,0.0,0.0,0.0,0.0,0.0,0.0,0.0,0.0,0.0,0.0,0.0,0.0,0.0,0.0,0.0,0.884006133869,7.78091270945,7.03980963087,1.71016682076,-0.597974311567,0.491707210627
1455906288393648774,140,1455906288393648774,,0.290633201599,0.000729615715021,-1.57690032937,0.168243866865,-1.57180566153,0.00340082277476,0.00107644964703,0.0165279314183,-0.0177223869974,-0.0105376092355,-0.00989507169124,0.00403720946714,-0.0038637813874,0.14170954382,0.194214043242,0.146932815555,0.0815036656589,0.0134444744785,0.0023716562395,0.000553480051696,-1.57668973245,0.168371061026,-1.57168974641,0.00335647337515,0.00111985302259,0.0149522011704,-0.0198268092908,-0.0121525389907,-0.0107512695227,0.00392273089007,-0.00383572185961,0.139657530539,0.181252985383,0.141226912021,0.0708842262034,0.00695479374084,-0.00740183799905,0.0,0.0,0.0,0.0,0.0,0.0,0.0,0.0,0.0,0.0,0.0,0.0,0.0,0.0,0.0,0.0,0.0,0.0,0.0,0.0,0.0,0.0,0.0,0.0,0.883570800686,7.81537627246,7.0630871289,1.72675983335,-0.598493586883,0.499691439574
1455906288395712742,141,1455906288395712742,,0.292697191238,0.000762955334132,-1.57693538352,0.168223086463,-1.57182528689,0.00340892508409,0.0010687285611,0.0168116876931,-0.017331761236,-0.0102427926825,-0.00973028762978,0.00406509986461,-0.00385730454708,0.142046730958,0.196411718182,0.147883737377,0.0832803958067,0.0144459229925,0.00410518408499,0.000583664157403,-1.57672902117,0.168347039474,-1.5717111052,0.00336433391177,0.00111216852369,0.0152319045368,-0.0194619142168,-0.011869013095,-0.0106075190644,0.00393780573311,-0.00384877703705,0.140045835829,0.183642088673,0.142298983453,0.0728662323178,0.00812004942297,-0.0056533394429,0.0,0.0,0.0,0.0,0.0,0.0,0.0,0.0,0.0,0.0,0.0,0.0,0.0,0.0,0.0,0.0,0.0,0.0,0.0,0.0,0.0,0.0,0.0,0.0,0.883057961822,7.84929656628,7.08600111827,1.74307654503,-0.599006293639,0.507551015604
1455906288397777892,142,1455906288397777892,,0.294762134552,0.000796863132636,-1.57696965205,0.168202897579,-1.57184457917,0.00341708520819,0.00106102389224,0.0170961108112,-0.0169367737185,-0.00994609111608,-0.00956199125809,0.00409502423621,-0.00384736431261,0.142376387178,0.198575799266,0.148817829091,0.0850159758775,0.015478448607,0.00583505038367,0.000614408437131,-1.57676757536,0.168323587095,-1.57173217256,0.00337222691851,0.00110446140987,0.0155123751912,-0.0190922736053,-0.01158336551,-0.0104598414683,0.00395520100539,-0.00385833678358,0.140424818582,0.185998522831,0.143348601412,0.0748113638642,0.00927522298651,-0.00390640707719,0.0,0.0,0.0,0.0,0.0,0.0,0.0,0.0,0.0,0.0,0.0,0.0,0.0,0.0,0.0,0.0,0.0,0.0,0.0,0.0,0.0,0.0,0.0,0.0,0.882553928524,7.88271458282,7.1085684506,1.75913412232,-0.599506141127,0.515299963566
1455906288399844771,143,1455906288399844771,,0.296829223633,0.000831340432443,-1.57700312631,0.168183303945,-1.57186353142,0.00342530734658,0.00105334256186,0.0173811889954,-0.0165374859132,-0.00964754309407,-0.00939026408221,0.00412711414959,-0.00383396606203,0.142701796995,0.200712006053,0.149730192915,0.0867112000015,0.0166114647747,0.00756320019923,0.000645714407008,-1.57680538559,0.168300708089,-1.57175294071,0.00338015701345,0.00109673866844,0.015793594685,-0.0187179532256,-0.0112956406654,-0.0103083106416,0.00397489393169,-0.00386440464908,0.140794675227,0.188321856976,0.14437624302,0.0767194629933,0.0104177034198,-0.00216145842081,0.0,0.0,0.0,0.0,0.0,0.0,0.0,0.0,0.0,0.0,0.0,0.0,0.0,0.0,0.0,0.0,0.0,0.0,0.0,0.0,0.0,0.0,0.0,0.0,0.882086128567,7.91564257068,7.13079249742,1.77493770908,-0.599990392159,0.522942480013
