Thorcito/FGP_ROBOT/src/controller/tum_ics_ur_robot/tum_ics_ur_robot_controllers/src/matlab/seCtrlData.csv
%time,field.header.seq,field.header.stamp,field.header.frame_id,field.time,field.q0,field.q1,field.q2,field.q3,field.q4,field.q5,field.qp0,field.qp1,field.qp2,field.qp3,field.qp4,field.qp5,field.qpp0,field.qpp1,field.qpp2,field.qpp3,field.qpp4,field.qpp5,field.qf0,field.qf1,field.qf2,field.qf3,field.qf4,field.qf5,field.qpf0,field.qpf1,field.qpf2,field.qpf3,field.qpf4,field.qpf5,field.qppf0,field.qppf1,field.qppf2,field.qppf3,field.qppf4,field.qppf5,field.Xef_00,field.Xef_01,field.Xef_02,field.Xef_03,field.Xef_04,field.Xef_05,field.Xefp_00,field.Xefp_01,field.Xefp_02,field.Xefp_03,field.Xefp_04,field.Xefp_05,field.Xeff_00,field.Xeff_01,field.Xeff_02,field.Xeff_03,field.Xeff_04,field.Xeff_05,field.Xefpf_00,field.Xefpf_01,field.Xefpf_02,field.Xefpf_03,field.Xefpf_04,field.Xefpf_05,field.torques0,field.torques1,field.torques2,field.torques3,field.torques4,field.torques5
1455821708151572453,96,1455821708148857158,,0.206310510635,2.44313618324,-1.57050456338,0.00019471683804,-2.79193822269,-0.784839313984,0.436424308308,-0.00506253416987,0.00454805410828,0.00303413389349,0.00921216109624,0.008724635484,0.00141276542293,-0.0566042742826,0.048861850024,0.0396250352275,0.0955419266227,0.0873579149196,0.0148173299765,2.44320564698,-1.57056698408,0.00015307725217,-2.7920643311,-0.784959300072,0.436404721745,-0.00427868268587,0.00384378939906,0.00256759052312,0.00775722110857,0.00737204468352,0.00120845247799,-0.048708860658,0.0439133658777,0.0288289470066,0.0898380867519,0.0866233292804,0.0134669489442,0.0,0.0,0.0,0.0,0.0,0.0,0.0,0.0,0.0,0.0,0.0,0.0,0.0,0.0,0.0,0.0,0.0,0.0,0.0,0.0,0.0,0.0,0.0,0.0,-0.602547735105,-1.16927123294,-1.56931229081,-1.80976624494,2.2092174451,0.127645238402
1455821708153822657,97,1455821708151316174,,0.20876955986,2.44312594165,-1.5704953649,0.000200861146322,-2.79191959067,-0.784821633365,0.436427162518,-0.00517905979204,0.0046504250534,0.0031101743886,0.00941985555747,0.00895598338636,0.00144144427619,-0.0599213478922,0.0535090950916,0.0364154598827,0.112152534603,0.143989987441,0.0138615232788,2.44319699119,-1.57055920782,0.000158270786015,-2.79204863503,-0.784944381396,0.436407165642,-0.00437711204642,0.00393246942492,0.00262594332202,0.00793885073839,0.00754663150153,0.0012354443841,-0.0497204998927,0.0447666599796,0.029523851896,0.0917915430665,0.0879634887258,0.0135249571666,0.0,0.0,0.0,0.0,0.0,0.0,0.0,0.0,0.0,0.0,0.0,0.0,0.0,0.0,0.0,0.0,0.0,0.0,0.0,0.0,0.0,0.0,0.0,0.0,-0.635645482697,-1.09762318799,-1.52185203387,-1.77237799601,2.21175495956,0.139012463032
1455821708156384287,98,1455821708153664515,,0.211117982864,2.44311546257,-1.57048595488,0.000207151072839,-2.79190051954,-0.784803435398,0.436430072636,-0.0053000179805,0.00475959558257,0.00317975212782,0.00965127972823,0.00924198414829,0.00146867408465,-0.0610368405681,0.0556614340761,0.0331622793344,0.119271636157,0.142010774492,0.0133682851796,2.44318813645,-1.57055125245,0.000163582467898,-2.79203257169,-0.784929109885,0.436409663639,-0.00447762984273,0.00402291033375,0.00268573856178,0.00812449286816,0.00772487925302,0.00126255287857,-0.0507972964173,0.0456742488548,0.0302713878592,0.0938505867016,0.0902842627631,0.0135835372985,0.0,0.0,0.0,0.0,0.0,0.0,0.0,0.0,0.0,0.0,0.0,0.0,0.0,0.0,0.0,0.0,0.0,0.0,0.0,0.0,0.0,0.0,0.0,0.0,-0.647387423967,-1.07251120039,-1.50614477385,-1.7594110381,2.2118153249,0.14260887887
1455821708158840335,99,1455821708156192824,,0.213646173477,2.44310473675,-1.57047632086,0.000213577906097,-2.79188096785,-0.784784687226,0.436433036294,-0.00542579849646,0.00487442538007,0.00324708113054,0.00990040294043,0.00950618754264,0.00149498327916,-0.06474367539,0.0591683634261,0.0341667233849,0.129851576047,0.122192619853,0.012940909335,2.44317907843,-1.57054311426,0.00016901518414,-2.7920161326,-0.784913476302,0.436412215951,-0.00458038983511,0.00411527705118,0.00274697767998,0.00831459353863,0.00790870405087,0.00128975860772,-0.0519626959593,0.046692468567,0.0309677303424,0.0962500837742,0.0935405350902,0.0136221918574,0.0,0.0,0.0,0.0,0.0,0.0,0.0,0.0,0.0,0.0,0.0,0.0,0.0,0.0,0.0,0.0,0.0,0.0,0.0,0.0,0.0,0.0,0.0,0.0,-0.685902499916,-0.99756093974,-1.45771949574,-1.72621973677,2.21057242498,0.151829387774
1455821708160291013,100,1455821708158648544,,0.216101884842,2.44309375382,-1.57046645303,0.000220144352268,-2.79186090809,-0.784765450373,0.436436052516,-0.00555713518244,0.00499339771808,0.00331936504071,0.0101593584799,0.00973066568941,0.00152123921396,-0.0665930105875,0.0598039745874,0.0381171867858,0.129103963405,0.102285526925,0.013315025461,2.44316981244,-1.57053478917,0.000174571731469,-2.79199930811,-0.784897468423,0.436414822727,-0.0046855932044,0.0042098097534,0.00280956964925,0.0085098942356,0.00809917501269,0.00131701755784,-0.0532406733399,0.047840233655,0.0316242389297,0.0990506131926,0.096930426725,0.0136367582544,0.0,0.0,0.0,0.0,0.0,0.0,0.0,0.0,0.0,0.0,0.0,0.0,0.0,0.0,0.0,0.0,0.0,0.0,0.0,0.0,0.0,0.0,0.0,0.0,-0.70624780544,-0.966390464206,-1.43862814631,-1.71667196744,2.20966113457,0.154055951484
1455821708162251943,101,1455821708160711960,,0.218165397644,2.44308251246,-1.57045635464,0.000226864401932,-2.79184036458,-0.784745834761,0.436439124579,-0.00568422016995,0.00510499298406,0.00340068462327,0.010384150669,0.00988494612177,0.00155082362678,-0.0604919769271,0.0517912913879,0.0432023957763,0.0956882256662,0.0519949054339,0.0162693873627,2.44316033344,-1.57052627269,0.000180254834114,-2.79198208739,-0.784881073686,0.436417484057,-0.00479340898888,0.00430667602065,0.00287353299578,0.00871082530828,0.00829556245198,0.00134431234629,-0.0545751111309,0.0490260335995,0.0323391075996,0.101880459482,0.0994570125701,0.0136580301999,0.0,0.0,0.0,0.0,0.0,0.0,0.0,0.0,0.0,0.0,0.0,0.0,0.0,0.0,0.0,0.0,0.0,0.0,0.0,0.0,0.0,0.0,0.0,0.0,-0.6471416011,-1.10432309084,-1.5327362366,-1.79134853497,2.20862324946,0.132005665375
1455821708164305551,102,1455821708162774276,,0.220227718353,2.4430710284,-1.57044604691,0.000233753461462,-2.79181942748,-0.784725972191,0.436442261433,-0.00579984270725,0.00520274288495,0.00348837490665,0.0105529575644,0.0099776240452,0.00158603027413,-0.0551305603754,0.0459586095067,0.0444878875971,0.0731186697574,0.0406830179953,0.0189372599868,2.44315063626,-1.57051756027,0.000186067436013,-2.79196445992,-0.784864282891,0.436420200093,-0.00490377226774,0.00440573996607,0.00293906890321,0.00891664502935,0.00849523202616,0.00137172414616,-0.0557881677327,0.0500379118129,0.0331967998347,0.103939261591,0.100212561608,0.0137537696699,0.0,0.0,0.0,0.0,0.0,0.0,0.0,0.0,0.0,0.0,0.0,0.0,0.0,0.0,0.0,0.0,0.0,0.0,0.0,0.0,0.0,0.0,0.0,0.0,-0.593352403969,-1.21567048305,-1.60720746288,-1.84711205946,2.20927522717,0.116740353806
1455821708167322553,103,1455821708164841735,,0.222295045853,2.44305932154,-1.57043555043,0.000240812576666,-2.7917981745,-0.784705900036,0.436445471997,-0.00590701953089,0.00529373253549,0.00357074029693,0.0107000131081,0.010094531041,0.00162453358398,-0.0520462632583,0.0450310410337,0.0378775026825,0.0739368739372,0.0762239778069,0.0195660498652,2.44314071621,-1.57050864803,0.000192012915865,-2.79194641796,-0.784847092919,0.436422971269,-0.00501627504961,0.00450650165012,0.00300641094802,0.00912531941193,0.00869474017028,0.00139945122041,-0.0567146141393,0.0507237722404,0.0341452449706,0.104735120987,0.0992955825107,0.0139733045751,0.0,0.0,0.0,0.0,0.0,0.0,0.0,0.0,0.0,0.0,0.0,0.0,0.0,0.0,0.0,0.0,0.0,0.0,0.0,0.0,0.0,0.0,0.0,0.0,-0.559734829856,-1.26308502342,-1.63633575219,-1.86151602668,2.21172311321,0.11431596261
1455821708169759128,104,1455821708167191603,,0.224644899368,2.44304739943,-1.57042486548,0.000248020100233,-2.79177659307,-0.784685485338,0.436448757864,-0.0060150827146,0.00539122042934,0.00363678327031,0.0108814181614,0.0103201670863,0.00166133348721,-0.0560169204498,0.0524568528112,0.0281654707052,0.107468179357,0.149412067484,0.0172338533589,2.44313056961,-1.57049953316,0.000198094847259,-2.79192795795,-0.784829505977,0.436425798438,-0.00513032308326,0.00460836182002,0.0030755204458,0.00933469171591,0.00889220163265,0.00142771778494,-0.0573334195124,0.0511363976572,0.034964252807,0.104637182998,0.0981658798625,0.0142932599586,0.0,0.0,0.0,0.0,0.0,0.0,0.0,0.0,0.0,0.0,0.0,0.0,0.0,0.0,0.0,0.0,0.0,0.0,0.0,0.0,0.0,0.0,0.0,0.0,-0.596228293063,-1.15670497414,-1.56202383373,-1.79699687621,2.21479337487,0.134573553539
1455821708172318727,105,1455821708169602102,,0.227055549622,2.44303525187,-1.57041397118,0.000255345814398,-2.79175458685,-0.784664521173,0.4364521125,-0.0061324795088,0.00550307369433,0.00368893089421,0.0111248036798,0.0106439977129,0.00169330305008,-0.0613798737544,0.0593964121823,0.0239821531967,0.13591733911,0.174418559095,0.0147357095151,2.44312019386,-1.57049021381,0.000204316274585,-2.79190907932,-0.784811524881,0.436428682796,-0.00524543363815,0.00471098819146,0.00314590688095,0.00954393987325,0.00908889426597,0.00145664007926,-0.0577771353719,0.0514899737912,0.0354221823516,0.104610974338,0.0985267534492,0.0146290343603,0.0,0.0,0.0,0.0,0.0,0.0,0.0,0.0,0.0,0.0,0.0,0.0,0.0,0.0,0.0,0.0,0.0,0.0,0.0,0.0,0.0,0.0,0.0,0.0,-0.649180832852,-1.03293503376,-1.47819235575,-1.73160174674,2.2153563397,0.153514948664
1455821708174756795,106,1455821708172152611,,0.229605913162,2.44302285741,-1.57040284117,0.000262777658284,-2.79173204975,-0.7846429051,0.436455527243,-0.00626197900857,0.00562693619205,0.00374291299252,0.0114122978624,0.0109720747628,0.00172143953834,-0.0681196260202,0.0644660855365,0.0299999451099,0.151576843467,0.153658490794,0.0134007787457,2.44310958697,-1.57048068835,0.00021067900541,-2.79188978136,-0.784793147747,0.436431625604,-0.00536145126168,0.00481447167777,0.00321682394388,0.00975402101729,0.00928824025923,0.00148616778684,-0.0582404881581,0.0519935125183,0.0354948805718,0.105470169707,0.100819239812,0.0148986732242,0.0,0.0,0.0,0.0,0.0,0.0,0.0,0.0,0.0,0.0,0.0,0.0,0.0,0.0,0.0,0.0,0.0,0.0,0.0,0.0,0.0,0.0,0.0,0.0,-0.719130403009,-0.899677466731,-1.39094186947,-1.67374230222,2.21356659148,0.169030101791
1455821708177041965,107,1455821708174632826,,0.232086181641,2.44301019374,-1.57039145848,0.000270334960768,-2.79170892931,-0.784620696564,0.436458997603,-0.00640169957688,0.00575575538202,0.00381438949076,0.011708140902,0.0112364619579,0.00174891993793,-0.0716009422856,0.0643531044335,0.0414765531241,0.144266196161,0.110728704376,0.0140796208441,2.44309874695,-1.57047095469,0.000217183569549,-2.79187006045,-0.784774366392,0.436434627912,-0.00547857071529,0.00491919403983,0.00328774019526,0.00996688212979,0.00949311428247,0.00151614057118,-0.0588789654566,0.0527288495339,0.035421370812,0.107390942788,0.104054783431,0.0150741111109,0.0,0.0,0.0,0.0,0.0,0.0,0.0,0.0,0.0,0.0,0.0,0.0,0.0,0.0,0.0,0.0,0.0,0.0,0.0,0.0,0.0,0.0,0.0,0.0,-0.758174605985,-0.84841290478,-1.36030469335,-1.66284758816,2.21134067754,0.170523857567
1455821708179305687,108,1455821708176946651,,0.234400033951,2.4429972487,-1.57037982291,0.000278056002404,-2.79168524912,-0.784598037144,0.436462525955,-0.00654333793607,0.00587982047843,0.00390665214533,0.0119720477235,0.0114229573684,0.00177943304837,-0.0700374169071,0.0597119919817,0.0507861014523,0.119640625298,0.0757667060631,0.0164334895911,2.4430876712,-1.57046100995,0.000223830008837,-2.79184990942,-0.784755169304,0.436437690458,-0.00559717622634,0.00502554321734,0.00335869909221,0.0101841534225,0.00970397337266,0.00154640517055,-0.0597265455922,0.0536203279788,0.0355375261347,0.109880349954,0.106804306762,0.0151904882639,0.0,0.0,0.0,0.0,0.0,0.0,0.0,0.0,0.0,0.0,0.0,0.0,0.0,0.0,0.0,0.0,0.0,0.0,0.0,0.0,0.0,0.0,0.0,0.0,-0.74631757185,-0.903677826086,-1.40114724577,-1.702831407,2.21039432139,0.15789462058
1455821708181319925,109,1455821708179192319,,0.236645698547,2.44298402521,-1.57036794756,0.000285972078918,-2.79166108367,-0.784575036442,0.436466119793,-0.0066801478154,0.00599552266663,0.00400942436898,0.0121934064829,0.0115777453043,0.00181440463184,-0.066772462421,0.0559901962121,0.0519861222005,0.101718134116,0.0790212299135,0.0185380938841,2.44307635644,-1.57045085074,0.000230618984619,-2.79182931909,-0.784735546315,0.436440813775,-0.00571758779661,0.00513366449324,0.00343027669015,0.0104061787538,0.00991901611838,0.00157691222556,-0.0606850246761,0.054500947919,0.0360400718107,0.112144981287,0.108238438959,0.0153165667473,0.0,0.0,0.0,0.0,0.0,0.0,0.0,0.0,0.0,0.0,0.0,0.0,0.0,0.0,0.0,0.0,0.0,0.0,0.0,0.0,0.0,0.0,0.0,0.0,-0.715084100611,-0.98120821917,-1.45524347368,-1.74503405369,2.21154872116,0.145895917465
1455821708183439704,110,1455821708181216792,,0.238670110703,2.44297053823,-1.57035584957,0.000294088314607,-2.79163651165,-0.784551727504,0.436469787691,-0.0068068309888,0.00610246818456,0.00410681132002,0.0123786127619,0.0117311923163,0.00185349294698,-0.0599107109734,0.0509553217217,0.0454008288299,0.0834881448899,0.0744257820233,0.0205502212526,2.443064799,-1.5704404737,0.000237552441019,-2.79180828103,-0.784715491683,0.436443998429,-0.00583985433968,0.00524337726614,0.00350317971003,0.0106318748737,0.010135616224,0.00160774198487,-0.061581518399,0.0552118249832,0.0368629480652,0.113551138683,0.108361666665,0.0155131925585,0.0,0.0,0.0,0.0,0.0,0.0,0.0,0.0,0.0,0.0,0.0,0.0,0.0,0.0,0.0,0.0,0.0,0.0,0.0,0.0,0.0,0.0,0.0,0.0,-0.645545218667,-1.11778893165,-1.54673211256,-1.8076235409,2.21282441518,0.128749878691
1455821708185562045,111,1455821708183334405,,0.240787744522,2.44295680776,-1.57034354279,0.000302383466704,-2.79161158351,-0.784528103087,0.436473536141,-0.00692364606211,0.00620431022502,0.00418834077714,0.0125495307367,0.0118932244694,0.00189495743086,-0.0569043623383,0.0508867187375,0.0361286282973,0.087429829929,0.0876063710857,0.0209142626305,2.44305299546,-1.57042987607,0.000244633402724,-2.79178678987,-0.784695004555,0.436447245235,-0.0059636819824,0.00535425114294,0.00357778199465,0.0108592872686,0.0103515114202,0.00163906366073,-0.0622461243139,0.0556620518191,0.03773933655,0.113861256172,0.107533529497,0.0158084833016,0.0,0.0,0.0,0.0,0.0,0.0,0.0,0.0,0.0,0.0,0.0,0.0,0.0,0.0,0.0,0.0,0.0,0.0,0.0,0.0,0.0,0.0,0.0,0.0,-0.612824100307,-1.16050916416,-1.57326866808,-1.81892264021,2.21419208924,0.127059547683
1455821708187619464,112,1455821708185448735,,0.242902040482,2.44294284768,-1.57033103108,0.000310825166373,-2.79158629879,-0.784504128295,0.436477367304,-0.00703642548777,0.00630740637179,0.00425335889167,0.0127351803153,0.0120815681187,0.00193620585659,-0.055875063325,0.0522094280326,0.0288894862348,0.0982197486593,0.100737278211,0.0203341630941,2.44304094325,-1.57041905604,0.00025186508222,-2.79176484411,-0.784674087723,0.436450555358,-0.00608853168972,0.00546578162727,0.00365389750176,0.0110864740906,0.010565320394,0.00167105915164,-0.0626035830114,0.0558684325064,0.03837617056,0.113325565821,0.10627544434,0.0161870076078,0.0,0.0,0.0,0.0,0.0,0.0,0.0,0.0,0.0,0.0,0.0,0.0,0.0,0.0,0.0,0.0,0.0,0.0,0.0,0.0,0.0,0.0,0.0,0.0,-0.599677024256,-1.15954366299,-1.56946480003,-1.80865077589,2.21516243899,0.131286767218
1455821708189546148,113,1455821708187514059,,0.244967460632,2.44292866416,-1.57031831255,0.000319388563554,-2.79156063064,-0.78447977207,0.436481280321,-0.00714709646635,0.00641112029055,0.00431003828955,0.0129329742967,0.0122746570765,0.00197681076763,-0.0547959152534,0.0515044907281,0.0277899116412,0.0995742326989,0.0923516795701,0.0202707479529,2.44302864091,-1.57040801271,0.000259249868645,-2.79174244547,-0.784652745837,0.436453930274,-0.00621380180794,0.00557754626792,0.00373088892325,0.0113121685703,0.0107765660792,0.00170385688603,-0.0626665352084,0.0558962081522,0.0386152509303,0.112368913883,0.104970240809,0.016610726779,0.0,0.0,0.0,0.0,0.0,0.0,0.0,0.0,0.0,0.0,0.0,0.0,0.0,0.0,0.0,0.0,0.0,0.0,0.0,0.0,0.0,0.0,0.0,0.0,-0.587434866809,-1.16827146495,-1.57287553165,-1.80889712303,2.21511022055,0.131717628064
1455821708191609882,114,1455821708189578165,,0.247031450272,2.4429142609,-1.57030538888,0.00032806775358,-2.79153456971,-0.784455051246,0.436485274941,-0.00725617082607,0.00651254858295,0.00436915173665,0.0131279584298,0.0124461664141,0.00201780913789,-0.0542784444646,0.0499238016668,0.0313235354607,0.0954099004037,0.0791576580678,0.0207276223029,2.44301608817,-1.57039674595,0.000266788757738,-2.79171959757,-0.784630984196,0.436457371652,-0.00633894129305,0.00568921573542,0.0038080001692,0.0115357302098,0.0109850744443,0.00173752146855,-0.0624729498984,0.0557732593437,0.0384959950265,0.111192725618,0.103538124326,0.0170538557411,0.0,0.0,0.0,0.0,0.0,0.0,0.0,0.0,0.0,0.0,0.0,0.0,0.0,0.0,0.0,0.0,0.0,0.0,0.0,0.0,0.0,0.0,0.0,0.0,-0.581963760518,-1.17377083396,-1.57508034,-1.81236224731,2.2147608553,0.130851680486
1455821708193642153,115,1455821708191644054,,0.24909734726,2.44289964001,-1.5702922649,0.000336871897735,-2.79150812573,-0.784429999881,0.436489352383,-0.00736471582054,0.0066114304866,0.00443499241786,0.0133160238021,0.0126051989134,0.00205963303981,-0.0542665500047,0.0489581019851,0.0345171457459,0.0926554719124,0.0798748412439,0.0210962796146,2.44300328574,-1.57038525624,0.000274481431696,-2.7916963051,-0.784608808722,0.436460881256,-0.00646348652798,0.00580048990795,0.00388467378897,0.0117567320189,0.0111903998295,0.00177208284834,-0.0620722850363,0.0555009131861,0.0381776247367,0.109809083478,0.101787260888,0.0175075240506,0.0,0.0,0.0,0.0,0.0,0.0,0.0,0.0,0.0,0.0,0.0,0.0,0.0,0.0,0.0,0.0,0.0,0.0,0.0,0.0,0.0,0.0,0.0,0.0,-0.581822051662,-1.1719154097,-1.57292895091,-1.81262412906,2.21503350634,0.130892780565
1455821708195675429,116,1455821708193706700,,0.251160144806,2.44288480188,-1.57027894401,0.000345811151691,-2.79148130744,-0.784404618268,0.436493513834,-0.00747341129024,0.00670945970058,0.00450426153827,0.0135022625407,0.0127764141358,0.00210181778491,-0.0544289196975,0.0490711119992,0.0347519746604,0.0935832666877,0.0913403810952,0.0210884654833,2.44299023518,-1.57037354467,0.000282326753008,-2.79167257359,-0.78458622629,0.436464460894,-0.00658708137902,0.00591108688652,0.00396064752358,0.0119747825233,0.011392031794,0.00180755472453,-0.0615225660019,0.055096065387,0.0377961098785,0.108241420973,0.0998447036027,0.0179643521457,0.0,0.0,0.0,0.0,0.0,0.0,0.0,0.0,0.0,0.0,0.0,0.0,0.0,0.0,0.0,0.0,0.0,0.0,0.0,0.0,0.0,0.0,0.0,0.0,-0.583439618807,-1.1664272605,-1.56891307962,-1.80965719673,2.21582900232,0.131858659174
1455821708197714457,117,1455821708195769039,,0.253222465515,2.44286974593,-1.57026542615,0.000354887485499,-2.79145411266,-0.784378875391,0.436497759392,-0.00758254242011,0.00680840270754,0.00457207226989,0.0136925145837,0.0129664624364,0.00214373987003,-0.0547022101757,0.0498718949566,0.0330587569624,0.0966687763327,0.0987079194947,0.0208336196412,2.44297693861,-1.5703616128,0.000290323237732,-2.79164840918,-0.784563244323,0.436468112378,-0.00670948439488,0.00602078581418,0.00403583719963,0.01218962288,0.01158993512,0.00184392915519,-0.0608804498573,0.0546028622724,0.0373935661704,0.106598935662,0.0980586223905,0.0184100785076,0.0,0.0,0.0,0.0,0.0,0.0,0.0,0.0,0.0,0.0,0.0,0.0,0.0,0.0,0.0,0.0,0.0,0.0,0.0,0.0,0.0,0.0,0.0,0.0,-0.586347386212,-1.15832374214,-1.56371361259,-1.80489535799,2.21642259685,0.133213270799
1455821708199780941,118,1455821708197834735,,0.255288124084,2.442854471,-1.57025170876,0.000364096400655,-2.79142653145,-0.784352747791,0.436502088284,-0.0076923844076,0.00690898944361,0.00463684288603,0.0138886933471,0.0131611372057,0.00218515289438,-0.0551397773101,0.0507148411187,0.0317118591833,0.099509987056,0.0959668498524,0.0205794047082,2.44296339856,-1.57034946254,0.000298469258024,-2.79162381831,-0.784539869763,0.436471837474,-0.00683056145359,0.00612946608302,0.00411018309269,0.0124012500626,0.0117846254739,0.00188116655685,-0.0601966088511,0.0540774065617,0.0369523268875,0.105028246956,0.096631731528,0.0188273231602,0.0,0.0,0.0,0.0,0.0,0.0,0.0,0.0,0.0,0.0,0.0,0.0,0.0,0.0,0.0,0.0,0.0,0.0,0.0,0.0,0.0,0.0,0.0,0.0,-0.591178644434,-1.14743529204,-1.55695530955,-1.7995931519,2.21649795372,0.1345612266
1455821708201804285,119,1455821708199897156,,0.257350444794,2.44283897554,-1.57023778901,0.000373433674507,-2.79139855431,-0.784326240326,0.436506499666,-0.00780307429201,0.00701076243961,0.00470043096578,0.0140884454173,0.0133463282278,0.00222622848301,-0.0555501070989,0.0510581548764,0.0318762205601,0.10024208311,0.0892241722685,0.0204961839272,2.44294961773,-1.57033709597,0.000306763038763,-2.79159880715,-0.784516108393,0.436475637837,-0.00695027244967,0.00623710930252,0.00418359764643,0.0126099142891,0.0119767438377,0.00191919695911,-0.0595143872262,0.0535658129443,0.0364622268546,0.103635979562,0.0954866322498,0.019203079097,0.0,0.0,0.0,0.0,0.0,0.0,0.0,0.0,0.0,0.0,0.0,0.0,0.0,0.0,0.0,0.0,0.0,0.0,0.0,0.0,0.0,0.0,0.0,0.0,-0.595935286151,-1.13848599752,-1.55149803361,-1.79639126112,2.21638158045,0.135215903819
1455821708203899671,120,1455821708201962277,,0.259415626526,2.4428232578,-1.57022366523,0.000382899470585,-2.79137017702,-0.784299369366,0.436510993104,-0.00791466545413,0.0071130142851,0.00476536511225,0.0142888520497,0.0135246319428,0.00226721000715,-0.0560410550233,0.0511936906164,0.0330579259077,0.100164549285,0.0890795427417,0.0204853402111,2.4429355988,-1.57032451509,0.000315202647592,-2.79157338123,-0.784491964954,0.436479514966,-0.00706865526232,0.00634376897783,0.00425601118203,0.0128160072668,0.0121666956517,0.00195793196423,-0.0588684254276,0.0530938623579,0.0359513087427,0.102456998169,0.0944651817931,0.0195319260237,0.0,0.0,0.0,0.0,0.0,0.0,0.0,0.0,0.0,0.0,0.0,0.0,0.0,0.0,0.0,0.0,0.0,0.0,0.0,0.0,0.0,0.0,0.0,0.0,-0.601508120783,-1.12874437541,-1.54536028441,-1.7932353905,2.21657628445,0.135892827023
1455821708205887352,121,1455821708204024065,,0.261477470398,2.44280731598,-1.57020933671,0.000392497349514,-2.79134139906,-0.784272136339,0.436515568469,-0.00802715660434,0.00721550976836,0.00483251381634,0.0144891033853,0.0137083953407,0.00230815520137,-0.056450095184,0.0513017926449,0.03409077819,0.100086786354,0.0946838551601,0.0204598540018,2.44292134434,-1.57031172179,0.000323786089535,-2.79154754527,-0.784467443538,0.436483470175,-0.00718580821914,0.00644953553179,0.00432743076138,0.0130199464442,0.0123547200682,0.00199727742428,-0.0582845313911,0.0526726916028,0.0354682706118,0.101482179139,0.0935592346515,0.0198135340221,0.0,0.0,0.0,0.0,0.0,0.0,0.0,0.0,0.0,0.0,0.0,0.0,0.0,0.0,0.0,0.0,0.0,0.0,0.0,0.0,0.0,0.0,0.0,0.0,-0.606180583546,-1.12067759041,-1.54025730898,-1.79059907607,2.21707211381,0.136469291455
1455821708207965980,122,1455821708206090194,,0.263543605804,2.44279114827,-1.57019480266,0.000402230850013,-2.7913122195,-0.784244524966,0.436520225579,-0.00814055611982,0.00731853586404,0.00490098668282,0.0146904584772,0.0139029773549,0.00234895395054,-0.0569494203006,0.0517243030286,0.0343820882873,0.101268305503,0.0998981590118,0.0203388951716,2.44290685666,-1.57029871773,0.0003325114687,-2.7915213032,-0.784442547641,0.436487504593,-0.00730187333859,0.00655451787129,0.00439794840408,0.0132221302834,0.0125411767051,0.00203713967672,-0.057780588061,0.0523096479029,0.0350493720916,0.100701660128,0.0928974022782,0.0200487184187,0.0,0.0,0.0,0.0,0.0,0.0,0.0,0.0,0.0,0.0,0.0,0.0,0.0,0.0,0.0,0.0,0.0,0.0,0.0,0.0,0.0,0.0,0.0,0.0,-0.611694858204,-1.11005860281,-1.53349011665,-1.78624881551,2.21753860902,0.137558072768
1455821708210072116,123,1455821708208155332,,0.265608787537,2.44277475279,-1.57018006162,0.00041210137933,-2.7912826345,-0.784216519759,0.436524964019,-0.008254924384,0.00742250517888,0.00496954263468,0.0148945461833,0.0141022293653,0.00238948616181,-0.0574188438778,0.052245011816,0.0341738635737,0.102819400641,0.0993538513595,0.0201933160984,2.44289213776,-1.57028550437,0.000341377118594,-2.79149465811,-0.784417279826,0.436491619158,-0.00741702225734,0.00665884153108,0.00446770148958,0.0134229563363,0.0127266384976,0.00207742615079,-0.0573683306882,0.0520140118895,0.0347037134012,0.100124392713,0.0925643902677,0.0202377556539,0.0,0.0,0.0,0.0,0.0,0.0,0.0,0.0,0.0,0.0,0.0,0.0,0.0,0.0,0.0,0.0,0.0,0.0,0.0,0.0,0.0,0.0,0.0,0.0,-0.616930392936,-1.09965644429,-1.52697445841,-1.78187611974,2.21773082433,0.138615335407
1455821708211894431,124,1455821708210222276,,0.267675638199,2.44275812761,-1.57016511162,0.000422108736702,-2.79125263839,-0.784188119698,0.43652978326,-0.00837025563497,0.00752749429544,0.00503781473664,0.0151015574445,0.0142978319116,0.00242975467569,-0.0579124070896,0.0527441047406,0.0340982383852,0.104191860499,0.0962486949175,0.0200751977861,2.44287718929,-1.57027208288,0.000350381648686,-2.79146761231,-0.784391641483,0.43649581463,-0.00753144489572,0.00676265015255,0.00453682860235,0.0136228458362,0.0129117045424,0.00211804529051,-0.0570543076909,0.0517946095811,0.0344233993751,0.0997651071885,0.092501654492,0.0203813840664,0.0,0.0,0.0,0.0,0.0,0.0,0.0,0.0,0.0,0.0,0.0,0.0,0.0,0.0,0.0,0.0,0.0,0.0,0.0,0.0,0.0,0.0,0.0,0.0,-0.622466634937,-1.08891589002,-1.52029735493,-1.77756367756,2.217794771,0.139630060826
1455821708213918243,125,1455821708212284586,,0.269737958908,2.4427412709,-1.57014995089,0.000432252915157,-2.79122222653,-0.784159332844,0.436534682881,-0.00848644989751,0.00763323447595,0.00510636371853,0.0153103028157,0.0144890215665,0.00246986720225,-0.0582818554519,0.0529960757761,0.0344507435015,0.104553510706,0.0949409600207,0.020037328772,2.44286201251,-1.57025845413,0.000359523931144,-2.79144016723,-0.784365632988,0.436500091584,-0.00764533883887,0.00686609907655,0.00460545385547,0.0138222314032,0.0130967910621,0.00215890912876,-0.0568396354615,0.0516543144188,0.0342018537424,0.0996204598904,0.0925848652266,0.0204824541831,0.0,0.0,0.0,0.0,0.0,0.0,0.0,0.0,0.0,0.0,0.0,0.0,0.0,0.0,0.0,0.0,0.0,0.0,0.0,0.0,0.0,0.0,0.0,0.0,-0.62679755926,-1.08120129384,-1.51562938978,-1.77500266202,2.21796983009,0.140143613148
1455821708216161215,126,1455821708214346524,,0.27179980278,2.44272418108,-1.57013457824,0.000442535123352,-2.79119139668,-0.784130162356,0.436539662679,-0.00860337037089,0.00773941731113,0.00517584447704,0.0155195466811,0.0146814669908,0.00250993028889,-0.0586386179309,0.0531867593961,0.0350300150078,0.104690354732,0.0975044642793,0.0200257578663,2.44284660827,-1.57024461869,0.000368803082416,-2.79141232348,-0.784339254068,0.436504450431,-0.00775889868408,0.0069693417305,0.00467369741638,0.0140215140741,0.0132821285071,0.00219993773927,-0.0567202097518,0.0515883395298,0.0340417071645,0.0996622110086,0.0927525796998,0.020546156323,0.0,0.0,0.0,0.0,0.0,0.0,0.0,0.0,0.0,0.0,0.0,0.0,0.0,0.0,0.0,0.0,0.0,0.0,0.0,0.0,0.0,0.0,0.0,0.0,-0.630971279388,-1.07380031442,-1.51110289121,-1.77261593695,2.21833867355,0.140648764858
1455821708218185795,127,1455821708216408648,,0.273862123489,2.44270685667,-1.57011899274,0.000452957270936,-2.79116014761,-0.784100600823,0.43654472255,-0.00872103873038,0.00784607758457,0.00524630310681,0.0157295290924,0.0148800662862,0.00254994117732,-0.0590297415559,0.0534735140452,0.0354286147667,0.105292056562,0.101094831147,0.0199851305648,2.44283097707,-1.57023057683,0.000378218467492,-2.79138408094,-0.784312504021,0.436508891431,-0.00787230790082,0.00707251862356,0.00474168765957,0.0142210313976,0.01346791881,0.00224106234245,-0.0566890069854,0.0515885535283,0.0339485360298,0.0998551124453,0.0930377232765,0.0205784468589,0.0,0.0,0.0,0.0,0.0,0.0,0.0,0.0,0.0,0.0,0.0,0.0,0.0,0.0,0.0,0.0,0.0,0.0,0.0,0.0,0.0,0.0,0.0,0.0,-0.635424702256,-1.06525701561,-1.50575513523,-1.76944826576,2.21875331342,0.141410835534
1455821708220203780,128,1455821708218483182,,0.275936603546,2.44268929582,-1.57010319293,0.000463520821579,-2.79112847568,-0.784070635033,0.436549862241,-0.00883981426286,0.00795373981059,0.00531724753637,0.0159423954868,0.0150857228561,0.00258974922827,-0.0597457909315,0.0541887119753,0.0355158147974,0.10757433787,0.104561738759,0.0198229203831,2.44281511902,-1.57021632855,0.000387769712376,-2.79135543883,-0.784285381638,0.436513414718,-0.00798573777438,0.00717575820819,0.00480955722481,0.0144210726009,0.013654463746,0.0022822244607,-0.0567408665726,0.0516510311016,0.0339210292095,0.100186090836,0.0935072127002,0.0205836713917,0.0,0.0,0.0,0.0,0.0,0.0,0.0,0.0,0.0,0.0,0.0,0.0,0.0,0.0,0.0,0.0,0.0,0.0,0.0,0.0,0.0,0.0,0.0,0.0,-0.643090427246,-1.04943175712,-1.49553166406,-1.76248560993,2.21910824894,0.143277688059
1455821708222196712,129,1455821708220545290,,0.277998685837,2.44267149634,-1.57008717675,0.00047422644431,-2.79109637505,-0.784040256907,0.436555081336,-0.00895966703546,0.00806243677406,0.00538837519405,0.0161582322841,0.0152924040824,0.00262934554362,-0.0601069816686,0.0545082514984,0.0356118428829,0.108262459373,0.102119487477,0.0197733949645,2.44279903393,-1.57020187361,0.000397456697769,-2.79132639584,-0.784257885037,0.436518020315,-0.00809935045378,0.00727918441527,0.00487742816808,0.014621916958,0.0138421373873,0.0023233728898,-0.0568718128247,0.0517751759736,0.033949914061,0.100658266323,0.0941664286199,0.020564757712,0.0,0.0,0.0,0.0,0.0,0.0,0.0,0.0,0.0,0.0,0.0,0.0,0.0,0.0,0.0,0.0,0.0,0.0,0.0,0.0,0.0,0.0,0.0,0.0,-0.647302129132,-1.04138310671,-1.49063180081,-1.75959592218,2.21923930957,0.143900693655
1455821708224258187,130,1455821708222612515,,0.280066013336,2.44265345634,-1.57007094253,0.000485074814865,-2.79106384149,-0.784009469962,0.436560379572,-0.00908033245224,0.00817178362457,0.00545999536089,0.0163753322559,0.0154945406978,0.00266889132848,-0.0605584351082,0.0548385990051,0.0360083239556,0.108837512469,0.100017127923,0.0197723898941,2.44278272129,-1.57018721151,0.000407279530395,-2.7912969501,-0.784230011673,0.436522708152,-0.00821329628977,0.0073829154404,0.00494540445831,0.0148238321615,0.0140312266446,0.00236446354218,-0.0570740231648,0.0519558491624,0.0340263761693,0.10125693713,0.0949228286889,0.0205258946625,0.0,0.0,0.0,0.0,0.0,0.0,0.0,0.0,0.0,0.0,0.0,0.0,0.0,0.0,0.0,0.0,0.0,0.0,0.0,0.0,0.0,0.0,0.0,0.0,-0.652464304308,-1.03177568679,-1.48473689405,-1.75622926994,2.21937397027,0.144676338282
1455821708225756803,131,1455821708224675287,,0.282128572464,2.44263517422,-1.57005448908,0.000496067281772,-2.79103087301,-0.783978280265,0.436565756935,-0.00920178448974,0.00828166296213,0.00553247154591,0.0165931461301,0.01569515632,0.00270847075156,-0.060893602387,0.0550407385615,0.0364678610591,0.1089763617,0.100598494345,0.0198070331906,2.44276618028,-1.57017234154,0.000417238513125,-2.79126709923,-0.784201758614,0.436527478078,-0.00832770731647,0.00748705470778,0.00501357827122,0.015027038337,0.0142218320507,0.00240546227067,-0.0573370035433,0.0521834182187,0.0341474367363,0.10194923842,0.0956825773494,0.0204728338314,0.0,0.0,0.0,0.0,0.0,0.0,0.0,0.0,0.0,0.0,0.0,0.0,0.0,0.0,0.0,0.0,0.0,0.0,0.0,0.0,0.0,0.0,0.0,0.0,-0.656422112418,-1.02457120022,-1.48038895991,-1.75396857886,2.21966084601,0.145166396187
1455821708228458980,132,1455821708226742956,,0.284196376801,2.44261664839,-1.57003781526,0.000507205475406,-2.79099746776,-0.783946684737,0.436571213463,-0.00932405093374,0.00839215619775,0.00560572208846,0.0168121005196,0.0159003713648,0.00274805818788,-0.0613728416122,0.0554524970571,0.0367826814971,0.109978027861,0.104616550402,0.0197804031262,2.44274940988,-1.5701572628,0.000427334128727,-2.79123684049,-0.784173122822,0.436532329886,-0.00844269514831,0.00759168688224,0.00508203733097,0.0152316936829,0.0144139598275,0.00244634598742,-0.0576508282931,0.0524487562396,0.034311623019,0.102706107449,0.0964451994406,0.0204108829161,0.0,0.0,0.0,0.0,0.0,0.0,0.0,0.0,0.0,0.0,0.0,0.0,0.0,0.0,0.0,0.0,0.0,0.0,0.0,0.0,0.0,0.0,0.0,0.0,-0.661754850404,-1.01398393531,-1.47371636161,-1.74981703533,2.22009306351,0.14624703544
1455821708230535659,133,1455821708228812776,,0.286266088486,2.442597877,-1.57002091952,0.000518490609284,-2.79096362213,-0.783914671576,0.436576749072,-0.00944733217327,0.00850358594783,0.00567941178946,0.0170335310734,0.0161127897365,0.00278754999794,-0.0619083979254,0.0559772530197,0.0369070195031,0.111452525909,0.107801821291,0.0197114069365,2.44273240883,-1.57014197423,0.00043756702821,-2.79120617088,-0.784144101179,0.436537263332,-0.00855835406481,0.00769688248857,0.00515086215194,0.0154379168338,0.014607683494,0.0024871002452,-0.0580080882081,0.0527468500912,0.0345131979485,0.103517043487,0.0972784671009,0.0203433748617,0.0,0.0,0.0,0.0,0.0,0.0,0.0,0.0,0.0,0.0,0.0,0.0,0.0,0.0,0.0,0.0,0.0,0.0,0.0,0.0,0.0,0.0,0.0,0.0,-0.667636431796,-1.00192729271,-1.46606236989,-1.74482509756,2.22047759025,0.147564632283
1455821708232636685,134,1455821708230895282,,0.288348674774,2.44257885767,-1.57000379955,0.000529923379569,-2.79092932956,-0.783882228053,0.436582363446,-0.00957199937795,0.00861638474641,0.00575335849617,0.0172590461931,0.0163307334745,0.00282682419063,-0.0627588067517,0.0568215455582,0.0370396872079,0.114062593763,0.110141916733,0.0195627857524,2.44271517571,-1.57012647464,0.000447938008263,-2.79117508714,-0.784114690294,0.436542278147,-0.00867476837183,0.00780270807915,0.00522011790143,0.0156458292121,0.0148032012866,0.00252771489214,-0.058406218807,0.0530787404834,0.0347425515453,0.104395334731,0.0982393254572,0.0202712720798,0.0,0.0,0.0,0.0,0.0,0.0,0.0,0.0,0.0,0.0,0.0,0.0,0.0,0.0,0.0,0.0,0.0,0.0,0.0,0.0,0.0,0.0,0.0,0.0,-0.676707947345,-0.983291306853,-1.45405890705,-1.73670383921,2.2207709841,0.149765663566
1455821708234696647,135,1455821708232968035,,0.290421485901,2.44255958766,-1.56998645277,0.000541504575232,-2.79089458268,-0.783849348778,0.436588056217,-0.00969801107565,0.00873040126248,0.00582783716679,0.0174878261622,0.0165485411061,0.00286594742894,-0.0632528909442,0.0571949705161,0.0374389834055,0.114717375332,0.107665714876,0.0195604525624,2.44269770892,-1.5701107627,0.000458447978797,-2.79114358573,-0.784084886342,0.436547374043,-0.00879201914615,0.00790923318612,0.0052898526323,0.0158555797676,0.0150007506198,0.00256818118705,-0.0588445555139,0.0534463664895,0.0349921793197,0.105355220783,0.0993100078135,0.0201950228335,0.0,0.0,0.0,0.0,0.0,0.0,0.0,0.0,0.0,0.0,0.0,0.0,0.0,0.0,0.0,0.0,0.0,0.0,0.0,0.0,0.0,0.0,0.0,0.0,-0.682343932098,-0.97281695273,-1.44764675656,-1.73303126657,2.22089616202,0.150614138881
1455821708236368924,136,1455821708235030201,,0.292483568192,2.44254006503,-1.5699688777,0.000553235847853,-2.79085937898,-0.783816041107,0.436593827433,-0.009824620698,0.00884466216712,0.00590343545354,0.0177158732932,0.0167591295622,0.00290526791054,-0.063356731412,0.0570659341213,0.0381593033449,0.113329755727,0.102922741177,0.0197600290359,2.44268000672,-1.57009483694,0.000469097938685,-2.79111166285,-0.784054685157,0.436552550719,-0.0089101788706,0.00801652085315,0.005360107256,0.0160673023722,0.0152004344321,0.00260849455438,-0.0593151689382,0.0538413005378,0.035262444383,0.106367383817,0.100373804409,0.020118344497,0.0,0.0,0.0,0.0,0.0,0.0,0.0,0.0,0.0,0.0,0.0,0.0,0.0,0.0,0.0,0.0,0.0,0.0,0.0,0.0,0.0,0.0,0.0,0.0,-0.684129719673,-0.970983677407,-1.44707542002,-1.73394881229,2.22097994078,0.150148097039
1455821708238412547,137,1455821708237106595,,0.294559955597,2.44252028854,-1.56995107382,0.000565119510663,-2.79082371967,-0.78378231375,0.436599677546,-0.00995186531742,0.00895921714905,0.00598022735706,0.0179434381852,0.0169682274191,0.00294484554997,-0.0638878880015,0.0574890478154,0.0386326001728,0.114235136215,0.106175115754,0.0198176103966,2.44266206724,-1.57007869581,0.000479888973795,-2.7910793145,-0.784024082584,0.436557807874,-0.00902929946661,0.00812461116346,0.00543092785398,0.0162810481839,0.0154021391742,0.00264866018843,-0.0598054270661,0.0542490097761,0.0355581535923,0.107378427908,0.101330937772,0.020047289548,0.0,0.0,0.0,0.0,0.0,0.0,0.0,0.0,0.0,0.0,0.0,0.0,0.0,0.0,0.0,0.0,0.0,0.0,0.0,0.0,0.0,0.0,0.0,0.0,-0.690005233079,-0.959352876609,-1.43976240127,-1.72951728196,2.22137848165,0.151351830961
1455821708240525766,138,1455821708239179421,,0.296632766724,2.44250025657,-1.56993303989,0.000577157196,-2.79078760284,-0.783748159343,0.436605606841,-0.0100801090968,0.00907471124617,0.00605745797926,0.0181733930968,0.0171861797312,0.00298444923084,-0.064355891388,0.0580050493044,0.038598022026,0.115719775431,0.111777196409,0.0197860704691,2.44264388853,-1.57006233768,0.000490822264525,-2.79104653665,-0.78399307474,0.436563145226,-0.0091494130706,0.00823352356847,0.00550236287593,0.0164967985196,0.0156057041254,0.00268869245746,-0.0603081769322,0.0546633952318,0.035876868358,0.10837190782,0.102234013356,0.0199849794861,0.0,0.0,0.0,0.0,0.0,0.0,0.0,0.0,0.0,0.0,0.0,0.0,0.0,0.0,0.0,0.0,0.0,0.0,0.0,0.0,0.0,0.0,0.0,0.0,-0.695144832896,-0.948338869182,-1.432769747,-1.72486107581,2.2219041729,0.152637659043
1455821708242606369,139,1455821708241251977,,0.298705339432,2.44247996721,-1.56991477399,0.000589349260747,-2.79075102339,-0.783713561855,0.436611615301,-0.0102092489525,0.00919119035298,0.00613460676781,0.0184060590958,0.0174113084877,0.00302401063411,-0.0647839643348,0.0584740574995,0.0385507665333,0.116946223592,0.113351560067,0.0197753327967,2.44262546858,-1.57004576088,0.000501899073172,-2.79101332532,-0.783961657905,0.436568562527,-0.0092705408378,0.00834327194315,0.00557444577107,0.0167145311757,0.0158111309351,0.00272860862715,-0.0608195902603,0.055084979449,0.036206026784,0.109360748296,0.103192796336,0.0199311902057,0.0,0.0,0.0,0.0,0.0,0.0,0.0,0.0,0.0,0.0,0.0,0.0,0.0,0.0,0.0,0.0,0.0,0.0,0.0,0.0,0.0,0.0,0.0,0.0,-0.699949833789,-0.938159490748,-1.42642018531,-1.72078466537,2.22224373409,0.153714488568
1455821708244697570,140,1455821708243328898,,0.300782203674,2.44245941861,-1.56989627417,0.000601695795662,-2.79071397615,-0.783678514136,0.436617702887,-0.0103393556054,0.00930863128251,0.00621192814774,0.0186411829634,0.0176364104853,0.00306357532273,-0.0653226885039,0.0589668720371,0.0387706133885,0.118177643965,0.111750437547,0.019789355827,2.44260680534,-1.57002896374,0.00051312070434,-2.79097967654,-0.783929828231,0.436574059561,-0.00939269663854,0.00845387103769,0.00564718539637,0.0169342474495,0.0160185439034,0.00276842512291,-0.061336210481,0.0555141150943,0.0365335985174,0.110355525492,0.104220172048,0.0198853055463,0.0,0.0,0.0,0.0,0.0,0.0,0.0,0.0,0.0,0.0,0.0,0.0,0.0,0.0,0.0,0.0,0.0,0.0,0.0,0.0,0.0,0.0,0.0,0.0,-0.705921303396,-0.925847147004,-1.41868737008,-1.71596444623,2.22241023372,0.154982118114
1455821708246859966,141,1455821708245406654,,0.302860021591,2.44243860871,-1.56987753855,0.000614197636235,-2.79067645648,-0.783643018956,0.43662386966,-0.0104705437598,0.00942699240803,0.00628991242529,0.0188784790558,0.017858770095,0.00310319768529,-0.0658654659101,0.059394253479,0.0392136641683,0.119118448442,0.110609172146,0.01983300673,2.44258789675,-1.57001194453,0.000524488464973,-2.79094558633,-0.783897581676,0.436579636144,-0.00951588952605,0.00856533548203,0.0057205752367,0.0171559629161,0.0162280103733,0.00280815781636,-0.0618566770272,0.0559503292412,0.0368562418153,0.111359941088,0.105246297775,0.0198473879033,0.0,0.0,0.0,0.0,0.0,0.0,0.0,0.0,0.0,0.0,0.0,0.0,0.0,0.0,0.0,0.0,0.0,0.0,0.0,0.0,0.0,0.0,0.0,0.0,-0.711958032983,-0.913741454269,-1.4110945287,-1.7114071023,2.22260080478,0.15617111293
1455821708249056516,142,1455821708247485220,,0.304938554764,2.44241753537,-1.56985856539,0.000626856403916,-2.79063846056,-0.783607078642,0.436630115781,-0.0106027895951,0.00954616718904,0.00636885525554,0.019117447483,0.0180815434891,0.00314292314834,-0.0663803694192,0.0597805275319,0.039729166075,0.119849978714,0.112164221881,0.019892456319,2.44256874074,-1.56999470152,0.000536003649385,-2.79091105067,-0.783864914188,0.436585292125,-0.00964012674118,0.00867767769077,0.00579460917595,0.0173796932433,0.0164394778288,0.00284782322069,-0.0623805381096,0.0563918795048,0.037177697427,0.112370386063,0.106221157773,0.0198180164325,0.0,0.0,0.0,0.0,0.0,0.0,0.0,0.0,0.0,0.0,0.0,0.0,0.0,0.0,0.0,0.0,0.0,0.0,0.0,0.0,0.0,0.0,0.0,0.0,-0.717722683814,-0.902434781556,-1.40404320172,-1.70727397517,2.22293265535,0.157252359347
1455821708251173430,143,1455821708249564594,,0.307018041611,2.44239619654,-1.56983935309,0.000639673992721,-2.79059998519,-0.783570688388,0.43663644147,-0.0107360465204,0.00966613153474,0.006448733549,0.0193579237597,0.0183087104531,0.0031827659902,-0.06687655588,0.0601838181701,0.0401491273882,0.120626297988,0.115002742133,0.0199503855458,2.4425493352,-1.56997723294,0.000547667548434,-2.79087606554,-0.783831821847,0.436591027388,-0.00976541407013,0.008790905813,0.00586928987284,0.017605442341,0.0166528628345,0.00288743907147,-0.0629067908373,0.0568362427248,0.0375029994627,0.113378711725,0.107163847964,0.019797834344,0.0,0.0,0.0,0.0,0.0,0.0,0.0,0.0,0.0,0.0,0.0,0.0,0.0,0.0,0.0,0.0,0.0,0.0,0.0,0.0,0.0,0.0,0.0,0.0,-0.72329227958,-0.891457092441,-1.39722395726,-1.70323964543,2.22333482049,0.158318908128
1455821708253014857,144,1455821708251638270,,0.309091567993,2.44237459041,-1.56981990024,0.000652652042541,-2.79056102801,-0.783533841119,0.436642847025,-0.0108700810453,0.00978671258744,0.0065293162715,0.0195992513326,0.0185385590078,0.0032227890419,-0.0671579690367,0.0603972345221,0.040433595113,0.120701274942,0.114845812586,0.020072666149,2.44252967803,-1.56995953701,0.000559481465076,-2.7908406269,-0.78379830085,0.436596841851,-0.00989175326285,0.0089050219137,0.00594462676876,0.0178331933745,0.0168681344195,0.00292702455571,-0.0634324018824,0.0572798579736,0.0378338964647,0.114372321725,0.108107736964,0.0197876499007,0.0,0.0,0.0,0.0,0.0,0.0,0.0,0.0,0.0,0.0,0.0,0.0,0.0,0.0,0.0,0.0,0.0,0.0,0.0,0.0,0.0,0.0,0.0,0.0,-0.726713874479,-0.884805143366,-1.3933254763,-1.70131123869,2.22362923118,0.158771833803
1455821708255095393,145,1455821708253709418,,0.31116271019,2.44235271572,-1.56980020586,0.000665791725667,-2.79052158813,-0.783496536317,0.436649332905,-0.0110046076559,0.00990767432277,0.00661036685419,0.0198406304796,0.0187662430482,0.00326309096214,-0.0673686415807,0.0605645008101,0.040616987572,0.120677872022,0.112838227779,0.0202292540961,2.44250976714,-1.56994161197,0.000571446720406,-2.79080473081,-0.783764347447,0.436602735477,-0.0100191366738,0.00902001859509,0.00602062856129,0.0180628963353,0.0170852692187,0.002966601238,-0.063951009047,0.0577168234118,0.0381678960599,0.115330639115,0.109027062273,0.0197890323858,0.0,0.0,0.0,0.0,0.0,0.0,0.0,0.0,0.0,0.0,0.0,0.0,0.0,0.0,0.0,0.0,0.0,0.0,0.0,0.0,0.0,0.0,0.0,0.0,-0.729384479675,-0.879270161985,-1.39014274999,-1.69984145582,2.22384337894,0.159115903363
1455821708257184536,146,1455821708255777464,,0.313230752945,2.4423305716,-1.56978026922,0.000679093767754,-2.7904816654,-0.783458779074,0.436655899698,-0.0111395156982,0.0100289672732,0.00669167523262,0.0200820960439,0.01899099943,0.00330370185838,-0.0675394006638,0.0607284496258,0.0406913908575,0.120787692282,0.111918154093,0.0203816421419,2.44248960046,-1.56992345607,0.000583564644924,-2.79076837346,-0.783729958022,0.436608708272,-0.0101475425426,0.0091358760121,0.0060972959566,0.0182944599987,0.0173041552735,0.00300619409942,-0.0644548598163,0.0581405935973,0.0384994992569,0.11623302429,0.109858992519,0.0198038290359,0.0,0.0,0.0,0.0,0.0,0.0,0.0,0.0,0.0,0.0,0.0,0.0,0.0,0.0,0.0,0.0,0.0,0.0,0.0,0.0,0.0,0.0,0.0,0.0,-0.731575495029,-0.874136840443,-1.38713637626,-1.69834738662,2.22411453494,0.15950420152
1455821708259228900,147,1455821708257845853,,0.315299272537,2.44230815723,-1.56976008954,0.000692558514507,-2.79044125895,-0.783420571172,0.436662547963,-0.0112748534185,0.0101507109632,0.00677307152102,0.0203243573894,0.0192169021969,0.00334456389089,-0.0677983196264,0.0610152403319,0.0407048975433,0.121473653213,0.113984612806,0.0204803903694,2.44246917598,-1.56990506763,0.000595836557934,-2.79073155123,-0.783695129269,0.436614760297,-0.0102769353917,0.00925256372099,0.00617461705333,0.0185277642597,0.0175245982902,0.00304583074682,-0.0649379892646,0.0585471152958,0.0388215974639,0.117071236636,0.110584024172,0.0198328183678,0.0,0.0,0.0,0.0,0.0,0.0,0.0,0.0,0.0,0.0,0.0,0.0,0.0,0.0,0.0,0.0,0.0,0.0,0.0,0.0,0.0,0.0,0.0,0.0,-0.734582330391,-0.866806327991,-1.38257189261,-1.69557154984,2.22451557701,0.160294237227
1455821708262263227,148,1455821708259912484,,0.317365884781,2.44228547166,-1.5697396658,0.000706186109335,-2.79040036656,-0.783381907028,0.436669278133,-0.0114107180229,0.0102730313188,0.00685452330634,0.0205680324488,0.0194472417418,0.00338560529859,-0.0680662847676,0.0613051153195,0.0407468877787,0.122201406188,0.116354932049,0.0205610173269,2.44244849178,-1.56988644502,0.000608263741099,-2.79069426078,-0.78365985824,0.436620891667,-0.0104072709949,0.00937004657901,0.00625256611155,0.0187626868472,0.0177464304671,0.00308553870446,-0.065397613868,0.0589357427249,0.0391274607576,0.117851350902,0.111248152698,0.0198751392663,0.0,0.0,0.0,0.0,0.0,0.0,0.0,0.0,0.0,0.0,0.0,0.0,0.0,0.0,0.0,0.0,0.0,0.0,0.0,0.0,0.0,0.0,0.0,0.0,-0.737678218844,-0.859195426478,-1.37779959036,-1.69265125693,2.22493120522,0.161117823448
1455821708263276385,149,1455821708261975917,,0.319429397583,2.44226251387,-1.56971899693,0.000719976807669,-2.79035898575,-0.783342779914,0.436676090579,-0.0115470719712,0.0103958394341,0.00693617502833,0.0208127748095,0.0196798725545,0.00342684123728,-0.068287663575,0.0615029999181,0.0409048342142,0.122540954517,0.116275880654,0.0206749213704,2.442427546,-1.56986758669,0.0006208474141,-2.79065649897,-0.783624142233,0.436627102548,-0.010538501412,0.0094882891522,0.00633110689019,0.0189991201592,0.017969576089,0.00312534311615,-0.0658328032797,0.0593068304634,0.0394133178859,0.118581961087,0.111897469253,0.0199292724242,0.0,0.0,0.0,0.0,0.0,0.0,0.0,0.0,0.0,0.0,0.0,0.0,0.0,0.0,0.0,0.0,0.0,0.0,0.0,0.0,0.0,0.0,0.0,0.0,-0.740349155016,-0.852668799812,-1.37378677206,-1.69043309731,2.22523658024,0.161713337871
1455821708265373508,150,1455821708264041298,,0.321494579315,2.44223928282,-1.56969808195,0.000733931185238,-2.79031711446,-0.783303188176,0.436682985712,-0.0116839755111,0.0105191321017,0.00701820254015,0.0210585153266,0.0199118651446,0.00346829185532,-0.0686158763194,0.0617896677347,0.0411226776039,0.123199562574,0.115716709512,0.020775696666,2.44240633692,-1.56984849114,0.000633588720609,-2.79061826288,-0.783587978655,0.436633393158,-0.0106705780021,0.00960725646109,0.00641019961869,0.0192369700693,0.018194001614,0.0031652663492,-0.0662437867782,0.0596604784318,0.0396794106116,0.119267949034,0.112528055736,0.0199939606304,0.0,0.0,0.0,0.0,0.0,0.0,0.0,0.0,0.0,0.0,0.0,0.0,0.0,0.0,0.0,0.0,0.0,0.0,0.0,0.0,0.0,0.0,0.0,0.0,-0.744097890132,-0.843929278348,-1.36830086182,-1.68719571927,2.22550073472,0.162601659002
1455821708267347342,151,1455821708266102557,,0.32355594635,2.44221577738,-1.5696769199,0.00074805003906,-2.79027475068,-0.783263133384,0.436689963964,-0.0118214594745,0.0106429208231,0.00710065128218,0.0213052688888,0.0201429274628,0.00350996009285,-0.0688680870884,0.0619990536695,0.0413260644285,0.123553999679,0.115345608598,0.0208925408645,2.44238486289,-1.56982915697,0.00064648872753,-2.79057954976,-0.783551365012,0.436639763753,-0.0108034539983,0.00972691431309,0.00648980730223,0.0194761520441,0.0184196419734,0.00320532840107,-0.0666322094344,0.0599973735628,0.0399282729352,0.119914025793,0.113112303636,0.0200680912393,0.0,0.0,0.0,0.0,0.0,0.0,0.0,0.0,0.0,0.0,0.0,0.0,0.0,0.0,0.0,0.0,0.0,0.0,0.0,0.0,0.0,0.0,0.0,0.0,-0.747096554011,-0.83688886013,-1.36396703216,-1.68480581656,2.22578896186,0.163237917596
1455821708269393251,152,1455821708268165713,,0.325619220734,2.44219199638,-1.56965550974,0.000762334180263,-2.79023189228,-0.783222615222,0.436697025754,-0.0119595436868,0.0107672410836,0.00718348992047,0.02155312704,0.0203752345624,0.00355182968573,-0.0692161251959,0.0623212068241,0.0415125738587,0.124304151491,0.116961491087,0.0209770520163,2.44236312235,-1.56980958283,0.000659548432903,-2.79054035702,-0.78351429897,0.436646214628,-0.010937086641,0.00984723062019,0.00656989807038,0.0197165919508,0.0186463995167,0.00324554690471,-0.0670004332563,0.0603189335395,0.0401624952141,0.120525880838,0.113645239645,0.0201504123941,0.0,0.0,0.0,0.0,0.0,0.0,0.0,0.0,0.0,0.0,0.0,0.0,0.0,0.0,0.0,0.0,0.0,0.0,0.0,0.0,0.0,0.0,0.0,0.0,-0.751053063946,-0.827853330327,-1.35830508138,-1.68141557817,2.22616036931,0.164172823799
1455821708271580499,153,1455821708270237984,,0.327691316605,2.4421679382,-1.56963384994,0.000776784312713,-2.79018853533,-0.783181626441,0.436704171335,-0.0120986415255,0.0108925615292,0.00726664252934,0.0218038249681,0.0206135462456,0.00359375150612,-0.0698817134796,0.0629992388179,0.0416400350173,0.126393776588,0.12135019211,0.020944768372,2.44234111382,-1.56978976741,0.00067276877522,-2.79050068218,-0.783476778347,0.436652746111,-0.0110714413614,0.00996818022016,0.00665044424644,0.0199582410599,0.0188742236476,0.00328593573266,-0.0673542871306,0.0606306664254,0.0403836808395,0.121123228251,0.114178891268,0.0202384155578,0.0,0.0,0.0,0.0,0.0,0.0,0.0,0.0,0.0,0.0,0.0,0.0,0.0,0.0,0.0,0.0,0.0,0.0,0.0,0.0,0.0,0.0,0.0,0.0,-0.758180195394,-0.812062968151,-1.34811676112,-1.67462998329,2.22661624525,0.166090870938
1455821708273557830,154,1455821708272311339,,0.329764842987,2.44214360047,-1.56961193816,0.00079140108391,-2.79014467302,-0.783140154214,0.43671140069,-0.0122390803813,0.0110192129077,0.0073501286676,0.0220584862821,0.020858680541,0.00363560338062,-0.0705571423639,0.063652139645,0.0418461032371,0.128267537485,0.123784103214,0.0209071061285,2.44231883588,-1.56976970948,0.000686150640418,-2.79046052284,-0.783438800924,0.436659358548,-0.011206500127,0.0100897542368,0.00673142095229,0.0202011082675,0.0191031992482,0.00332650202802,-0.0677044784889,0.0609433502581,0.0405930250163,0.121743979348,0.114796709329,0.0203278798042,0.0,0.0,0.0,0.0,0.0,0.0,0.0,0.0,0.0,0.0,0.0,0.0,0.0,0.0,0.0,0.0,0.0,0.0,0.0,0.0,0.0,0.0,0.0,0.0,-0.765498725722,-0.796442003466,-1.33813978021,-1.66815551266,2.2269815809,0.167860148705
1455821708275652162,155,1455821708274377762,,0.331831216812,2.44211898086,-1.56958977223,0.000806185534252,-2.79010029958,-0.783098192431,0.436718713839,-0.0123805360152,0.011146714464,0.00743432167523,0.0223149509638,0.0211031026536,0.00367754556448,-0.0708984914842,0.063849416653,0.0423469043987,0.128197144159,0.120638009432,0.021035077727,2.44229628712,-1.56974940776,0.000699694870234,-2.79041987647,-0.783400364222,0.436666052296,-0.011342263954,0.0102119616253,0.00681280886355,0.0204452605842,0.0193335034159,0.0033672457318,-0.0680593485076,0.061264038251,0.04079488624,0.122408337422,0.115507458401,0.0204158239799,0.0,0.0,0.0,0.0,0.0,0.0,0.0,0.0,0.0,0.0,0.0,0.0,0.0,0.0,0.0,0.0,0.0,0.0,0.0,0.0,0.0,0.0,0.0,0.0,-0.769615844131,-0.788535151303,-1.33348005994,-1.66597967509,2.22713749386,0.168326489666
1455821708277765060,156,1455821708276443140,,0.333896636963,2.44209407773,-1.56956735102,0.000821139478145,-2.79005541381,-0.783055748125,0.436726111205,-0.0125225937112,0.0112744981097,0.00751962221713,0.0225708233853,0.0213412034063,0.00371982073876,-0.0711592045581,0.0639342290518,0.0429536374967,0.127675277389,0.11746274327,0.0212400965606,2.44227346611,-1.56972886099,0.000713402281738,-2.79037874044,-0.783361465495,0.436672827707,-0.0114787426639,0.0103348153443,0.00689460263989,0.0206907637098,0.019565223031,0.00340816471888,-0.0684193614485,0.0615896806616,0.0409988900991,0.123094788167,0.116212156654,0.020503163097,0.0,0.0,0.0,0.0,0.0,0.0,0.0,0.0,0.0,0.0,0.0,0.0,0.0,0.0,0.0,0.0,0.0,0.0,0.0,0.0,0.0,0.0,0.0,0.0,-0.772910004042,-0.782354782579,-1.32996782551,-1.66472276716,2.22730590981,0.168564306573
1455821708279586057,157,1455821708278509271,,0.335962772369,2.44206888991,-1.56954467391,0.000836264923577,-2.79001001651,-0.783012829196,0.43673359347,-0.012665222232,0.0114026147545,0.00760582321515,0.0228264748428,0.0215777254021,0.00376244445715,-0.0714693161822,0.0641824157302,0.0432473605244,0.12797618012,0.11905925252,0.0213836218257,2.44225037143,-1.56970806785,0.000727273699764,-2.79033711205,-0.783322102009,0.436679685132,-0.01161594325,0.0104583187669,0.00697681538671,0.0209376288277,0.0197982635834,0.00344926051842,-0.0687812246171,0.0619137419431,0.0412138567231,0.123770329713,0.116828395834,0.0205926364367,0.0,0.0,0.0,0.0,0.0,0.0,0.0,0.0,0.0,0.0,0.0,0.0,0.0,0.0,0.0,0.0,0.0,0.0,0.0,0.0,0.0,0.0,0.0,0.0,-0.776556855226,-0.774488244953,-1.3251905206,-1.66215895923,2.22769718612,0.169254350461
1455821708281527410,158,1455821708280567207,,0.338020563126,2.44204341647,-1.56952174022,0.000851563041513,-2.78996410775,-0.782969433666,0.436741161284,-0.0128082229023,0.0115310707078,0.00769229472089,0.0230822825429,0.0218178043601,0.00380536920007,-0.071531354204,0.0642735376234,0.0432241452154,0.127831519942,0.121019705492,0.021541121097,2.44222700162,-1.56968702707,0.000741309984048,-2.79029498861,-0.78328227128,0.436686624931,-0.0117538650346,0.0105824642216,0.00705946889718,0.0211858150345,0.0200324650476,0.00349053918042,-0.0691405599466,0.0622317127485,0.0414396537434,0.124415877102,0.117373068282,0.0206860255663,0.0,0.0,0.0,0.0,0.0,0.0,0.0,0.0,0.0,0.0,0.0,0.0,0.0,0.0,0.0,0.0,0.0,0.0,0.0,0.0,0.0,0.0,0.0,0.0,-0.777652474922,-0.771315027843,-1.32349655509,-1.66158672235,2.22814876808,0.169386146149
1455821708283854968,159,1455821708282630814,,0.340084314346,2.44201765663,-1.56949854913,0.000867033957491,-2.78991768638,-0.782925553536,0.436748815172,-0.0129516162077,0.0116600254119,0.00777862125672,0.0233390916978,0.0220623256863,0.00384851878532,-0.0718619511298,0.0646811663936,0.0431023906139,0.128977634994,0.123501620716,0.021608464155,2.44220335525,-1.56966573737,0.000755512029162,-2.79025236753,-0.783241971068,0.436693647479,-0.0118924982939,0.0107072375599,0.00714257621645,0.0214352582206,0.0202677465546,0.0035320088113,-0.0694926994013,0.0625416256151,0.0416676655318,0.125027308944,0.117908438763,0.0207836053154,0.0,0.0,0.0,0.0,0.0,0.0,0.0,0.0,0.0,0.0,0.0,0.0,0.0,0.0,0.0,0.0,0.0,0.0,0.0,0.0,0.0,0.0,0.0,0.0,-0.781380575174,-0.761955236476,-1.31760120929,-1.65781999407,2.22857788267,0.170464556111
1455821708285941784,160,1455821708284695406,,0.342148780823,2.44199160924,-1.56947509923,0.000882677336493,-2.78987074876,-0.782881180935,0.436756555451,-0.0130957676309,0.0117898698719,0.00786475774517,0.0235985308087,0.0223102757417,0.00389176050399,-0.072289472062,0.0651632936727,0.0430340978324,0.130461475839,0.124448434712,0.0216332545064,2.44217943093,-1.56964419751,0.000769880736882,-2.79020924637,-0.783201199185,0.436700753164,-0.012031828304,0.0108326257157,0.00722613150353,0.0216859074098,0.020504136484,0.00357367623816,-0.0698373106796,0.0628465301264,0.0418876215439,0.125621880343,0.11848149066,0.0208838215472,0.0,0.0,0.0,0.0,0.0,0.0,0.0,0.0,0.0,0.0,0.0,0.0,0.0,0.0,0.0,0.0,0.0,0.0,0.0,0.0,0.0,0.0,0.0,0.0,-0.786087861978,-0.75045741578,-1.31025491731,-1.65303829827,2.22891511661,0.1718075239
1455821708288314132,161,1455821708286756858,,0.344210147858,2.44196527281,-1.56945138889,0.000898493147284,-2.7898232902,-0.782836312922,0.43676438233,-0.0132406715682,0.011920471422,0.00795105304599,0.0238600275378,0.0225577371809,0.00393511850813,-0.0726144653123,0.0654382563668,0.0432612029862,0.131035253299,0.12301300446,0.0217247496418,2.44215522726,-1.56962240626,0.000784416981792,-2.79016562271,-0.783159953342,0.436707942385,-0.0121718428037,0.010958623185,0.00731011340718,0.0219377508858,0.0207417064482,0.00361554461208,-0.0701771890543,0.0631509392161,0.0420942821067,0.126221595649,0.119088473525,0.0209845523742,0.0,0.0,0.0,0.0,0.0,0.0,0.0,0.0,0.0,0.0,0.0,0.0,0.0,0.0,0.0,0.0,0.0,0.0,0.0,0.0,0.0,0.0,0.0,0.0,-0.789862408664,-0.741627542774,-1.30476854982,-1.64992240865,2.22915695382,0.17262271353
1455821708290364234,162,1455821708288815281,,0.34626865387,2.44193864601,-1.56942741697,0.000914482245211,-2.78977530827,-0.782790952967,0.436772296182,-0.0133861268059,0.0120514474968,0.00803804488119,0.0241218977573,0.022802217813,0.00397873335076,-0.0728407723883,0.0655378184998,0.0437306322226,0.130834966169,0.121467627622,0.0218900929839,2.44213074288,-1.56960036241,0.000799121593872,-2.79012149416,-0.783118231166,0.436715215545,-0.0123125329992,0.0110852284203,0.00739449867203,0.0221907979849,0.0209804702509,0.00365761460881,-0.0705130064159,0.0634542961032,0.0422909827428,0.126825503403,0.119675329195,0.0210854443474,0.0,0.0,0.0,0.0,0.0,0.0,0.0,0.0,0.0,0.0,0.0,0.0,0.0,0.0,0.0,0.0,0.0,0.0,0.0,0.0,0.0,0.0,0.0,0.0,-0.792698684435,-0.735274069872,-1.30098269672,-1.64826688923,2.22941313449,0.173011222849
1455821708292948083,163,1455821708290883407,,0.348336696625,2.44191172748,-1.56940318246,0.000930646145735,-2.7897268013,-0.782745101811,0.436780297466,-0.0135324035975,0.0121830601055,0.00812585564245,0.0243850723937,0.0230489382267,0.00402255033478,-0.0734360192086,0.066074790135,0.0440801290362,0.132339670239,0.125252786109,0.0219268910352,2.44210597646,-1.56957806474,0.000813995367951,-2.79007685831,-0.783076030327,0.436722573046,-0.01245389195,0.0112124379809,0.00747927540704,0.0224450503417,0.0212203681951,0.00369988694625,-0.0708459443738,0.0637552644288,0.0424857522657,0.127426853446,0.120222614993,0.0211868930929,0.0,0.0,0.0,0.0,0.0,0.0,0.0,0.0,0.0,0.0,0.0,0.0,0.0,0.0,0.0,0.0,0.0,0.0,0.0,0.0,0.0,0.0,0.0,0.0,-0.799157808345,-0.720913783953,-1.29177515753,-1.64244257176,2.22986812871,0.174652530414
1455821708295048972,164,1455821708292950563,,0.350404024124,2.44188451524,-1.56937868363,0.000946986146453,-2.78967776487,-0.782698749506,0.436788386415,-0.0136798365764,0.0123157731455,0.00821414507589,0.0246513550777,0.0233033665182,0.00406639818753,-0.0739969596437,0.0666382499143,0.0442093044042,0.133943013768,0.129175505347,0.021920961712,2.44208092664,-1.56955551205,0.000829039087614,-2.79003171274,-0.783033348568,0.436730015294,-0.0125959196228,0.0113402518173,0.00756444425678,0.0227005191351,0.0214613910733,0.00374236125645,-0.0711817284603,0.0640585719899,0.0426830974785,0.128041939927,0.120800263219,0.021287417116,0.0,0.0,0.0,0.0,0.0,0.0,0.0,0.0,0.0,0.0,0.0,0.0,0.0,0.0,0.0,0.0,0.0,0.0,0.0,0.0,0.0,0.0,0.0,0.0,-0.805292899241,-0.707257222193,-1.28307995365,-1.63686723363,2.23034118146,0.176191547976
1455821708296618016,165,1455821708294955737,,0.352409124374,2.4418570093,-1.56935392079,0.000963503289126,-2.78962820254,-0.782651902389,0.436796563841,-0.0138260953611,0.0124470708979,0.00830299759746,0.0249109834244,0.0235437506161,0.00411102800998,-0.0722618250516,0.0646595024601,0.0446432171613,0.125685332972,0.111208592609,0.0227088607439,2.44205559211,-1.56953270313,0.000844253543615,-2.78998605504,-0.782990183652,0.436737542695,-0.0127386103995,0.0114686621107,0.00765001174361,0.0229571816505,0.0217035248852,0.00378503911846,-0.0715090482767,0.0643517214666,0.0428843893466,0.128620575471,0.121333548641,0.0213904448863,0.0,0.0,0.0,0.0,0.0,0.0,0.0,0.0,0.0,0.0,0.0,0.0,0.0,0.0,0.0,0.0,0.0,0.0,0.0,0.0,0.0,0.0,0.0,0.0,-0.788702912026,-0.742857816128,-1.30764867673,-1.65640219143,2.23013977614,0.170338348248
1455821708298659980,166,1455821708297017250,,0.354470729828,2.44182921198,-1.56932889664,0.000980198599274,-2.78957812679,-0.782604587918,0.43680483144,-0.0139712292232,0.0125770713487,0.00839231255016,0.0251647581428,0.0237707200624,0.00415657149449,-0.0728720371014,0.0653409483112,0.0446717355447,0.128089385419,0.115760853648,0.0228346237631,2.44202997158,-1.56950963685,0.000859639541919,-2.789939883,-0.782946533667,0.436745155669,-0.0128819211138,0.011597620539,0.00773598656053,0.0232148576002,0.0219464598702,0.00382793499129,-0.0718016659993,0.0646067068114,0.0430904275755,0.12905537426,0.121601436367,0.0215054279422,0.0,0.0,0.0,0.0,0.0,0.0,0.0,0.0,0.0,0.0,0.0,0.0,0.0,0.0,0.0,0.0,0.0,0.0,0.0,0.0,0.0,0.0,0.0,0.0,-0.795005778021,-0.726355256066,-1.29674203174,-1.64892770911,2.23061220527,0.17267955582
1455821708300127695,167,1455821708299076660,,0.356529951096,2.44180112289,-1.56930361048,0.000997071403303,-2.78952753545,-0.782556798412,0.436813189901,-0.0141178637633,0.0127090917319,0.00848049147932,0.0254265814589,0.0240187861798,0.00420188957846,-0.0737625029672,0.0666794348931,0.0435071936101,0.133733930666,0.132305263702,0.0224834602079,2.44200406388,-1.56948631217,0.000875197893856,-2.78989319485,-0.782902397428,0.436752854676,-0.0130257842667,0.011727057379,0.00782236537697,0.0234732965319,0.0221897790295,0.00387107177364,-0.0720614868483,0.0648301331489,0.0432883888682,0.129383557397,0.121717722947,0.0216313544084,0.0,0.0,0.0,0.0,0.0,0.0,0.0,0.0,0.0,0.0,0.0,0.0,0.0,0.0,0.0,0.0,0.0,0.0,0.0,0.0,0.0,0.0,0.0,0.0,-0.803826742976,-0.702427553597,-1.28050780051,-1.63627195402,2.23162080416,0.176502556641
1455821708302236656,168,1455821708301136877,,0.358590364456,2.44177273883,-1.56927805793,0.0010141189382,-2.78947641116,-0.782508488908,0.436821638372,-0.014266195254,0.0128434602511,0.00856704341554,0.0256977113163,0.0242907181026,0.00424658103253,-0.0745689877428,0.0676890843852,0.0430447426053,0.137395926699,0.139626659117,0.0222079938625,2.44197786793,-1.56946272817,0.000890929365363,-2.78984598912,-0.782857774087,0.436760640206,-0.0131701588173,0.0118569440674,0.00790910612926,0.0237324356165,0.0224335626129,0.0039144581895,-0.0723130637837,0.0650565553213,0.0434523634166,0.129755527194,0.122065860426,0.0217550614591,0.0,0.0,0.0,0.0,0.0,0.0,0.0,0.0,0.0,0.0,0.0,0.0,0.0,0.0,0.0,0.0,0.0,0.0,0.0,0.0,0.0,0.0,0.0,0.0,-0.812292567253,-0.682292334239,-1.26731377822,-1.62683493839,2.23221593006,0.179135988036
1455821708304409950,169,1455821708303210942,,0.360664367676,2.44174405615,-1.56925223473,0.00103134005052,-2.78942473846,-0.782459631977,0.436830175831,-0.0144164809996,0.0129797414779,0.00865406890372,0.0259749931243,0.0245662129884,0.00429087828253,-0.0757167578166,0.0685921423844,0.0439807455782,0.13988588136,0.135868226667,0.0220892561386,2.44195138272,-1.56943888392,0.000906834606139,-2.78979826422,-0.7828126621,0.436768512742,-0.0133150508906,0.0119873121331,0.00799613464716,0.0239924614346,0.0226784236792,0.00395807846659,-0.0725790094776,0.065311510332,0.043576154486,0.130270290961,0.12279520587,0.0218652156294,0.0,0.0,0.0,0.0,0.0,0.0,0.0,0.0,0.0,0.0,0.0,0.0,0.0,0.0,0.0,0.0,0.0,0.0,0.0,0.0,0.0,0.0,0.0,0.0,-0.824618146713,-0.657218073119,-1.2512278602,-1.61673355922,2.23222418383,0.181790418848
1455821708306463590,170,1455821708305285618,,0.362739086151,2.44171507079,-1.56922613757,0.00104873772429,-2.78937250811,-0.782410235058,0.436838801838,-0.0145688796602,0.0131174155978,0.00874360486472,0.0262553588256,0.024830705954,0.00433512876901,-0.0766819027815,0.0690819774982,0.0455552154202,0.140479819926,0.128624738965,0.0221612303439,2.44192460716,-1.56941477837,0.000922914140216,-2.78975001807,-0.782767058722,0.436776472722,-0.0134605093489,0.0121182298404,0.0080833994298,0.0242536822854,0.0229249544555,0.00400190177625,-0.0728794488474,0.0656061969648,0.043688628152,0.130950559833,0.123735570407,0.0219580940315,0.0,0.0,0.0,0.0,0.0,0.0,0.0,0.0,0.0,0.0,0.0,0.0,0.0,0.0,0.0,0.0,0.0,0.0,0.0,0.0,0.0,0.0,0.0,0.0,-0.835295698733,-0.637472070536,-1.23888505943,-1.61001187707,2.23210239893,0.183415441965
1455821708308896588,171,1455821708307364156,,0.364817619324,2.44168577882,-1.56919976411,0.00106631736119,-2.78931971601,-0.782360316073,0.436847516524,-0.0147230937152,0.0132560496641,0.00883603203618,0.0265367320403,0.0250882784947,0.00437955724199,-0.077532152208,0.0695520888114,0.0468719560432,0.14089339477,0.128947801721,0.0222672426311,2.44189754004,-1.56939041037,0.00093916845886,-2.78970124799,-0.78272096041,0.43678452052,-0.0136066164305,0.0122497765373,0.00817091921458,0.0245164011683,0.023173358031,0.00404589573024,-0.073227632804,0.0659404999338,0.0438311566296,0.131768322983,0.124668005109,0.0220358599584,0.0,0.0,0.0,0.0,0.0,0.0,0.0,0.0,0.0,0.0,0.0,0.0,0.0,0.0,0.0,0.0,0.0,0.0,0.0,0.0,0.0,0.0,0.0,0.0,-0.844780513325,-0.62049957412,-1.22843530455,-1.60442515673,2.23237996397,0.184787640052
1455821708310880059,172,1455821708309444504,,0.366897821426,2.44165617686,-1.56917311233,0.00108408374669,-2.78926635987,-0.782309874779,0.43685632023,-0.0148788626377,0.0133957281456,0.00893035346387,0.0268194118464,0.0253530161332,0.00442414838954,-0.0782367703709,0.0701263926726,0.0474494716437,0.141786411328,0.135789836775,0.0223239049163,2.44187017995,-1.56936577856,0.000955598158118,-2.78965195074,-0.782674363459,0.43679265645,-0.0137534719174,0.0123820274038,0.00825878004343,0.0247808534154,0.0234235931476,0.00409003387129,-0.0736278540952,0.0663103665277,0.0440296722267,0.132683924127,0.125567111565,0.0221022810869,0.0,0.0,0.0,0.0,0.0,0.0,0.0,0.0,0.0,0.0,0.0,0.0,0.0,0.0,0.0,0.0,0.0,0.0,0.0,0.0,0.0,0.0,0.0,0.0,-0.852686458574,-0.605931049537,-1.21956845978,-1.59936897464,2.23300877783,0.186085698023
1455821708312699015,173,1455821708311514319,,0.36896777153,2.44162626251,-1.56914618047,0.00110203943198,-2.78921243807,-0.782258896055,0.436865213356,-0.0150354900834,0.0135361288453,0.00902533182887,0.0271023896946,0.0256257075867,0.0044689781456,-0.0783906752533,0.0702743070034,0.0475288933552,0.141191436837,0.136901616736,0.0225058511455,2.4418425253,-1.56934088149,0.000972204032693,-2.78960212269,-0.782627264174,0.436800880781,-0.0139011740618,0.0125150474911,0.00834709453112,0.0250471957171,0.0236756910558,0.00413429722481,-0.07407429029,0.0667097207985,0.0442848154582,0.133658377622,0.126530796609,0.0221610724342,0.0,0.0,0.0,0.0,0.0,0.0,0.0,0.0,0.0,0.0,0.0,0.0,0.0,0.0,0.0,0.0,0.0,0.0,0.0,0.0,0.0,0.0,0.0,0.0,-0.855035879045,-0.602099690566,-1.21789915299,-1.59931970397,2.2334533192,0.185943321348
1455821708314796494,174,1455821708313584695,,0.371038198471,2.44159603461,-1.5691189675,0.00112018509158,-2.78915795115,-0.782207374624,0.43687419654,-0.0151924087718,0.0136768459266,0.00912032776667,0.0273845287475,0.0258957230501,0.00451420536387,-0.0785280132037,0.0704427742802,0.0474670444535,0.140947616138,0.133113846726,0.0227213671282,2.44181457433,-1.56931571756,0.0009889870872,-2.78955175999,-0.782579658706,0.436809193753,-0.014049799506,0.0126488845046,0.00843595997613,0.0253154972966,0.0239297769305,0.00417867545173,-0.0745511539188,0.067127292757,0.0445806295482,0.134643201887,0.127555078097,0.0222171544817,0.0,0.0,0.0,0.0,0.0,0.0,0.0,0.0,0.0,0.0,0.0,0.0,0.0,0.0,0.0,0.0,0.0,0.0,0.0,0.0,0.0,0.0,0.0,0.0,-0.857089303831,-0.597444311196,-1.21553001343,-1.59862023832,2.23365159845,0.186047458375
1455821708317273842,175,1455821708315654576,,0.373107910156,2.44156549255,-1.56909147268,0.00113852055398,-2.78910289978,-0.782155319542,0.436883270567,-0.0153496511144,0.0138179735074,0.00921513463652,0.0276668392146,0.0261593589699,0.00455982140348,-0.0787143293632,0.0706848065899,0.0473398253874,0.141362850905,0.130522073012,0.0228946724763,2.44178632514,-1.56929028511,0.00100594848479,-2.78950085876,-0.782531543075,0.436817595597,-0.014199391877,0.0127835632393,0.00852543760902,0.0255857404436,0.024185854929,0.004223168162,-0.0750412170936,0.0675514419485,0.0448970033457,0.13559994505,0.128522920327,0.0222755557955,0.0,0.0,0.0,0.0,0.0,0.0,0.0,0.0,0.0,0.0,0.0,0.0,0.0,0.0,0.0,0.0,0.0,0.0,0.0,0.0,0.0,0.0,0.0,0.0,-0.859455198254,-0.590790558989,-1.21157254542,-1.59651903836,2.23388959716,0.186622699966
1455821708318896486,176,1455821708317715823,,0.375169277191,2.44153463589,-1.56906369541,0.00115704549753,-2.78904728391,-0.782102740245,0.436892436224,-0.0155070117173,0.0139592933664,0.00930980891191,0.0279490315434,0.0264199384483,0.00460583614821,-0.0786462735115,0.0706350523852,0.047334450006,0.14082947794,0.130057405427,0.0231200722532,2.44175777578,-1.56926458246,0.00102308947372,-2.78944941517,-0.782482913498,0.436826086549,-0.0143499626116,0.0129190867567,0.00861555132648,0.0258578460554,0.0244437213127,0.00426778378326,-0.0755295174867,0.067972075451,0.0452167141121,0.136505666809,0.129343463436,0.0223400654616,0.0,0.0,0.0,0.0,0.0,0.0,0.0,0.0,0.0,0.0,0.0,0.0,0.0,0.0,0.0,0.0,0.0,0.0,0.0,0.0,0.0,0.0,0.0,0.0,-0.859212715249,-0.589292964186,-1.21094195325,-1.59683452849,2.23427250024,0.186521885248
1455821708320923074,177,1455821708319777004,,0.377230405807,2.44150346454,-1.56903563552,0.00117575990566,-2.78899110436,-0.78204963766,0.436901694336,-0.015664331745,0.014100592977,0.00940459921973,0.0282305233005,0.0266826469839,0.00465227544756,-0.0786737542025,0.070664558181,0.0474558578187,0.140662279135,0.132651130128,0.0233192271022,2.44172892433,-1.56923860794,0.00104041132194,-2.78939742563,-0.782433766694,0.43683466687,-0.0145014939298,0.0130554370356,0.00870629689127,0.0261316892939,0.024703083031,0.00431253752303,-0.0760018006487,0.0683782034547,0.0455288506815,0.137337571623,0.130018254837,0.0224136743124,0.0,0.0,0.0,0.0,0.0,0.0,0.0,0.0,0.0,0.0,0.0,0.0,0.0,0.0,0.0,0.0,0.0,0.0,0.0,0.0,0.0,0.0,0.0,0.0,-0.859874554475,-0.585551753473,-1.20872168626,-1.5959822755,2.23478703342,0.186795128564
1455821708323043971,178,1455821708321839398,,0.379292726517,2.44147197832,-1.56900729275,0.0011946640293,-2.78893436119,-0.781996003922,0.436911045639,-0.0158218924738,0.0142421772757,0.0094995244238,0.0285126446148,0.0269510907758,0.0046990280151,-0.0788869745974,0.0709197405359,0.0474693462511,0.141459035146,0.135792661794,0.0234333404388,2.44169976889,-1.56921235992,0.00105791527196,-2.78934488683,-0.782384099888,0.436843336857,-0.0146539443365,0.0131925778232,0.00879765312574,0.0264071132196,0.0249637230778,0.00435744891793,-0.0764486061221,0.0687625841024,0.0458273837888,0.138086354147,0.130621791999,0.0224977205805,0.0,0.0,0.0,0.0,0.0,0.0,0.0,0.0,0.0,0.0,0.0,0.0,0.0,0.0,0.0,0.0,0.0,0.0,0.0,0.0,0.0,0.0,0.0,0.0,-0.862349103285,-0.577519926788,-1.20357074391,-1.59286163879,2.23529509333,0.187729632935
1455821708325085343,179,1455821708323904788,,0.381358146667,2.44144017633,-1.56897866607,0.00121375794601,-2.78887705132,-0.78194182851,0.436920490594,-0.01598009281,0.0143845062151,0.00959439228859,0.0287972286432,0.0272243212573,0.00474592638297,-0.0793133616439,0.0714091988646,0.0473985185313,0.143124993287,0.13743781967,0.0234650274275,2.44167030768,-1.56918583688,0.00107560251236,-2.78929179575,-0.782333910586,0.436852096843,-0.0148072617459,0.0133304667393,0.00888958727423,0.0266839717979,0.0252255790224,0.00440253736146,-0.0768688032665,0.0691263319509,0.0461067647019,0.138772224113,0.131234152604,0.0225907229531,0.0,0.0,0.0,0.0,0.0,0.0,0.0,0.0,0.0,0.0,0.0,0.0,0.0,0.0,0.0,0.0,0.0,0.0,0.0,0.0,0.0,0.0,0.0,0.0,-0.866990223829,-0.564998332211,-1.19545909991,-1.58756641131,2.23569510324,0.189255123066
1455821708327256835,180,1455821708325974743,,0.383428096771,2.44140805689,-1.5689497536,0.00123304160452,-2.78881916854,-0.78188710424,0.436930029361,-0.0161393469153,0.0145279676736,0.00968926621588,0.0290855456023,0.0274999489432,0.00479284104465,-0.0799407436209,0.0720522596493,0.0474754087663,0.14519196574,0.138189866304,0.0234496342503,2.44164053902,-1.56915903734,0.001093474156,-2.78923814959,-0.782283196303,0.436860947197,-0.0149613992659,0.0134690706476,0.00898205637358,0.0269621809213,0.0254887034715,0.00444781702859,-0.0772687166952,0.0694775763838,0.0463623346454,0.139436899291,0.131890296423,0.0226889441793,0.0,0.0,0.0,0.0,0.0,0.0,0.0,0.0,0.0,0.0,0.0,0.0,0.0,0.0,0.0,0.0,0.0,0.0,0.0,0.0,0.0,0.0,0.0,0.0,-0.873752624469,-0.548798868781,-1.18500599546,-1.5807639286,2.23602238255,0.191157660394
1455821708329758660,181,1455821708328045634,,0.385499000549,2.44137561771,-1.56892055304,0.00125251549568,-2.78876070575,-0.781831827821,0.436939661973,-0.0162998374209,0.014672589963,0.00978462494419,0.0293772488849,0.0277764691997,0.00483977087417,-0.080549761966,0.0725700297456,0.0478833195405,0.146511316941,0.138330390126,0.0234801952686,2.4416104613,-1.56913195989,0.00111153122659,-2.78918394568,-0.782231954421,0.436869888309,-0.0151163264752,0.0136083744143,0.00907501421767,0.0272417380422,0.0257531789483,0.00449329430945,-0.0776584926397,0.0698261903738,0.0465955094433,0.140120221579,0.132585180471,0.0227883366767,0.0,0.0,0.0,0.0,0.0,0.0,0.0,0.0,0.0,0.0,0.0,0.0,0.0,0.0,0.0,0.0,0.0,0.0,0.0,0.0,0.0,0.0,0.0,0.0,-0.880481524791,-0.533902580617,-1.17558048965,-1.57507851435,2.23633128574,0.192676194529
1455821708331325706,182,1455821708330114472,,0.38756775856,2.44134285651,-1.56889106247,0.00127218118231,-2.78870165815,-0.781775998791,0.436949388612,-0.0164613625085,0.0148179766271,0.00988106168706,0.0296703475692,0.0280525610702,0.00488686779109,-0.0809753256731,0.0728166343534,0.0485534233303,0.146587367303,0.137761480444,0.0236167216613,2.44158007294,-1.56910460314,0.001129774667,-2.78912918125,-0.782180182186,0.436878920573,-0.0152720310381,0.0137483775447,0.00916842618416,0.0275226921106,0.0260190557621,0.00453896958869,-0.0780460702431,0.0701769399995,0.0468164570531,0.140833846872,0.13329163326,0.0228869425695,0.0,0.0,0.0,0.0,0.0,0.0,0.0,0.0,0.0,0.0,0.0,0.0,0.0,0.0,0.0,0.0,0.0,0.0,0.0,0.0,0.0,0.0,0.0,0.0,-0.885478419417,-0.523551318683,-1.16931435923,-1.57199881038,2.23664419369,0.193415205667
1455821708333355881,183,1455821708332182987,,0.389636278152,2.44130977148,-1.56886128069,0.00129204099942,-2.78864202439,-0.781719617984,0.436959209753,-0.0166236641225,0.0149638092872,0.00997875541927,0.0299634180708,0.0283282462266,0.00493427359737,-0.0813262883187,0.0730160258049,0.0491403088818,0.146483134282,0.137923675961,0.0237890846139,2.4415493724,-1.56907696568,0.00114820537521,-2.78907385347,-0.782127876805,0.436888044384,-0.0154285111117,0.0138890823039,0.00926228202857,0.0278050850111,0.026286325714,0.00458484211495,-0.0784340033973,0.0705278191474,0.0470393873472,0.14155905361,0.133978318694,0.0229855836809,0.0,0.0,0.0,0.0,0.0,0.0,0.0,0.0,0.0,0.0,0.0,0.0,0.0,0.0,0.0,0.0,0.0,0.0,0.0,0.0,0.0,0.0,0.0,0.0,-0.889702417343,-0.514668868611,-1.16402949801,-1.56957517482,2.23700792019,0.193995330783
1455821708335355622,184,1455821708334252256,,0.391705751419,2.44127636113,-1.5688312067,0.00131209701043,-2.78858180401,-0.7816626841,0.436969126003,-0.0167866884919,0.0151101785982,0.0100772555958,0.0302569608549,0.0286056380257,0.0049819760291,-0.0816980810414,0.0733532851187,0.0493598676487,0.147059649862,0.139468123117,0.0239133471206,2.44151835812,-1.56904904611,0.00116682425165,-2.78901795947,-0.782075035536,0.43689726014,-0.0155857669139,0.0140304856292,0.00935659441534,0.0280889179844,0.0265549425806,0.00463091360007,-0.0788217987287,0.0708755062209,0.0472729994261,0.142273919695,0.134638547823,0.0230859014457,0.0,0.0,0.0,0.0,0.0,0.0,0.0,0.0,0.0,0.0,0.0,0.0,0.0,0.0,0.0,0.0,0.0,0.0,0.0,0.0,0.0,0.0,0.0,0.0,-0.894035560293,-0.504715651374,-1.15795444287,-1.56624312626,2.23743493094,0.194881278793
1455821708337445812,185,1455821708336310546,,0.393764019012,2.44124262446,-1.56880083974,0.00133235024295,-2.78852099696,-0.781605196295,0.436979138025,-0.0169499793147,0.0152567815578,0.0101759769216,0.0305500809011,0.0288821667653,0.00503004659005,-0.0815927417838,0.0732496744881,0.0493614581379,0.146060396325,0.137060616457,0.0241572138287,2.44148702856,-1.56902084305,0.00118563222901,-2.7889614964,-0.782021655748,0.436906568243,-0.0157437938063,0.0141725770316,0.009451382937,0.0283741507947,0.0268248455841,0.00467718906555,-0.0792050937453,0.0712158961054,0.0475155222378,0.142958890615,0.135264455727,0.0231895640347,0.0,0.0,0.0,0.0,0.0,0.0,0.0,0.0,0.0,0.0,0.0,0.0,0.0,0.0,0.0,0.0,0.0,0.0,0.0,0.0,0.0,0.0,0.0,0.0,-0.893577024093,-0.504469996648,-1.15837740424,-1.567576239,2.23774999424,0.194409619998
1455821708339436453,186,1455821708338368555,,0.395822048187,2.44120856136,-1.5687701797,0.00135280088888,-2.78845960522,-0.781547159647,0.436989246672,-0.0171131195652,0.0154032604355,0.0102746690082,0.0308416647203,0.0291544814469,0.0050786002549,-0.0815475087038,0.0732292032555,0.0493306285127,0.145523422884,0.135254065117,0.0243964510206,2.44145538219,-1.56899235514,0.00120463026919,-2.78890446155,-0.781967734988,0.43691596911,-0.015902572758,0.0143153338331,0.00954665724443,0.028660693901,0.0270959148301,0.00472367783254,-0.0795738579184,0.0715409054514,0.0477587851915,0.143584215667,0.135804790311,0.0232992029492,0.0,0.0,0.0,0.0,0.0,0.0,0.0,0.0,0.0,0.0,0.0,0.0,0.0,0.0,0.0,0.0,0.0,0.0,0.0,0.0,0.0,0.0,0.0,0.0,-0.893624201249,-0.502341566831,-1.15742804593,-1.56780041462,2.23807809104,0.194315917927
1455821708341514739,187,1455821708340429250,,0.397882699966,2.44117417181,-1.5687392264,0.00137344871713,-2.78839762985,-0.781488577585,0.436999452769,-0.0172764346787,0.0155500307244,0.0103731592478,0.0311337018474,0.0294275799345,0.00512749697827,-0.0817676048234,0.0735410855887,0.0491596110149,0.146513704231,0.137844422487,0.0245002723487,2.44142341755,-1.56896358109,0.00122381933566,-2.78884685244,-0.781913271118,0.436925463181,-0.016062066762,0.0144587200138,0.00964240922811,0.0289484139389,0.0273679554682,0.00477039348642,-0.0799201460776,0.07184527519,0.0479931984885,0.14413582225,0.136235847768,0.0234164509338,0.0,0.0,0.0,0.0,0.0,0.0,0.0,0.0,0.0,0.0,0.0,0.0,0.0,0.0,0.0,0.0,0.0,0.0,0.0,0.0,0.0,0.0,0.0,0.0,-0.896183454175,-0.493884147091,-1.15205248251,-1.56449188502,2.23856971143,0.195296372503
1455821708343764404,188,1455821708342489359,,0.39994263649,2.44113945512,-1.56870797888,0.00139429320348,-2.78833506814,-0.781429443264,0.437009756806,-0.0174402579414,0.0156974889125,0.0104713271,0.0314280076958,0.0297067414247,0.00517653955178,-0.082055657901,0.0739171025384,0.0490082412588,0.147792144104,0.141317067698,0.0245423011581,2.44139113325,-1.56893451967,0.00124320035671,-2.78878866685,-0.781858262348,0.436935050924,-0.0162222306347,0.0146026972613,0.00973861182723,0.0292371847533,0.0276408145738,0.00481734962062,-0.0802437265778,0.0721319723253,0.0482094006252,0.144634992121,0.136623257855,0.0235396832694,0.0,0.0,0.0,0.0,0.0,0.0,0.0,0.0,0.0,0.0,0.0,0.0,0.0,0.0,0.0,0.0,0.0,0.0,0.0,0.0,0.0,0.0,0.0,0.0,-0.899430095497,-0.483963244269,-1.1456745748,-1.56044094826,2.23909425433,0.196463474675
1455821708346107377,189,1455821708344555195,,0.402008533478,2.44110440991,-1.56867643547,0.00141533397121,-2.78827191455,-0.781369744204,0.437020158945,-0.0176049523266,0.0158459260825,0.010569440626,0.0317255814944,0.0299923179989,0.00522559946039,-0.0826387272939,0.0745200674712,0.0491052847172,0.149781654529,0.14425950655,0.024517607452,2.441358528,-1.56890516973,0.00126277419171,-2.78872990272,-0.781802707032,0.436944732828,-0.0163830249384,0.014747238433,0.00983522317178,0.029526941424,0.0279145005282,0.00486455422488,-0.0805505771855,0.0724091993625,0.0484019439318,0.145121678597,0.137062696493,0.0236649209899,0.0,0.0,0.0,0.0,0.0,0.0,0.0,0.0,0.0,0.0,0.0,0.0,0.0,0.0,0.0,0.0,0.0,0.0,0.0,0.0,0.0,0.0,0.0,0.0,-0.90572194095,-0.468238740762,-1.13549057244,-1.55384849637,2.2395466749,0.198317258356
1455821708347632063,190,1455821708346618961,,0.404072284698,2.44106903426,-1.56864459421,0.00143657145763,-2.78820816295,-0.781309472146,0.437030659233,-0.0177706939824,0.0159953345077,0.0106680457957,0.0320260208399,0.0302797402383,0.00527468902186,-0.0831029284382,0.0748883577052,0.0494998849831,0.150657690981,0.143162732816,0.0245719540198,2.44132560055,-1.56887553016,0.00128254161376,-2.78867055808,-0.781746603376,0.436954509389,-0.0165444255319,0.0148923333839,0.00993219887713,0.0298176946466,0.0281891560688,0.00491200729064,-0.080850016275,0.0726857516089,0.0485737614169,0.145631543978,0.137592844115,0.0237881447639,0.0,0.0,0.0,0.0,0.0,0.0,0.0,0.0,0.0,0.0,0.0,0.0,0.0,0.0,0.0,0.0,0.0,0.0,0.0,0.0,0.0,0.0,0.0,0.0,-0.910979580468,-0.455816000902,-1.1276740505,-1.54937761975,2.23982872569,0.199478222457
1455821708349787919,191,1455821708348677585,,0.406131029129,2.44103332649,-1.56861245377,0.00145800716642,-2.78814381034,-0.781248630401,0.437041257961,-0.0179370786284,0.0161451044012,0.010767662996,0.0323265853857,0.0305620047396,0.00532403879606,-0.0832817176524,0.0748815357684,0.0501173153417,0.149906854839,0.139101768554,0.0247778201827,2.4412923497,-1.56884559985,0.00130250332137,-2.7886106309,-0.781689949321,0.4369643811,-0.0167064231777,0.0150379826939,0.0100295087258,0.0301094927944,0.0284648989038,0.00495970367351,-0.0811476295807,0.0729635583515,0.0487360872381,0.146166603803,0.138149990859,0.0239082381087,0.0,0.0,0.0,0.0,0.0,0.0,0.0,0.0,0.0,0.0,0.0,0.0,0.0,0.0,0.0,0.0,0.0,0.0,0.0,0.0,0.0,0.0,0.0,0.0,-0.91348645244,-0.450054268107,-1.12444784361,-1.54857334764,2.24001980905,0.199550743162
1455821708352607599,192,1455821708350759583,,0.408212900162,2.44099728456,-1.56858001262,0.00147964308179,-2.78807885352,-0.781187220518,0.437051955452,-0.018104844304,0.0162960425345,0.0108682523718,0.0326302416578,0.0308478788621,0.00537345168567,-0.0844839579323,0.0760565975338,0.0504720604154,0.153749417206,0.146772353954,0.0246350694251,2.44125877426,-1.56881537767,0.00132265997649,-2.78855011901,-0.781632742675,0.436974348441,-0.0168690211703,0.0151841918509,0.0101271463946,0.0304023887808,0.0287417471791,0.00500763661701,-0.0814503629884,0.0732455986561,0.0489015815995,0.146729382658,0.138698284501,0.0240247053976,0.0,0.0,0.0,0.0,0.0,0.0,0.0,0.0,0.0,0.0,0.0,0.0,0.0,0.0,0.0,0.0,0.0,0.0,0.0,0.0,0.0,0.0,0.0,0.0,-0.926071247925,-0.422134036502,-1.10623847016,-1.53633982495,2.24060857177,0.203034347595
1455821708354521336,193,1455821708352824583,,0.410278081894,2.44096090556,-1.56854726812,0.00150148070334,-2.7880132851,-0.781125229361,0.437062751667,-0.0182741559627,0.0164484641557,0.0109693691755,0.0329381763549,0.0311432781192,0.00542276307537,-0.0848277007376,0.0763650236771,0.0506447433173,0.154185279911,0.148626903064,0.0246763202721,2.44122487299,-1.5687848625,0.00134301224691,-2.78848902015,-0.781574981157,0.436984411873,-0.0170322419718,0.0153309802461,0.0102251240297,0.0306964715899,0.0290197708257,0.00505579577415,-0.0817704385223,0.0735427965044,0.0490760534929,0.147353426398,0.139325362047,0.0241344517352,0.0,0.0,0.0,0.0,0.0,0.0,0.0,0.0,0.0,0.0,0.0,0.0,0.0,0.0,0.0,0.0,0.0,0.0,0.0,0.0,0.0,0.0,0.0,0.0,-0.930223440996,-0.41291996098,-1.10074102014,-1.53351100906,2.2410727786,0.20367197115
1455821708356889431,194,1455821708354890655,,0.412343978882,2.44092418739,-1.56851421841,0.0015235212706,-2.7879471012,-0.781062649425,0.437073646759,-0.0184440182373,0.0166012461006,0.0110711980848,0.0332457217478,0.0314366575367,0.00547232929992,-0.0850345738798,0.076416921226,0.0511841659525,0.153360113028,0.144752514434,0.0248899042841,2.44119064463,-1.56875405314,0.00136356083266,-2.78842733182,-0.781516662238,0.436994571836,-0.0171961225922,0.0154783797701,0.0103234617212,0.0309918603088,0.0292991480538,0.00510416704182,-0.082110181851,0.0738567275254,0.049261638019,0.148035292572,0.140051866045,0.0242368159342,0.0,0.0,0.0,0.0,0.0,0.0,0.0,0.0,0.0,0.0,0.0,0.0,0.0,0.0,0.0,0.0,0.0,0.0,0.0,0.0,0.0,0.0,0.0,0.0,-0.93313457781,-0.407021057537,-1.09762566911,-1.53289481213,2.24128456903,0.203656709816
1455821708358661288,195,1455821708356956338,,0.414409637451,2.44088712907,-1.56848086298,0.00154576646325,-2.78788030345,-0.780999489747,0.437084641418,-0.0186143030374,0.0167541777301,0.011173994563,0.033552033556,0.0317230207519,0.00552232957771,-0.0852502261672,0.0765147083066,0.0516123122635,0.152951695133,0.141610700798,0.0251103734967,2.44115608781,-1.56872294835,0.00138430648081,-2.78836505134,-0.781457783129,0.437004828742,-0.0173606947476,0.0156264141422,0.0104221864243,0.0312886230319,0.0295799610618,0.00515273956833,-0.0824619735543,0.0741776446148,0.0494630650606,0.14872743044,0.140761141985,0.024335710577,0.0,0.0,0.0,0.0,0.0,0.0,0.0,0.0,0.0,0.0,0.0,0.0,0.0,0.0,0.0,0.0,0.0,0.0,0.0,0.0,0.0,0.0,0.0,0.0,-0.93599060579,-0.400216398246,-1.09374139748,-1.53151603441,2.2415236549,0.203937848573
1455821708360298687,196,1455821708359018537,,0.41647195816,2.44084972986,-1.56844720149,0.0015682177296,-2.78781289356,-0.780935759889,0.43709573648,-0.0187849085309,0.016907315095,0.011277271787,0.0338578572955,0.0320068367708,0.00557273238278,-0.0853552673389,0.07662265661,0.0516649117477,0.152872044396,0.14220531808,0.025292431579,2.44112120114,-1.56869154684,0.00140524999837,-2.78830217597,-0.781398341085,0.437015182993,-0.0175259745233,0.0157750884408,0.0105213311423,0.0315867427844,0.0298620824504,0.00520151067515,-0.0828178021812,0.0744966539836,0.0496816528907,0.149392322158,0.14136024661,0.0244353962439,0.0,0.0,0.0,0.0,0.0,0.0,0.0,0.0,0.0,0.0,0.0,0.0,0.0,0.0,0.0,0.0,0.0,0.0,0.0,0.0,0.0,0.0,0.0,0.0,-0.937576474163,-0.39494382997,-1.09071269419,-1.53032958967,2.24196041247,0.204229483647
1455821708362439181,197,1455821708361092316,,0.418545722961,2.44081198864,-1.56841323279,0.00159087538305,-2.78774486928,-0.780871453892,0.43710693246,-0.0189563080052,0.0170613860664,0.0113803816718,0.0341664195582,0.03229916043,0.00562324746229,-0.0860442069942,0.0774483148117,0.0514449729963,0.155690218292,0.150118341112,0.025222647926,2.4410859832,-1.56865984736,0.00142639225131,-2.78823870306,-0.781338333657,0.437025634986,-0.017691966635,0.0159243982279,0.0106209217944,0.0318861682504,0.0301453455277,0.00525048266684,-0.0831743094875,0.0748131330378,0.0499089992931,0.150033143802,0.141902830702,0.0245365954465,0.0,0.0,0.0,0.0,0.0,0.0,0.0,0.0,0.0,0.0,0.0,0.0,0.0,0.0,0.0,0.0,0.0,0.0,0.0,0.0,0.0,0.0,0.0,0.0,-0.944874155516,-0.376624784908,-1.07880668444,-1.52224595093,2.24265354494,0.206572106077
1455821708365102449,198,1455821708363173096,,0.420626401901,2.44077390294,-1.56837895401,0.0016137389026,-2.78767622124,-0.780806547962,0.437118229195,-0.0191293913995,0.0172173922531,0.0114831378745,0.0344816153876,0.0326067695621,0.00567348813807,-0.0870391873325,0.0785578718039,0.0513112297555,0.159505611104,0.157490791068,0.0250180278538,2.44105043255,-1.56862784861,0.00144773413577,-2.78817462998,-0.781277758492,0.437036185122,-0.017858680507,0.0160743515698,0.0107209626625,0.0321869101681,0.0304298195727,0.00529965378283,-0.0835395625213,0.0751402089087,0.0501318687405,0.150708773868,0.142571214306,0.0246345205473,0.0,0.0,0.0,0.0,0.0,0.0,0.0,0.0,0.0,0.0,0.0,0.0,0.0,0.0,0.0,0.0,0.0,0.0,0.0,0.0,0.0,0.0,0.0,0.0,-0.955327251783,-0.352097151447,-1.062811968,-1.5112864122,2.24327452591,0.209665406637
1455821708366848012,199,1455821708365239159,,0.422692537308,2.44073546994,-1.56834436215,0.00163680837756,-2.78760694003,-0.780741026437,0.43712962639,-0.0193036127306,0.0173744654009,0.0115863370824,0.0347995962241,0.0329147558988,0.00572370626437,-0.0871821437079,0.0785152760224,0.0518879780959,0.158475225394,0.15049554559,0.0252000984522,2.44101454773,-1.56859554927,0.001469276538,-2.78810995399,-0.781216612844,0.437046833789,-0.0180261422265,0.0162249804272,0.010821439567,0.0324890825303,0.030715828326,0.00534901285563,-0.0839221569279,0.0754886484497,0.0503450357942,0.151463588351,0.143437538968,0.0247245522501,0.0,0.0,0.0,0.0,0.0,0.0,0.0,0.0,0.0,0.0,0.0,0.0,0.0,0.0,0.0,0.0,0.0,0.0,0.0,0.0,0.0,0.0,0.0,0.0,-0.957613711848,-0.347139231103,-1.06027879754,-1.51116246685,2.24335136681,0.209448308654
1455821708368625474,200,1455821708367305559,,0.424758911133,2.44069668829,-1.56830945646,0.00166008586235,-2.78753702593,-0.780674904947,0.437141124568,-0.0194780352829,0.0175312275445,0.0116911477111,0.0351145081779,0.0332067334345,0.00577447219187,-0.0872404086627,0.0782468675552,0.0529226506085,0.156436728367,0.141481990158,0.0255658290427,2.44097832721,-1.56856294798,0.00149102032234,-2.78804467211,-0.781154893444,0.437057581349,-0.0181943809229,0.0163763175406,0.0109223447716,0.0327927993461,0.0310035720111,0.00539854723675,-0.0843165395634,0.0758484649651,0.0505601687459,0.152253227429,0.144306146094,0.024809828869,0.0,0.0,0.0,0.0,0.0,0.0,0.0,0.0,0.0,0.0,0.0,0.0,0.0,0.0,0.0,0.0,0.0,0.0,0.0,0.0,0.0,0.0,0.0,0.0,-0.959075783899,-0.344335637546,-1.05921796736,-1.51250667646,2.24334194073,0.208864134837
1455821708370752990,201,1455821708369379922,,0.42683339119,2.44065755722,-1.56827423707,0.00168357441077,-2.78746648296,-0.780608204511,0.437152724767,-0.0196530328394,0.0176881596898,0.011797400704,0.0354284610668,0.0334937024484,0.00582572675964,-0.0877571478328,0.0786852777491,0.0533303422854,0.157516160604,0.145487023655,0.0256887387352,2.44094176942,-1.56853004329,0.00151296636601,-2.78797878124,-0.781092597009,0.43706842815,-0.0183634111482,0.0165283706438,0.0110236988996,0.0330980659159,0.0312928631282,0.00544825396635,-0.0847136856878,0.0762046382887,0.050793959285,0.153013342421,0.144984971012,0.0248969007265,0.0,0.0,0.0,0.0,0.0,0.0,0.0,0.0,0.0,0.0,0.0,0.0,0.0,0.0,0.0,0.0,0.0,0.0,0.0,0.0,0.0,0.0,0.0,0.0,-0.964796887116,-0.33058441763,-1.05050539691,-1.5073936756,2.24388313248,0.210317300295
1455821708373226583,202,1455821708371449546,,0.428902864456,2.44061807535,-1.56823870296,0.00170727559565,-2.78739530978,-0.780540918183,0.437164427632,-0.0198288397559,0.0178459557634,0.0119037841803,0.0357447160682,0.0337926258562,0.00587713805866,-0.0880497686557,0.0791107959234,0.0530531340757,0.158738840783,0.153436384162,0.0257225602769,2.44090487277,-1.56849683379,0.00153511560479,-2.78791227836,-0.781029720746,0.437079374543,-0.0185332361855,0.0166811302472,0.0111255398874,0.033404816826,0.0315833996046,0.00549813853808,-0.085111351617,0.076554965054,0.0510470284924,0.15373756765,0.145551505463,0.0249876710081,0.0,0.0,0.0,0.0,0.0,0.0,0.0,0.0,0.0,0.0,0.0,0.0,0.0,0.0,0.0,0.0,0.0,0.0,0.0,0.0,0.0,0.0,0.0,0.0,-0.968184090238,-0.320894349343,-1.04445862654,-1.50365796708,2.24466028481,0.211375590402
1455821708375294516,203,1455821708373509090,,0.430962562561,2.44057824178,-1.56820285297,0.00173118910322,-2.78732350398,-0.780473027673,0.43717623358,-0.0200047327619,0.0180040312756,0.0120097233933,0.0360610884542,0.034097884144,0.005928810084,-0.0878432373281,0.0789647162657,0.0528860788444,0.157633545202,0.151821903638,0.0259494650712,2.44086763568,-1.56846331807,0.00155746903609,-2.78784516056,-0.780966262238,0.437090420889,-0.0187038515161,0.0168345840084,0.0112278914111,0.0337129849613,0.031875108439,0.00554820790863,-0.0855039790002,0.0768987961711,0.051304495247,0.154430567687,0.146157328932,0.0250816995421,0.0,0.0,0.0,0.0,0.0,0.0,0.0,0.0,0.0,0.0,0.0,0.0,0.0,0.0,0.0,0.0,0.0,0.0,0.0,0.0,0.0,0.0,0.0,0.0,-0.966720213858,-0.321854261971,-1.04570663847,-1.50560362319,2.24505912772,0.210712958995
1455821708377211075,204,1455821708375571301,,0.433024644852,2.44053805662,-1.56816668698,0.00175531440323,-2.78725106699,-0.78040453357,0.437188143341,-0.0201804272594,0.0181619551253,0.0121155766087,0.0363758983879,0.0343962188658,0.00598095097998,-0.0878512601425,0.0789591334114,0.0529671366307,0.157176388533,0.146512818228,0.0261914309041,2.44083005659,-1.56842949478,0.00158002767654,-2.78777742509,-0.780902219094,0.437101567568,-0.0188752350811,0.0169887107001,0.0113307490364,0.0340224821997,0.0321680354617,0.0055984705964,-0.0858795859725,0.0772278954903,0.051553130027,0.155066670673,0.14676969374,0.025180988228,0.0,0.0,0.0,0.0,0.0,0.0,0.0,0.0,0.0,0.0,0.0,0.0,0.0,0.0,0.0,0.0,0.0,0.0,0.0,0.0,0.0,0.0,0.0,0.0,-0.967349958508,-0.317799445857,-1.04350101644,-1.505184223,2.24523091095,0.210771619319
1455821708379321044,205,1455821708377634437,,0.435087919235,2.44049751983,-1.5681302049,0.0017796514743,-2.78717800002,-0.780335448731,0.437200157753,-0.0203563540942,0.0183201275858,0.012221494461,0.0366910680017,0.0346886205729,0.0060334607403,-0.088075574653,0.0792133271236,0.0529507156748,0.157993225205,0.145888888782,0.0263183294169,2.44079213401,-1.56839536259,0.0016027925148,-2.78770906943,-0.780837588986,0.437112814978,-0.0190473453375,0.0171434747694,0.0114340892213,0.0343331787568,0.0324620725283,0.00564893933628,-0.0862306704475,0.0775361738108,0.0517870549088,0.155629886383,0.14726737284,0.0252877516542,0.0,0.0,0.0,0.0,0.0,0.0,0.0,0.0,0.0,0.0,0.0,0.0,0.0,0.0,0.0,0.0,0.0,0.0,0.0,0.0,0.0,0.0,0.0,0.0,-0.969993336315,-0.308636667327,-1.0376724644,-1.50183673185,2.24558745447,0.211731053565
1455821708381227448,206,1455821708379694907,,0.437148332596,2.44045663081,-1.56809340601,0.00180420032832,-2.78710430127,-0.780265776356,0.437212277404,-0.0205326687565,0.0184787619921,0.0123273595651,0.0370076903703,0.0349837535113,0.00608619040127,-0.0882390876488,0.0794210791122,0.052914388373,0.158629143475,0.149244049654,0.0264113315489,2.44075386653,-1.56836092028,0.00162576448278,-2.78764009131,-0.780772369937,0.437124163546,-0.0192201328461,0.0172988353598,0.0115378787637,0.0346449424689,0.0327569764966,0.00569962859333,-0.0865568381311,0.0778244166065,0.0520024875178,0.156133825719,0.147636595501,0.0254015053967,0.0,0.0,0.0,0.0,0.0,0.0,0.0,0.0,0.0,0.0,0.0,0.0,0.0,0.0,0.0,0.0,0.0,0.0,0.0,0.0,0.0,0.0,0.0,0.0,-0.972031359862,-0.300940771328,-1.0328183686,-1.49913906906,2.24615266209,0.212490993747
1455821708383322418,207,1455821708381757785,,0.439211130142,2.44041538867,-1.5680562893,0.00182896097876,-2.78702996761,-0.780195506119,0.437224502658,-0.0207094763049,0.0186379496478,0.0124332908697,0.0373259660069,0.0352864840281,0.00613906334991,-0.0885684607977,0.0797665766028,0.0530169162211,0.15964649307,0.153486467172,0.0264616170914,2.44071525285,-1.56832616669,0.00164894443992,-2.78757048869,-0.780706560371,0.437135613724,-0.0193935502882,0.017454756011,0.0116420783725,0.0349576771796,0.0330525897357,0.00575054999439,-0.0868606039554,0.078096234621,0.052197121212,0.156600885066,0.147976643532,0.025519895664,0.0,0.0,0.0,0.0,0.0,0.0,0.0,0.0,0.0,0.0,0.0,0.0,0.0,0.0,0.0,0.0,0.0,0.0,0.0,0.0,0.0,0.0,0.0,0.0,-0.975796302658,-0.290022091565,-1.02587676271,-1.49505841852,2.24673740994,0.213624643315
1455821708385344581,208,1455821708383817503,,0.441270828247,2.44037379237,-1.5680188537,0.00185393381321,-2.78695499616,-0.780124626874,0.437236833821,-0.0208868222211,0.0187976478416,0.0125395435812,0.0376454828683,0.035592760455,0.00619210021472,-0.0887774553649,0.0799316171675,0.0532357953157,0.159870368379,0.152789959669,0.0265752477232,2.44067629174,-1.56829110073,0.00167233316655,-2.78750025969,-0.780640158844,0.437147165985,-0.0195675566645,0.0176112075331,0.0117466482593,0.0352713257843,0.0333489372302,0.00580171042665,-0.0871457723796,0.0783552874908,0.0523727656676,0.157047719627,0.148370851015,0.025640536592,0.0,0.0,0.0,0.0,0.0,0.0,0.0,0.0,0.0,0.0,0.0,0.0,0.0,0.0,0.0,0.0,0.0,0.0,0.0,0.0,0.0,0.0,0.0,0.0,-0.978454456258,-0.281936254165,-1.02093632278,-1.49267638248,2.24710444698,0.21420890851
1455821708387417037,209,1455821708385879204,,0.443332672119,2.44033184083,-1.56798109827,0.00187911962922,-2.78687938485,-0.780053137861,0.437249271277,-0.0210647129383,0.0189577870439,0.0126462724325,0.0379658236572,0.0358962526816,0.00624535570608,-0.0891132618294,0.0802075851869,0.053493055998,0.160470420521,0.150702266944,0.0266802436319,2.44063698207,-1.56825572135,0.00169593137044,-2.78742940251,-0.780573163798,0.437158820808,-0.0197421186823,0.0177681667207,0.0118515556319,0.0355858547384,0.0336461082518,0.0058531130826,-0.0874162453719,0.0786039000789,0.0525346069175,0.157481234433,0.148800170588,0.0257621193558,0.0,0.0,0.0,0.0,0.0,0.0,0.0,0.0,0.0,0.0,0.0,0.0,0.0,0.0,0.0,0.0,0.0,0.0,0.0,0.0,0.0,0.0,0.0,0.0,-0.982402763742,-0.271258769321,-1.01429541751,-1.48912523197,2.24738170715,0.215126429797
1455821708389463519,210,1455821708387939147,,0.445392608643,2.44028953292,-1.56794302206,0.00190451935496,-2.7868031319,-0.779981044767,0.437261815461,-0.0212431994823,0.0191184180138,0.012753453305,0.0382871312625,0.0361968418177,0.00629882862932,-0.0893732821596,0.0804233846771,0.0536878164578,0.160837184731,0.149886869141,0.0267926796117,2.44059732274,-1.56822002757,0.00171973970438,-2.78735791541,-0.780505573583,0.43717057868,-0.0199172108485,0.0179256146538,0.0119567783095,0.0359012409623,0.0339441069034,0.00590475923238,-0.0876759208929,0.0788440330366,0.0526880707033,0.157904989504,0.149198480982,0.0258840304297,0.0,0.0,0.0,0.0,0.0,0.0,0.0,0.0,0.0,0.0,0.0,0.0,0.0,0.0,0.0,0.0,0.0,0.0,0.0,0.0,0.0,0.0,0.0,0.0,-0.98559118179,-0.262280842179,-1.00880244454,-1.48636813316,2.24773585092,0.215813874658
1455821708391503560,211,1455821708389998338,,0.44745182991,2.44024686754,-1.56790462418,0.00193013381227,-2.78672623568,-0.779908349738,0.437274466814,-0.0214221770628,0.0192794678403,0.0128610040042,0.0386090911829,0.0364981869478,0.006352524058,-0.0896042983487,0.0806264418735,0.0538628827156,0.161122735673,0.151458260986,0.0269027490675,2.44055731271,-1.56818401842,0.00174375878582,-2.7872857967,-0.780437386627,0.437182440089,-0.0200928144715,0.0180835359671,0.0120623031241,0.0362174666269,0.0342428491723,0.00595664908273,-0.0879277021106,0.0790772802535,0.0528367438426,0.158320675088,0.149543787919,0.0260058199128,0.0,0.0,0.0,0.0,0.0,0.0,0.0,0.0,0.0,0.0,0.0,0.0,0.0,0.0,0.0,0.0,0.0,0.0,0.0,0.0,0.0,0.0,0.0,0.0,-0.98848626798,-0.253960778805,-1.00375660999,-1.48390659594,2.24821426577,0.216426515913
1455821708393431958,212,1455821708392060541,,0.449513912201,2.44020384358,-1.56786590358,0.00195596366659,-2.78664869415,-0.779835046947,0.437287225707,-0.0216017892892,0.019441128887,0.0129688503174,0.0389324337649,0.0368046045026,0.00640636889154,-0.090007928032,0.0810346047548,0.0539834305128,0.162219846337,0.154959293811,0.0269420844743,2.44051695098,-1.56814769297,0.00176798921111,-2.78721304472,-0.780368601502,0.437194405519,-0.020268916537,0.0182419192595,0.0121681221685,0.0365345203924,0.034542276232,0.00600878151763,-0.0881743633843,0.079306012195,0.0529823005808,0.158733090342,0.149883271817,0.0261266149962,0.0,0.0,0.0,0.0,0.0,0.0,0.0,0.0,0.0,0.0,0.0,0.0,0.0,0.0,0.0,0.0,0.0,0.0,0.0,0.0,0.0,0.0,0.0,0.0,-0.993079942876,-0.241781700711,-0.99609559546,-1.47944823123,2.24875828506,0.217629859776
1455821708395226741,213,1455821708394121375,,0.451574802399,2.44016045964,-1.56782685891,0.00198200944423,-2.78657050401,-0.779761126855,0.437300092378,-0.0217821517585,0.0196035387009,0.0130769273274,0.0392577089788,0.0371154875147,0.00646030243519,-0.0903545413179,0.0813752092319,0.0540935795394,0.163055367532,0.155923718309,0.0269914591745,2.44047623656,-1.56811105029,0.00179243156278,-2.78713965779,-0.780299216784,0.437206475454,-0.0204455111175,0.0184007600376,0.012274229502,0.0368524095088,0.0348424417679,0.00606115286453,-0.088420217096,0.079534765865,0.0531250328599,0.159156026093,0.150282264111,0.0262447319006,0.0,0.0,0.0,0.0,0.0,0.0,0.0,0.0,0.0,0.0,0.0,0.0,0.0,0.0,0.0,0.0,0.0,0.0,0.0,0.0,0.0,0.0,0.0,0.0,-0.997138795835,-0.23080041321,-0.989270287591,-1.47565952663,2.24919019976,0.218605955409
1455821708397601015,214,1455821708396182024,,0.453635454178,2.44011671431,-1.56778748882,0.00200827170774,-2.786491662,-0.779686585631,0.437313067055,-0.0219631754306,0.0197665523747,0.0131853361759,0.0395842976557,0.0374257365224,0.00651437462142,-0.0906691308038,0.0816384644804,0.0543152689428,0.163533309436,0.154325289443,0.0270807270511,2.44043516844,-1.56807408947,0.00181708641235,-2.78706563421,-0.780229230874,0.437218650363,-0.0206226001341,0.0185600617619,0.0123806200708,0.0371711647109,0.0351434683542,0.00611375647688,-0.0886687995005,0.0797669583991,0.0532655359429,0.159599175971,0.150744322177,0.0263588804525,0.0,0.0,0.0,0.0,0.0,0.0,0.0,0.0,0.0,0.0,0.0,0.0,0.0,0.0,0.0,0.0,0.0,0.0,0.0,0.0,0.0,0.0,0.0,0.0,-1.00092675652,-0.220655342124,-0.983055965678,-1.47247680463,2.24950380369,0.219384073659
1455821708399663087,215,1455821708398243294,,0.455696582794,2.44007260629,-1.56774779217,0.00203475129309,-2.78641216586,-0.77961142633,0.437326150062,-0.0221448487378,0.019930096705,0.0132942491766,0.0399118483776,0.0377335641258,0.00656863143572,-0.0910041763433,0.0819058658155,0.0545977317016,0.164017412423,0.153502313859,0.0271760872516,2.44039374565,-1.56803680957,0.0018419543245,-2.78699097222,-0.780158641976,0.437230930704,-0.0208001908809,0.0187198321144,0.0124872920807,0.0374908256297,0.0354454290179,0.00616658430394,-0.0889219472615,0.0800033941038,0.053406474014,0.160061742853,0.151216341547,0.0264689466023,0.0,0.0,0.0,0.0,0.0,0.0,0.0,0.0,0.0,0.0,0.0,0.0,0.0,0.0,0.0,0.0,0.0,0.0,0.0,0.0,0.0,0.0,0.0,0.0,-1.0049164615,-0.210137300672,-0.976586270983,-1.46914388199,2.24985240575,0.220214154633
1455821708401756049,216,1455821708400304292,,0.457757711411,2.44002813425,-1.56770776788,0.00206144923596,-2.78633201357,-0.779535650784,0.437339341759,-0.0223271889981,0.0200941906432,0.0134036936912,0.0402404373987,0.0380419818876,0.00662306576419,-0.0913360839794,0.0821880724589,0.0548467829395,0.16457160872,0.154915447995,0.0272582412201,2.44035196717,-1.56799920966,0.00186703586657,-2.78691566997,-0.780087448235,0.437243316917,-0.0209782937976,0.0188800796406,0.0125942499905,0.0378114277294,0.035748312265,0.00621962852521,-0.0891809694368,0.0802441320931,0.0535514357534,0.160540356917,0.15166690546,0.0265752746721,0.0,0.0,0.0,0.0,0.0,0.0,0.0,0.0,0.0,0.0,0.0,0.0,0.0,0.0,0.0,0.0,0.0,0.0,0.0,0.0,0.0,0.0,0.0,0.0,-1.00885345994,-0.199652128585,-0.970119075544,-1.46575317067,2.25031262243,0.221075197813
