Thorcito/FGP_ROBOT/src/controller/tum_ics_ur_robot/tum_ics_ur_robot_lli/src/matlab/JointPoseFloat64.csv
%time,field.header.seq,field.header.stamp,field.header.frame_id,field.waypoint,field.q0,field.q1,field.q2,field.q3,field.q4,field.q5,field.acc,field.vel,field.totaltime,field.round
1454587894834227286,0,1454587894833567958,,0,2.22856249495,-1.5697228792,-0.0923648501485,-2.36508457993,-1.56189770403,0.465020523441,3.0,0.75,0.008,0.0
1454587894841526700,1,1454587894841375904,,1,2.228561985,-1.56974427853,-0.092280185145,-2.365146168,-1.56190766439,0.465020903187,3.0,0.75,0.008,0.0
1454587894849537196,2,1454587894849416476,,2,2.22856084279,-1.56979426413,-0.0920810053618,-2.36529087502,-1.56192994272,0.465021746388,3.0,0.75,0.008,0.0
1454587894857605744,3,1454587894857489455,,3,2.22855850611,-1.56990330166,-0.091642029392,-2.36560922477,-1.56197579966,0.46502344742,3.0,0.75,0.008,0.0
1454587894865927219,4,1454587894865653412,,4,2.2285554843,-1.57005660613,-0.0910171835032,-2.36606140861,-1.56203634174,0.465025604774,3.0,0.75,0.008,0.0
1454587894874016211,5,1454587894873768223,,5,2.22855203203,-1.57024978658,-0.0902194533491,-2.36663742826,-1.56210825001,0.465028008705,3.0,0.75,0.008,0.0
1454587894882063026,6,1454587894881811224,,6,2.22854839091,-1.57047862899,-0.0892613618684,-2.36732765688,-1.56218889119,0.465030461521,3.0,0.75,0.008,0.0
1454587894890095893,7,1454587894889882992,,7,2.22854478983,-1.57073909389,-0.0881549742542,-2.3681228338,-1.56227617698,0.465032777294,3.0,0.75,0.008,0.0
1454587894898206836,8,1454587894897937689,,8,2.22854144514,-1.57102731394,-0.0869119033518,-2.3690140591,-1.56236845218,0.465034781574,3.0,0.75,0.008,0.0
1454587894906135267,9,1454587894905935581,,9,2.22853856094,-1.57133959133,-0.0855433154513,-2.36999278781,-1.56246440582,0.46503631109,3.0,0.75,0.008,0.0
1454587894914345294,10,1454587894914109805,,10,2.228536816,-1.57158745671,-0.0844409726675,-2.37077931511,-1.56253815237,0.465037054585,3.0,0.75,0.008,0.0
1454587894922565549,11,1454587894922225830,,11,2.22853519287,-1.5719334369,-0.0828782779291,-2.37189165962,-1.56263817976,0.465037392934,3.0,0.75,0.008,0.0
1454587894930486278,12,1454587894930275536,,12,2.22853453044,-1.57229415743,-0.0812185224144,-2.37306978949,-1.56273952898,0.465036862704,3.0,0.75,0.008,0.0
1454587894938565457,13,1454587894938317610,,13,2.22853498917,-1.57266653165,-0.079471255367,-2.37430643583,-1.56284165893,0.465035339877,3.0,0.75,0.008,0.0
1454587894946668622,14,1454587894946443552,,14,2.22853671852,-1.57304762892,-0.0776456115708,-2.3755946544,-1.56294414416,0.465032710199,3.0,0.75,0.008,0.0
1454587894954773621,15,1454587894954535145,,15,2.22853985716,-1.57343467152,-0.075750318934,-2.37692781884,-1.56304665106,0.465028868895,3.0,0.75,0.008,0.0
1454587894962856103,16,1454587894962624272,,16,2.22854453331,-1.57382503153,-0.0737937063205,-2.37829961354,-1.56314891901,0.465023720377,3.0,0.75,0.008,0.0
1454587894970914534,17,1454587894970680118,,17,2.22855086496,-1.57421622759,-0.0717837116106,-2.37970402654,-1.5632507453,0.465017177963,3.0,0.75,0.008,0.0
1454587894979074671,18,1454587894978841462,,18,2.22855896017,-1.57460592162,-0.0697278899751,-2.38113534223,-1.5633519732,0.465009163589,3.0,0.75,0.008,0.0
1454587894987203440,19,1454587894986960589,,19,2.22856624846,-1.57489587896,-0.0681602834357,-2.38222320876,-1.5634274279,0.465002144584,3.0,0.75,0.008,0.0
1454587894995281617,20,1454587894995044309,,20,2.22857766101,-1.5752777375,-0.0660413235445,-2.38368871592,-1.5635273367,0.464991391359,3.0,0.75,0.008,0.0
1454587895003322583,21,1454587895003058964,,21,2.22859108528,-1.57565237573,-0.0638954098894,-2.38516687532,-1.56362638199,0.464978993651,3.0,0.75,0.008,0.0
1454587895011469810,22,1454587895011234065,,22,2.22860659451,-1.57601796281,-0.0617287393255,-2.38665301625,-1.563724509,0.464964903223,3.0,0.75,0.008,0.0
1454587895019527690,23,1454587895019309230,,23,2.22862425332,-1.57637279492,-0.0595471676895,-2.38814272859,-1.563821678,0.464949079137,3.0,0.75,0.008,0.0
1454587895027639189,24,1454587895027405705,,24,2.22864411798,-1.57671529175,-0.0573562189653,-2.38963185513,-1.56391786105,0.464931487479,3.0,0.75,0.008,0.0
1454587895035678661,25,1454587895035461465,,25,2.2286662367,-1.57704399292,-0.0551610945447,-2.39111648386,-1.56401303945,0.464912101084,3.0,0.75,0.008,0.0
1454587895043874155,26,1454587895043630918,,26,2.22869064988,-1.57735755442,-0.0529666825641,-2.39259294027,-1.56410720165,0.464890899271,3.0,0.75,0.008,0.0
1454587895051936966,27,1454587895051697618,,27,2.22871048559,-1.5775820453,-0.0513241100039,-2.39369283883,-1.56417715262,0.464873797615,3.0,0.75,0.008,0.0
1454587895060067374,28,1454587895059735723,,28,2.22873898891,-1.57786621541,-0.0491417982331,-2.39514683858,-1.56426952457,0.4648493876,3.0,0.75,0.008,0.0
1454587895068031928,29,1454587895067750488,,29,2.22876985995,-1.57813212033,-0.0469721028793,-2.39658372265,-1.56436087329,0.464823136544,3.0,0.75,0.008,0.0
1454587895076116160,30,1454587895075898347,,30,2.22880311237,-1.57837882027,-0.0448188212942,-2.3980006385,-1.564451202,0.464795045717,3.0,0.75,0.008,0.0
1454587895084206244,31,1454587895083964250,,31,2.22883875335,-1.57860547467,-0.0426854823987,-2.39939493471,-1.56454051579,0.464765121626,3.0,0.75,0.008,0.0
1454587895092315663,32,1454587895092025413,,32,2.22887678387,-1.57881133862,-0.0405753561043,-2.4007641534,-1.56462882104,0.464733375763,3.0,0.75,0.008,0.0
1454587895100248720,33,1454587895100028106,,33,2.22891719895,-1.57899575926,-0.0384914626903,-2.40210602279,-1.56471612497,0.464699824356,3.0,0.75,0.008,0.0
1454587895108492786,34,1454587895108237205,,34,2.2289599879,-1.57915817227,-0.0364365821213,-2.40341844987,-1.56480243537,0.464664488125,3.0,0.75,0.008,0.0
1454587895116472616,35,1454587895116253695,,35,2.22900513463,-1.57929809832,-0.0344132632889,-2.4046995131,-1.56488776026,0.464627392038,3.0,0.75,0.008,0.0
1454587895124575520,36,1454587895124362593,,36,2.22904052937,-1.57938804352,-0.0329178944606,-2.40563866494,-1.56495111203,0.464598432358,3.0,0.75,0.008,0.0
1454587895132562216,37,1454587895132364243,,37,2.22908974806,-1.57948770723,-0.0309552795476,-2.40686070802,-1.56503473161,0.464558328544,3.0,0.75,0.008,0.0
1454587895140710159,38,1454587895140499683,,38,2.22914125434,-1.57956397579,-0.029030118694,-2.40804692925,-1.56511738752,0.464516553535,3.0,0.75,0.008,0.0
1454587895148810943,39,1454587895148582220,,39,2.22919501398,-1.57961665788,-0.0271441748857,-2.40919598737,-1.56519908725,0.464473146164,3.0,0.75,0.008,0.0
1454587895156866899,40,1454587895156640085,,40,2.22925098851,-1.579645631,-0.0252990224816,-2.41030667974,-1.5652798379,0.464428148434,3.0,0.75,0.008,0.0
1454587895164885844,41,1454587895164671750,,41,2.22930913543,-1.5796508382,-0.0234960557642,-2.41137793576,-1.56535964618,0.464381605298,3.0,0.75,0.008,0.0
1454587895173044617,42,1454587895172796444,,42,2.22936940845,-1.57963228486,-0.0217364973337,-2.41240881049,-1.56543851832,0.464333564457,3.0,0.75,0.008,0.0
1454587895181091357,43,1454587895180871654,,43,2.22943175772,-1.57959003556,-0.0200214063353,-2.41339847841,-1.56551646009,0.464284076154,3.0,0.75,0.008,0.0
1454587895189118401,44,1454587895188901961,,44,2.22949613003,-1.57952421094,-0.0183516865132,-2.41434622733,-1.56559347679,0.464233192974,3.0,0.75,0.008,0.0
1454587895197153488,45,1454587895196891754,,45,2.2295457031,-1.57945947378,-0.0171296317212,-2.41502916202,-1.56565063516,0.464194148055,3.0,0.75,0.008,0.0
1454587895205368116,46,1454587895205047445,,46,2.22961347839,-1.57935284067,-0.0155410466948,-2.41590215892,-1.56572604434,0.464140956747,3.0,0.75,0.008,0.0
1454587895213327183,47,1454587895213083234,,47,2.22968311486,-1.57922322887,-0.0139995804583,-2.4167318151,-1.56580054063,0.464086525718,3.0,0.75,0.008,0.0
1454587895221437233,48,1454587895221200907,,48,2.22975454862,-1.57907094303,-0.0125056225751,-2.41751779209,-1.56587412765,0.464030914681,3.0,0.75,0.008,0.0
1454587895229396491,49,1454587895229171306,,49,2.22982771336,-1.57889633017,-0.0110594428992,-2.41825983821,-1.56594680862,0.463974184834,3.0,0.75,0.008,0.0
1454587895237560902,50,1454587895237351824,,50,2.22990254061,-1.57869977696,-0.00966119851964,-2.41895778338,-1.56601858637,0.46391639869,3.0,0.75,0.008,0.0
1454587895245597072,51,1454587895245373195,,51,2.22997895988,-1.57848170713,-0.00831094050091,-2.41961153422,-1.56608946342,0.463857619921,3.0,0.75,0.008,0.0
1454587895253731905,52,1454587895253468452,,52,2.23003727565,-1.57830430892,-0.00732971246527,-2.42007282935,-1.56614203144,0.463812923307,3.0,0.75,0.008,0.0
1454587895261709565,53,1454587895261472412,,53,2.2301163059,-1.57804970704,-0.00606325777322,-2.42064922919,-1.56621133735,0.463752563588,3.0,0.75,0.008,0.0
1454587895269789446,54,1454587895269600830,,54,2.23019672537,-1.57777492442,-0.00484443577481,-2.42118153506,-1.56627974793,0.463691391071,3.0,0.75,0.008,0.0
1454587895277957380,55,1454587895277723260,,55,2.23027845755,-1.57748050175,-0.00367295643124,-2.42166990014,-1.56634726471,0.463629472441,3.0,0.75,0.008,0.0
1454587895286019901,56,1454587895285775637,,56,2.23036142472,-1.57716700542,-0.00254845285971,-2.42211453317,-1.56641388902,0.463566874859,3.0,0.75,0.008,0.0
1454587895294033234,57,1454587895293779392,,57,2.23044554808,-1.57683502529,-0.00147048687978,-2.42251569449,-1.56647962204,0.463503665832,3.0,0.75,0.008,0.0
1454587895302173173,58,1454587895301941969,,58,2.23053074795,-1.57648517261,-0.00043855435418,-2.42287369228,-1.56654446485,0.463439913092,3.0,0.75,0.008,0.0
1454587895310259073,59,1454587895310025178,,59,2.23061694382,-1.57611807802,0.000547909674211,-2.42318887886,-1.56660841844,0.463375684478,3.0,0.75,0.008,0.0
1454587895318270143,60,1454587895318082870,,60,2.23070405456,-1.57573438954,0.00148952604706,-2.4234616473,-1.56667148375,0.463311047823,3.0,0.75,0.008,0.0
1454587895326245264,61,1454587895326062402,,61,2.23079199855,-1.57533477073,0.00238696675443,-2.42369242801,-1.56673366171,0.463246070846,3.0,0.75,0.008,0.0
1454587895334354216,62,1454587895334175624,,62,2.23088069376,-1.57491989884,0.00324095039512,-2.42388168564,-1.56679495326,0.463180821051,3.0,0.75,0.008,0.0
1454587895342542634,63,1454587895342304164,,63,2.23097005791,-1.57449046312,0.00405223783023,-2.42402991604,-1.5668553594,0.463115365631,3.0,0.75,0.008,0.0
1454587895350628499,64,1454587895350395712,,64,2.23103747042,-1.57415924929,0.00463316333067,-2.42411447907,-1.56690008358,0.463066179317,3.0,0.75,0.008,0.0
1454587895358579282,65,1454587895358348063,,65,2.23112780684,-1.57370601544,0.00537167560001,-2.42419218864,-1.56695894283,0.463000524459,3.0,0.75,0.008,0.0
1454587895366716546,66,1454587895366474121,,66,2.23121858551,-1.57324016152,0.00606976867919,-2.42423037255,-1.56701691983,0.462934846395,3.0,0.75,0.008,0.0
1454587895374761451,67,1454587895374545667,,67,2.23130972417,-1.57276240737,0.00672832640584,-2.42422961928,-1.56707401597,0.462869210353,3.0,0.75,0.008,0.0
1454587895382816705,68,1454587895382606284,,68,2.23140114082,-1.57227347746,0.00734825676811,-2.42419053614,-1.56713023281,0.462803680847,3.0,0.75,0.008,0.0
1454587895390956199,69,1454587895390668865,,69,2.23149275381,-1.57177409957,0.00793048860029,-2.42411374704,-1.5671855721,0.462738321605,3.0,0.75,0.008,0.0
1454587895399135519,70,1454587895398901775,,70,2.23158448194,-1.57126500346,0.00847596844593,-2.42399989041,-1.56724003579,0.462673195502,3.0,0.75,0.008,0.0
1454587895407243240,71,1454587895406955771,,71,2.23167624453,-1.57074691969,0.00898565758445,-2.42384961725,-1.56729362609,0.462608364498,3.0,0.75,0.008,0.0
1454587895415220283,72,1454587895415009065,,72,2.23176796152,-1.57022057838,0.0094605292166,-2.42366358922,-1.56734634542,0.462543889573,3.0,0.75,0.008,0.0
1454587895423218551,73,1454587895423000332,,73,2.23183667157,-1.5698208418,0.00979442468801,-2.42350100722,-1.56738531496,0.46249580316,3.0,0.75,0.008,0.0
1454587895431412475,74,1454587895431181201,,74,2.23192811826,-1.56928180156,0.0102107338855,-2.42325402637,-1.56743651678,0.462432094976,3.0,0.75,0.008,0.0
1454587895439468671,75,1454587895439206912,,75,2.23201930302,-1.56873650071,0.0105949421663,-2.42297315163,-1.56748685574,0.462368905093,3.0,0.75,0.008,0.0
1454587895447540334,76,1454587895447302815,,76,2.23211014877,-1.56818565844,0.0109480449558,-2.4226590702,-1.56753633535,0.46230629036,3.0,0.75,0.008,0.0
1454587895455550945,77,1454587895455321069,,77,2.23220057943,-1.5676299887,0.0112710382663,-2.42231247265,-1.56758495943,0.462244306418,3.0,0.75,0.008,0.0
1454587895463688053,78,1454587895463466060,,78,2.23229051992,-1.56707019942,0.0115649167101,-2.42193405172,-1.5676327321,0.462183007656,3.0,0.75,0.008,0.0
1454587895471751576,79,1454587895471505102,,79,2.23237989626,-1.56650699164,0.0118306716411,-2.42152450112,-1.56767965785,0.462122447179,3.0,0.75,0.008,0.0
1454587895479811075,80,1454587895479577095,,80,2.23246863561,-1.56594105876,0.0120692894208,-2.42108451447,-1.56772574148,0.46206267677,3.0,0.75,0.008,0.0
1454587895487829935,81,1454587895487559130,,81,2.23253472896,-1.56551523321,0.0122310336753,-2.42073496753,-1.56775975465,0.462018397837,3.0,0.75,0.008,0.0
1454587895495941740,82,1454587895495682546,,82,2.23262218196,-1.56494617446,0.0124245141535,-2.42024338317,-1.56780437718,0.461960130577,3.0,0.75,0.008,0.0
1454587895503999349,83,1454587895503712011,,83,2.23270880399,-1.56437625246,0.0125935314655,-2.4197232621,-1.56784817262,0.461902788752,3.0,0.75,0.008,0.0
1454587895511946729,84,1454587895511715606,,84,2.23279452698,-1.56380612599,0.0127390398032,-2.41917528955,-1.56789114708,0.46184641895,3.0,0.75,0.008,0.0
1454587895519946906,85,1454587895519716915,,85,2.2328792842,-1.56323644316,0.0128619816924,-2.41860014669,-1.56793330705,0.461791066322,3.0,0.75,0.008,0.0
1454587895528091291,86,1454587895527891575,,86,2.23296301035,-1.56266784093,0.0129632868889,-2.41799851,-1.56797465937,0.461736774561,3.0,0.75,0.008,0.0
1454587895536220937,87,1454587895535965202,,87,2.23304564156,-1.5621009446,0.01304387137,-2.4173710507,-1.56801521123,0.461683585891,3.0,0.75,0.008,0.0
1454587895544297872,88,1454587895544084278,,88,2.23310685885,-1.56167726122,0.0130912545149,-2.4168839107,-1.56804510436,0.461644442855,3.0,0.75,0.008,0.0
1454587895552199059,89,1454587895552001310,,89,2.23318742477,-1.56111481828,0.0131377371423,-2.41621285942,-1.56808427381,0.461593281721,3.0,0.75,0.008,0.0
1454587895560293177,90,1454587895560118265,,90,2.2332667279,-1.56055573731,0.0131659397688,-2.41551780046,-1.56812266442,0.461543332107,3.0,0.75,0.008,0.0
1454587895568408556,91,1454587895568168995,,91,2.23334471012,-1.56000059624,0.0131767192332,-2.41479938131,-1.56816028469,0.46149463062,3.0,0.75,0.008,0.0
1454587895576409683,92,1454587895576227011,,92,2.23342131488,-1.5594499596,0.013170914986,-2.41405824237,-1.56819714349,0.461447212354,3.0,0.75,0.008,0.0
1454587895584500818,93,1454587895584266086,,93,2.23349648726,-1.55890437815,0.0131493485524,-2.41329501662,-1.56823324998,0.461401110886,3.0,0.75,0.008,0.0
1454587895592688523,94,1454587895592444184,,94,2.23357017398,-1.55836438865,0.0131128230662,-2.41251032941,-1.56826861368,0.461356358275,3.0,0.75,0.008,0.0
1454587895600733433,95,1454587895600504129,,95,2.23364232341,-1.55783051363,0.0130621228688,-2.41170479836,-1.56830324443,0.461312985063,3.0,0.75,0.008,0.0
1454587895608817785,96,1454587895608565437,,96,2.23371288559,-1.55730326116,0.0129980131709,-2.41087903313,-1.56833715235,0.461271020274,3.0,0.75,0.008,0.0
1454587895616858590,97,1454587895616603837,,97,2.23376473649,-1.55691246527,0.0129415802956,-2.4102467928,-1.56836211521,0.461240487567,3.0,0.75,0.008,0.0
1454587895624915117,98,1454587895624720717,,98,2.23383240585,-1.55639798078,0.0128557867543,-2.40938706076,-1.5683947835,0.461201052814,3.0,0.75,0.008,0.0
1454587895632980720,99,1454587895632763183,,99,2.23389835933,-1.55589144021,0.012758587324,-2.4085087298,-1.56842675837,0.46116309852,3.0,0.75,0.008,0.0
1454587895641142190,100,1454587895640878957,,100,2.23396255336,-1.55539329607,0.0126506734404,-2.40761237942,-1.56845805105,0.461126648069,3.0,0.75,0.008,0.0
1454587895649182449,101,1454587895648938200,,101,2.23402494612,-1.55490398575,0.0125327165589,-2.40669858103,-1.568488673,0.461091723358,3.0,0.75,0.008,0.0
1454587895657194958,102,1454587895657021237,,102,2.23408549749,-1.5544239315,0.0124053681151,-2.40576789804,-1.56851863596,0.461058344806,3.0,0.75,0.008,0.0
1454587895665216763,103,1454587895665049082,,103,2.23414416914,-1.55395354033,0.0122692595273,-2.40482088592,-1.56854795188,0.461026531369,3.0,0.75,0.008,0.0
1454587895673242507,104,1454587895673068297,,104,2.23420092445,-1.55349320397,0.0121250022378,-2.40385809227,-1.56857663295,0.460996300547,3.0,0.75,0.008,0.0
1454587895681257266,105,1454587895681089398,,105,2.23425572856,-1.55304329887,0.0119731877919,-2.40288005697,-1.56860469156,0.460967668403,3.0,0.75,0.008,0.0
1454587895689338947,106,1454587895689168259,,106,2.23430854835,-1.55260418621,0.0118143879501,-2.40188731226,-1.56863214031,0.46094064957,3.0,0.75,0.008,0.0
1454587895697373545,107,1454587895697208248,,107,2.23434684205,-1.55228214289,0.011691036771,-2.40113341663,-1.56865233432,0.460921452189,3.0,0.75,0.008,0.0
1454587895705476965,108,1454587895705281268,,108,2.23439611487,-1.55186274009,0.0115213293072,-2.40011618879,-1.56867874663,0.460897287634,3.0,0.75,0.008,0.0
1454587895713483498,109,1454587895713298581,,109,2.23444332132,-1.55145504424,0.0113461080551,-2.39908567717,-1.5687045846,0.460874769411,3.0,0.75,0.008,0.0
1454587895721707035,110,1454587895721462094,,110,2.23448843482,-1.55105935939,0.0111658720993,-2.39804238685,-1.56872986142,0.46085390695,3.0,0.75,0.008,0.0
1454587895729815191,111,1454587895729497402,,111,2.23453143054,-1.55067597448,0.0109811016681,-2.39698681606,-1.56875459042,0.460834708332,3.0,0.75,0.008,0.0
1454587895737887279,112,1454587895737628081,,112,2.23457228537,-1.55030516344,0.0107922583986,-2.39591945643,-1.56877878503,0.460817180311,3.0,0.75,0.008,0.0
1454587895745863070,113,1454587895745623567,,113,2.23461097793,-1.54994718522,0.0105997856205,-2.39484079314,-1.56880245878,0.460801328332,3.0,0.75,0.008,0.0
1454587895754039043,114,1454587895753803910,,114,2.23464748853,-1.54960228397,0.0104041086571,-2.39375130515,-1.5688256253,0.460787156549,3.0,0.75,0.008,0.0
1454587895762076616,115,1454587895761828458,,115,2.23468179921,-1.54927068908,0.0102056351435,-2.39265146542,-1.56884829827,0.460774667848,3.0,0.75,0.008,0.0
1454587895770078412,116,1454587895769852264,,116,2.23470607866,-1.54903085495,0.0100551801916,-2.39182007352,-1.56886498735,0.460766406876,3.0,0.75,0.008,0.0
1454587895778074572,117,1454587895777883186,,117,2.23473650131,-1.54872305425,0.00985274157324,-2.39070323896,-1.56888682965,0.460756866771,3.0,0.75,0.008,0.0
1454587895786203333,118,1454587895786004113,,118,2.23476468331,-1.54842911575,0.00964853894402,-2.38957732402,-1.56890821622,0.460749011313,3.0,0.75,0.008,0.0
1454587895794223426,119,1454587895794020283,,119,2.23479061298,-1.54814921469,0.0094429166561,-2.38844278104,-1.56892916086,0.460742838819,3.0,0.75,0.008,0.0
1454587895802298555,120,1454587895802068143,,120,2.23481428027,-1.54788351223,0.00923620304731,-2.38730005735,-1.56894967735,0.460738346437,3.0,0.75,0.008,0.0
1454587895810254453,121,1454587895810080588,,121,2.23483567678,-1.54763215559,0.00902871081929,-2.38614959553,-1.56896977944,0.460735530173,3.0,0.75,0.008,0.0
1454587895818367347,122,1454587895818190522,,122,2.23485479572,-1.54739527817,0.00882073742163,-2.38499183359,-1.56898948085,0.460734384912,3.0,0.75,0.008,0.0
1454587895826448768,123,1454587895826241394,,123,2.2348716319,-1.5471729998,0.00861256544077,-2.38382720518,-1.56900879525,0.460734904441,3.0,0.75,0.008,0.0
1454587895834548089,124,1454587895834324553,,124,2.23488618173,-1.54696542684,0.0084044629925,-2.38265613984,-1.56902773624,0.460737081471,3.0,0.75,0.008,0.0
1454587895842551368,125,1454587895842312827,,125,2.23489559239,-1.54681945406,0.00824858512624,-2.38177387275,-1.56904170507,0.460739797001,3.0,0.75,0.008,0.0
1454587895850742005,126,1454587895850488615,,126,2.23490613711,-1.54663783175,0.00804120740104,-2.38059256454,-1.56906002506,0.460744853971,3.0,0.75,0.008,0.0
1454587895858786304,127,1454587895858518119,,127,2.23491439359,-1.54647113955,0.00783456514408,-2.37940598082,-1.56907800856,0.460751543049,3.0,0.75,0.008,0.0
1454587895866870074,128,1454587895866574270,,128,2.234920364,-1.54631943506,0.00762887573557,-2.37821453731,-1.5690956688,0.460759853125,3.0,0.75,0.008,0.0
1454587895874848004,129,1454587895874587868,,129,2.23492405202,-1.54618276334,0.00742434396909,-2.37701864649,-1.56911301886,0.460769772127,3.0,0.75,0.008,0.0
1454587895882991843,130,1454587895882739916,,130,2.2349254628,-1.54606115709,0.00722116244666,-2.37581871778,-1.56913007166,0.460781287045,3.0,0.75,0.008,0.0
1454587895891050931,131,1454587895890788380,,131,2.23492460295,-1.54595463688,0.00701951197153,-2.37461515769,-1.56914683999,0.460794383954,3.0,0.75,0.008,0.0
1454587895899076436,132,1454587895898838988,,132,2.23492247274,-1.54588465255,0.00686938118425,-2.37371034751,-1.56915923713,0.460805235936,3.0,0.75,0.008,0.0
1454587895907102323,133,1454587895906862439,,133,2.2349176595,-1.54580454656,0.00667081100165,-2.37250140249,-1.56917553782,0.460821065156,3.0,0.75,0.008,0.0
1454587895915195600,134,1454587895914984206,,134,2.23491060114,-1.54573952219,0.00647421140744,-2.37128993028,-1.56919158822,0.46083843355,3.0,0.75,0.008,0.0
1454587895923267512,135,1454587895923035336,,135,2.23490130954,-1.5456895563,0.00627972240044,-2.37007632784,-1.56920740039,0.460857323978,3.0,0.75,0.008,0.0
1454587895931328159,136,1454587895931075746,,136,2.23488979793,-1.54565461459,0.00608747399637,-2.3688609899,-1.56922298618,0.460877718495,3.0,0.75,0.008,0.0
1454587895939417772,137,1454587895939142346,,137,2.23487608088,-1.54563465184,0.00589758659621,-2.36764430909,-1.56923835719,0.460899598382,3.0,0.75,0.008,0.0
1454587895947481631,138,1454587895947267667,,138,2.23486017426,-1.54562961213,0.00571017134864,-2.36642667602,-1.5692535248,0.460922944164,3.0,0.75,0.008,0.0
1454587895955531543,139,1454587895955314141,,139,2.23484209521,-1.545639429,0.0055253305064,-2.36520847943,-1.56926850013,0.460947735635,3.0,0.75,0.008,0.0
1454587895963662432,140,1454587895963410410,,140,2.23482712129,-1.54565649554,0.00538844601019,-2.36429469499,-1.569279612,0.46096726542,3.0,0.75,0.008,0.0
1454587895971631783,141,1454587895971398058,,141,2.23480528553,-1.54569212083,0.00520833091135,-2.3630764422,-1.56929427684,0.46099453612,3.0,0.75,0.008,0.0
1454587895979823116,142,1454587895979539531,,142,2.23478133091,-1.54574236772,0.00503102837445,-2.36185868578,-1.56930877865,0.461023193375,3.0,0.75,0.008,0.0
1454587895987913311,143,1454587895987638822,,143,2.23475527919,-1.54580713239,0.00485661035139,-2.36064180808,-1.56932312754,0.46105321445,3.0,0.75,0.008,0.0
1454587895995975206,144,1454587895995665024,,144,2.23472715325,-1.54588630161,0.00468514149713,-2.35942618989,-1.56933733334,0.461084575992,3.0,0.75,0.008,0.0
1454587896003862450,145,1454587896003647694,,145,2.23469697714,-1.54597975289,0.00451667948519,-2.3582122105,-1.56935140557,0.461117254051,3.0,0.75,0.008,0.0
1454587896012004138,146,1454587896011816541,,146,2.23466477602,-1.5460873548,0.00435127531546,-2.35700024776,-1.56936535348,0.461151224102,3.0,0.75,0.008,0.0
1454587896020005886,147,1454587896019821881,,147,2.23463057612,-1.54620896712,0.00418897361412,-2.35579067809,-1.56937918597,0.461186461069,3.0,0.75,0.008,0.0
1454587896028192178,148,1454587896027953687,,148,2.23459440475,-1.5463444411,0.00402981292564,-2.35458387648,-1.56939291165,0.461222939349,3.0,0.75,0.008,0.0
1454587896036164285,149,1454587896035916077,,149,2.23456599945,-1.54645504912,0.00391252360839,-2.35368081664,-1.56940314082,0.46125109698,3.0,0.75,0.008,0.0
1454587896044251834,150,1454587896043989808,,150,2.23452644679,-1.54661439822,0.00375893515767,-2.35247975736,-1.56941669935,0.461289684431,3.0,0.75,0.008,0.0
1454587896052251179,151,1454587896051992411,,151,2.23448500296,-1.54678715774,0.00360856464852,-2.3512824903,-1.5694301731,0.461329440234,3.0,0.75,0.008,0.0
1454587896060350038,152,1454587896060068238,,152,2.23444169902,-1.54697314894,0.00346143028301,-2.35008938527,-1.56944356945,0.461370336997,3.0,0.75,0.008,0.0
1454587896068305076,153,1454587896068061469,,153,2.23439656691,-1.54717218561,0.00331754545898,-2.34890081067,-1.56945689546,0.461412346901,3.0,0.75,0.008,0.0
1454587896076412481,154,1454587896076188123,,154,2.23434963952,-1.54738407429,0.00317691901588,-2.34771713347,-1.56947015788,0.461455441725,3.0,0.75,0.008,0.0
1454587896084589461,155,1454587896084224032,,155,2.23430095058,-1.54760861453,0.00303955547259,-2.34653871918,-1.56948336307,0.461499592865,3.0,0.75,0.008,0.0
1454587896092419680,156,1454587896092240301,,156,2.23425053468,-1.54784559905,0.00290545525739,-2.34536593181,-1.5694965171,0.461544771356,3.0,0.75,0.008,0.0
1454587896100461103,157,1454587896100289747,,157,2.23419842723,-1.54809481405,0.00277461493,-2.34419913382,-1.56950962569,0.461590947889,3.0,0.75,0.008,0.0
1454587896108707553,158,1454587896108483416,,158,2.23415825831,-1.54828961933,0.0026786198496,-2.343328183,-1.56951943055,0.461626217444,3.0,0.75,0.008,0.0
1454587896116748600,159,1454587896116504767,,159,2.23410327822,-1.54855970418,0.00255346517341,-2.34217273375,-1.56953247234,0.461674069081,3.0,0.75,0.008,0.0
1454587896124826321,160,1454587896124567533,,160,2.23404670793,-1.54884139946,0.00243154269978,-2.34102426221,-1.56954548265,0.461722836574,3.0,0.75,0.008,0.0
1454587896132781554,161,1454587896132560393,,161,2.23398858569,-1.54913446869,0.0023128363282,-2.3398831245,-1.56955846593,0.461772489518,3.0,0.75,0.008,0.0
1454587896140954755,162,1454587896140709750,,162,2.2339289504,-1.5494386699,0.00219732704044,-2.33874967492,-1.5695714263,0.461822997262,3.0,0.75,0.008,0.0
1454587896148964474,163,1454587896148731211,,163,2.23386784162,-1.54975375584,0.00208499307947,-2.3376242658,-1.56958436754,0.46187432893,3.0,0.75,0.008,0.0
1454587896157050750,164,1454587896156827700,,164,2.23380529954,-1.55007947415,0.00197581012134,-2.33650724747,-1.56959729309,0.461926453437,3.0,0.75,0.008,0.0
1454587896165057372,165,1454587896164848069,,165,2.23374136495,-1.55041556764,0.00186975144021,-2.33539896811,-1.56961020608,0.461979339512,3.0,0.75,0.008,0.0
1454587896173309792,166,1454587896173055940,,166,2.23369252502,-1.55067428913,0.00179224038915,-2.33457370178,-1.56961988429,0.462019484939,3.0,0.75,0.008,0.0
1454587896181284014,167,1454587896181051662,,167,2.23362625337,-1.55102790649,0.00169157822055,-2.33348154681,-1.56963278185,0.462073628013,3.0,0.75,0.008,0.0
1454587896189317563,168,1454587896189098602,,168,2.23355870419,-1.55139116848,0.00159395571576,-2.33239907666,-1.56964567378,0.462128445843,3.0,0.75,0.008,0.0
1454587896197300645,169,1454587896197091171,,169,2.23348992027,-1.55176380162,0.00149933849703,-2.33132663071,-1.56965856203,0.46218390662,3.0,0.75,0.008,0.0
1454587896205513012,170,1454587896205284800,,170,2.23341994482,-1.55214552861,0.00140769047839,-2.33026454571,-1.56967144821,0.462239978434,3.0,0.75,0.008,0.0
1454587896213500600,171,1454587896213243777,,171,2.23334882148,-1.55253606851,0.00131897399382,-2.32921315568,-1.56968433365,0.462296629293,3.0,0.75,0.008,0.0
1454587896221497710,172,1454587896221293563,,172,2.23327659432,-1.55293513698,0.00123314991954,-2.32817279179,-1.56969721939,0.46235382714,3.0,0.75,0.008,0.0
1454587896229543307,173,1454587896229321730,,173,2.23320330775,-1.55334244648,0.00115017779074,-2.32714378224,-1.56971010616,0.462411539873,3.0,0.75,0.008,0.0
1454587896237812976,174,1454587896237538773,,174,2.2331476745,-1.55365316211,0.00108979524456,-2.32637967204,-1.56971977221,0.462455142985,3.0,0.75,0.008,0.0
1454587896245843047,175,1454587896245563176,,175,2.23307264187,-1.55407419262,0.00101171301224,-2.32537131291,-1.56973266175,0.462513679434,3.0,0.75,0.008,0.0
1454587896253858675,176,1454587896253619086,,176,2.23299667366,-1.55450265859,0.000936365420686,-2.32437519428,-1.56974555294,0.462572642377,3.0,0.75,0.008,0.0
1454587896261973897,177,1454587896261718793,,177,2.23291981542,-1.55493826232,0.000863707923114,-2.32339163206,-1.56975844551,0.462631999684,3.0,0.75,0.008,0.0
1454587896269997478,178,1454587896269753675,,178,2.23284211295,-1.55538070388,0.000793695113621,-2.32242093857,-1.56977133894,0.462691719256,3.0,0.75,0.008,0.0
1454587896278047099,179,1454587896277815304,,179,2.23276361223,-1.55582968131,0.000726280814561,-2.32146342239,-1.56978423245,0.462751769043,3.0,0.75,0.008,0.0
1454587896286128634,180,1454587896285899370,,180,2.23268435943,-1.55628489084,0.000661418159418,-2.32051938825,-1.56979712503,0.46281211706,3.0,0.75,0.008,0.0
1454587896294177694,181,1454587896293936963,,181,2.23260440085,-1.55674602706,0.000599059671321,-2.31958913688,-1.56981001546,0.462872731401,3.0,0.75,0.008,0.0
1454587896302261890,182,1454587896302030706,,182,2.23254399669,-1.55709558409,0.000553905300271,-2.31890067187,-1.569819681,0.462918347792,3.0,0.75,0.008,0.0
1454587896310339761,183,1454587896310088942,,183,2.23246291481,-1.55756635295,0.000495813290834,-2.31799525144,-1.56983256403,0.462979351722,3.0,0.75,0.008,0.0
1454587896318387057,184,1454587896318149138,,184,2.23238125504,-1.55804220187,0.000440092332575,-2.31710441903,-1.56984544041,0.463040534772,3.0,0.75,0.008,0.0
1454587896326501067,185,1454587896326242605,,185,2.23229906401,-1.5585228211,0.00038669328966,-2.31622845913,-1.56985830813,0.463101865471,3.0,0.75,0.008,0.0
1454587896334480140,186,1454587896334261891,,186,2.23221638833,-1.55900790016,0.000335566734528,-2.31536765158,-1.56987116501,0.4631633125,3.0,0.75,0.008,0.0
1454587896342600460,187,1454587896342353018,,187,2.23213327463,-1.55949712808,0.000286663004555,-2.31452227142,-1.56988400868,0.463224844705,3.0,0.75,0.008,0.0
1454587896350628701,188,1454587896350382247,,188,2.23204976947,-1.55999019357,0.000239932255436,-2.31369258876,-1.56989683662,0.463286431114,3.0,0.75,0.008,0.0
1454587896358656310,189,1454587896358478600,,189,2.23196591937,-1.56048678516,0.000195324511435,-2.31287886863,-1.56990964615,0.463348040945,3.0,0.75,0.008,0.0
1454587896366718268,190,1454587896366531388,,190,2.23188177072,-1.56098659146,0.00015278971265,-2.31208137086,-1.56992243445,0.463409643625,3.0,0.75,0.008,0.0
1454587896374821605,191,1454587896374624754,,191,2.23181849116,-1.56136336863,0.000122218846088,-2.31149404674,-1.56993200998,0.463455822677,3.0,0.75,0.008,0.0
1454587896382810878,192,1454587896382606782,,192,2.23173393135,-1.5618680521,8.31911488102e-05,-2.31072554714,-1.56994475395,0.463517339952,3.0,0.75,0.008,0.0
1454587896390917359,193,1454587896390738434,,193,2.23164919991,-1.56237509558,4.60986510114e-05,-2.30997395646,-1.56995746828,0.463578767181,3.0,0.75,0.008,0.0
1454587896398968648,194,1454587896398778425,,194,2.23156434267,-1.56288418942,1.08913510611e-05,-2.30923951381,-1.56997014971,0.463640074689,3.0,0.75,0.008,0.0
1454587896407055453,195,1454587896406855647,,195,2.23147940521,-1.56339502484,-2.24806489466e-05,-2.30852245243,-1.56998279488,0.463701233067,3.0,0.75,0.008,0.0
1454587896415028489,196,1454587896414854361,,196,2.23139443288,-1.5639072941,-5.40671105024e-05,-2.30782299964,-1.56999540034,0.463762213192,3.0,0.75,0.008,0.0
1454587896423285282,197,1454587896423035159,,197,2.23130947078,-1.56442069073,-8.39176281037e-05,-2.30714137664,-1.57000796259,0.463822986233,3.0,0.75,0.008,0.0
1454587896431375933,198,1454587896431115436,,198,2.23122456369,-1.56493490961,-0.000112081600673,-2.30647779843,-1.57002047802,0.463883523664,3.0,0.75,0.008,0.0
1454587896439456766,199,1454587896439194976,,199,2.23116094623,-1.5653209307,-0.000132127376824,-2.30599208243,-1.57002983171,0.463928755138,3.0,0.75,0.008,0.0
1454587896447455404,200,1454587896447180589,,200,2.23107624221,-1.56583585913,-0.000157458079099,-2.30536058083,-1.57004225647,0.463988812578,3.0,0.75,0.008,0.0
1454587896455485460,201,1454587896455287574,,201,2.23099171464,-1.56635077927,-0.0001812368633,-2.30474768226,-1.57005462434,0.464048557637,3.0,0.75,0.008,0.0
1454587896463523779,202,1454587896463341862,,202,2.23090740701,-1.5668653927,-0.000203512171333,-2.30415357739,-1.57006693159,0.464107963042,3.0,0.75,0.008,0.0
1454587896471656333,203,1454587896471426447,,203,2.23082336238,-1.56737940311,-0.000224332137724,-2.30357845011,-1.57007917446,0.464167001878,3.0,0.75,0.008,0.0
1454587896479654174,204,1454587896479446821,,204,2.23073962337,-1.56789251653,-0.000243744570478,-2.30302247746,-1.57009134921,0.464225647599,3.0,0.75,0.008,0.0
1454587896487865549,205,1454587896487636635,,205,2.23065623219,-1.56840444144,-0.000261796933246,-2.30248582951,-1.57010345208,0.46428387404,3.0,0.75,0.008,0.0
1454587896495888689,206,1454587896495644520,,206,2.23057323054,-1.56891488891,-0.000278536328736,-2.30196866927,-1.57011547934,0.464341655429,3.0,0.75,0.008,0.0
1454587896503961789,207,1454587896503710203,,207,2.23049065963,-1.56942357278,-0.000294009483265,-2.30147115259,-1.57012742725,0.46439896639,3.0,0.75,0.008,0.0
1454587896512025463,208,1454587896511758872,,208,2.23040856017,-1.56993020978,-0.000308262732387,-2.30099342806,-1.57013929212,0.464455781962,3.0,0.75,0.008,0.0
1454587896520180177,209,1454587896519900130,,209,2.23034731915,-1.57030867556,-0.000318179752469,-2.30064820851,-1.57014813408,0.464498053761,3.0,0.75,0.008,0.0
1454587896528206179,210,1454587896527941622,,210,2.23026614105,-1.57081105811,-0.000330408439417,-2.30020545566,-1.57015984487,0.464553943601,3.0,0.75,0.008,0.0
1454587896536263061,211,1454587896535977191,,211,2.23018554352,-1.57131063083,-0.000341542522889,-2.29978286548,-1.57017146269,0.464609271592,3.0,0.75,0.008,0.0
1454587896544197707,212,1454587896543970613,,212,2.23010556516,-1.57180712256,-0.000351626761217,-2.29938055862,-1.570182984,0.464664014393,3.0,0.75,0.008,0.0
1454587896552341030,213,1454587896552071146,,213,2.23002624394,-1.57230026562,-0.000360705466102,-2.29899864807,-1.57019440538,0.464718149111,3.0,0.75,0.008,0.0
1454587896560371717,214,1454587896560142563,,214,2.22994761724,-1.57278979602,-0.000368822493035,-2.29863723913,-1.57020572343,0.464771653318,3.0,0.75,0.008,0.0
1454587896568505417,215,1454587896568234908,,215,2.22986972177,-1.57327545357,-0.000376021232357,-2.29829642932,-1.57021693487,0.464824505051,3.0,0.75,0.008,0.0
1454587896576468383,216,1454587896576249593,,216,2.22981180177,-1.57363700085,-0.000380843495779,-2.29805439439,-1.57022527155,0.464863702724,3.0,0.75,0.008,0.0
1454587896584646070,217,1454587896584410155,,217,2.22973527233,-1.57411526661,-0.000386538211078,-2.29774984412,-1.57023628875,0.464915361224,3.0,0.75,0.008,0.0
1454587896592646226,218,1454587896592446975,,218,2.22965957167,-1.57458896447,-0.000391431497261,-2.29746612061,-1.57024719073,0.464966309338,3.0,0.75,0.008,0.0
1454587896600741684,219,1454587896600511623,,219,2.22958473393,-1.57505784947,-0.000395564929902,-2.29720329171,-1.57025797455,0.46501652693,3.0,0.75,0.008,0.0
1454587896608732439,220,1454587896608509399,,220,2.22951079257,-1.57552168102,-0.000398979583951,-2.29696141728,-1.57026863738,0.465065994368,3.0,0.75,0.008,0.0
1454587896616903050,221,1454587896616688194,,221,2.2294377803,-1.57598022295,-0.000401716027457,-2.29674054909,-1.5702791765,0.465114692529,3.0,0.75,0.008,0.0
1454587896625000266,222,1454587896624743748,,222,2.22936572908,-1.57643324363,-0.000403814315613,-2.29654073083,-1.57028958931,0.465162602806,3.0,0.75,0.008,0.0
1454587896633099191,223,1454587896632840894,,223,2.22929467011,-1.57688051611,-0.000405313985091,-2.29636199804,-1.57029987332,0.465209707117,3.0,0.75,0.008,0.0
1454587896641116447,224,1454587896640870534,,224,2.22922463382,-1.57732181815,-0.000406254048636,-2.29620437813,-1.57031002617,0.465255987905,3.0,0.75,0.008,0.0
1454587896649250774,225,1454587896649016643,,225,2.22915564985,-1.57775693236,-0.000406672989887,-2.29606789031,-1.57032004565,0.465301428147,3.0,0.75,0.008,0.0
1454587896657327202,226,1454587896657089413,,226,2.22908774704,-1.57818564629,-0.000406608758399,-2.2959525456,-1.57032992965,0.465346011361,3.0,0.75,0.008,0.0
1454587896665459394,227,1454587896665177267,,227,2.22903754635,-1.57850285658,-0.000406266027924,-2.29587991425,-1.57033725256,0.465378876737,3.0,0.75,0.008,0.0
1454587896673363299,228,1454587896673139251,,228,2.22897160255,-1.57891987392,-0.000405445936772,-2.29580157183,-1.57034689485,0.465421922126,3.0,0.75,0.008,0.0
1454587896681519902,229,1454587896681300445,,229,2.22890681503,-1.57932993284,-0.000404244241626,-2.29574436052,-1.57035639661,0.465464067977,3.0,0.75,0.008,0.0
1454587896689560041,230,1454587896689349224,,230,2.22884320954,-1.57973284012,-0.000402696847637,-2.29570826051,-1.57036575626,0.465505299869,3.0,0.75,0.008,0.0
1454587896697602110,231,1454587896697392536,,231,2.228780811,-1.58012840784,-0.000400839104259,-2.29569324383,-1.57037497237,0.465545603944,3.0,0.75,0.008,0.0
1454587896705624252,232,1454587896705416708,,232,2.22871964344,-1.58051645349,-0.000398705801007,-2.29569927429,-1.57038404366,0.465584966905,3.0,0.75,0.008,0.0
1454587896713911933,233,1454587896713647352,,233,2.22865973008,-1.58089679999,-0.000396331163273,-2.29572630749,-1.57039296898,0.465623376027,3.0,0.75,0.008,0.0
1454587896721924308,234,1454587896721659778,,234,2.22860109321,-1.58126927581,-0.000393748848213,-2.29577429089,-1.57040174733,0.465660819153,3.0,0.75,0.008,0.0
1454587896729939505,235,1454587896729703159,,235,2.2285579662,-1.58154336749,-0.000391695747908,-2.29582399079,-1.57040823413,0.465688260574,3.0,0.75,0.008,0.0
1454587896737977294,236,1454587896737719519,,236,2.22850161428,-1.58190167364,-0.000388829261383,-2.29590848609,-1.57041675332,0.465723985685,3.0,0.75,0.008,0.0
1454587896746112954,237,1454587896745848162,,237,2.2284465957,-1.5822516663,-0.000385844691626,-2.29601374515,-1.57042512355,0.46575871434,3.0,0.75,0.008,0.0
1454587896754066112,238,1454587896753845097,,238,2.22839292944,-1.58259319514,-0.000382773528924,-2.29613968501,-1.57043334437,0.465792436549,3.0,0.75,0.008,0.0
1454587896762214436,239,1454587896761958245,,239,2.22834063363,-1.58292611561,-0.00037964667627,-2.29628621472,-1.57044141546,0.465825142905,3.0,0.75,0.008,0.0
1454587896770207266,240,1454587896769945396,,240,2.22828972544,-1.58325028898,-0.000376494445417,-2.29645323534,-1.57044933665,0.465856824587,3.0,0.75,0.008,0.0
1454587896778379681,241,1454587896778101649,,241,2.22824022117,-1.5835655824,-0.000373346552947,-2.29664064,-1.57045710793,0.46588747336,3.0,0.75,0.008,0.0
1454587896786170228,242,1454587896786051705,,242,2.2281921362,-1.58387186892,-0.00037023211635,-2.29684831397,-1.5704647294,0.465917081575,3.0,0.75,0.008,0.0
1454587896794257489,243,1454587896794140516,,243,2.22814548501,-1.58416902751,-0.000367179650115,-2.29707613469,-1.57047220131,0.465945642174,3.0,0.75,0.008,0.0
1454587896802498881,244,1454587896802240098,,244,2.22811144571,-1.58438583683,-0.000364947779581,-2.29726014344,-1.57047770732,0.46596637121,3.0,0.75,0.008,0.0
1454587896810720173,245,1454587896810466858,,245,2.22806733568,-1.58466674835,-0.000362070546861,-2.29752290281,-1.5704849185,0.465993083268,3.0,0.75,0.008,0.0
1454587896818722385,246,1454587896818481363,,246,2.2280246945,-1.58493823003,-0.000359330558391,-2.29780543214,-1.57049198149,0.466018731337,3.0,0.75,0.008,0.0
1454587896826720282,247,1454587896826503436,,247,2.2279835332,-1.58520018338,-0.000356754032847,-2.29810758018,-1.57049889703,0.46604331057,3.0,0.75,0.008,0.0
1454587896834760030,248,1454587896834542423,,248,2.22794386191,-1.58545251595,-0.000354366567557,-2.29842918815,-1.57050566597,0.466066816709,3.0,0.75,0.008,0.0
1454587896842944949,249,1454587896842721833,,249,2.22790568982,-1.58569514139,-0.000352193134691,-2.29877008992,-1.57051228931,0.466089246085,3.0,0.75,0.008,0.0
1454587896850912172,250,1454587896850706393,,250,2.22786902523,-1.5859279794,-0.000350258077504,-2.299130112,-1.57051876813,0.466110595619,3.0,0.75,0.008,0.0
1454587896859000124,251,1454587896858788094,,251,2.22783387552,-1.5861509558,-0.000348585106599,-2.29950907369,-1.57052510365,0.466130862816,3.0,0.75,0.008,0.0
1454587896867008351,252,1454587896866830683,,252,2.22780024715,-1.58636400248,-0.000347197296248,-2.29990678717,-1.57053129717,0.466150045771,3.0,0.75,0.008,0.0
1454587896875224495,253,1454587896875002400,,253,2.22777602763,-1.58651723359,-0.000346357094896,-2.30021726116,-1.57053584999,0.466163720635,3.0,0.75,0.008,0.0
1454587896883196916,254,1454587896883012594,,254,2.22774507443,-1.58671275773,-0.000345521911062,-2.30064731716,-1.57054179851,0.466181003332,3.0,0.75,0.008,0.0
1454587896891220740,255,1454587896891049981,,255,2.22771565569,-1.5868981963,-0.000345032031492,-2.3010955724,-1.57054760919,0.466197199549,3.0,0.75,0.008,0.0
1454587896899311396,256,1454587896899103025,,256,2.22768777447,-1.58707350402,-0.000344908112366,-2.30156181319,-1.57055328371,0.466212309559,3.0,0.75,0.008,0.0
1454587896907537469,257,1454587896907282065,,257,2.22766143295,-1.5872386417,-0.000345170156873,-2.30204581918,-1.57055882383,0.466226334214,3.0,0.75,0.008,0.0
1454587896915592503,258,1454587896915365444,,258,2.22763663244,-1.58739357619,-0.000345837511927,-2.30254736349,-1.5705642314,0.466239274935,3.0,0.75,0.008,0.0
1454587896923704273,259,1454587896923442884,,259,2.22761337334,-1.58753828039,-0.000346928864995,-2.30306621282,-1.57056950836,0.466251133716,3.0,0.75,0.008,0.0
1454587896931797294,260,1454587896931496444,,260,2.22759694032,-1.58764008199,-0.000348036496619,-2.30346656235,-1.57057338157,0.466259319297,3.0,0.75,0.008,0.0
1454587896939865303,261,1454587896939602005,,261,2.22757637704,-1.58776683601,-0.000349912818528,-2.30401511527,-1.57057843481,0.466269291182,3.0,0.75,0.008,0.0
1454587896947931452,262,1454587896947691232,,262,2.22755735178,-1.58788331611,-0.000352261104071,-2.30458029956,-1.57058336309,0.46627818952,3.0,0.75,0.008,0.0
1454587896955976312,263,1454587896955728355,,263,2.22753986171,-1.58798951762,-0.000355097541451,-2.30516185899,-1.57058816859,0.466286018408,3.0,0.75,0.008,0.0
1454587896964003099,264,1454587896963824514,,264,2.22752390312,-1.58808544172,-0.00035843764598,-2.30575953147,-1.57059285352,0.466292782499,3.0,0.75,0.008,0.0
1454587896972074562,265,1454587896971908278,,265,2.22750947147,-1.58817109552,-0.000362296257658,-2.30637304924,-1.57059742017,0.46629848699,3.0,0.75,0.008,0.0
1454587896980112028,266,1454587896979923947,,266,2.22749656138,-1.58824649191,-0.000366687538925,-2.30700213899,-1.57060187084,0.466303137622,3.0,0.75,0.008,0.0
1454587896988190321,267,1454587896988003706,,267,2.22748516663,-1.58831164959,-0.000371624972575,-2.307646522,-1.57060620789,0.466306740671,3.0,0.75,0.008,0.0
1454587896996201577,268,1454587896996024228,,268,2.22747528022,-1.58836659301,-0.000377121359865,-2.30830591426,-1.57061043369,0.466309302948,3.0,0.75,0.008,0.0
1454587897004316357,269,1454587897004141455,,269,2.2274668943,-1.58841135228,-0.000383188818814,-2.30898002667,-1.57061455066,0.466310831787,3.0,0.75,0.008,0.0
1454587897012387913,270,1454587897012195148,,270,2.22746158439,-1.58843825971,-0.000388121082418,-2.30949509433,-1.57061756844,0.46631130493,3.0,0.75,0.008,0.0
1454587897020490356,271,1454587897020295053,,271,2.2274558031,-1.58846528618,-0.000395215015465,-2.3101942564,-1.57062150082,0.466311044467,3.0,0.75,0.008,0.0
1454587897028554425,272,1454587897028353612,,272,2.22745149668,-1.5884822403,-0.000402909810316,-2.31090731831,-1.57062533109,0.466309773405,3.0,0.75,0.008,0.0
1454587897036704291,273,1454587897036507699,,273,2.22744865437,-1.58848917306,-0.000411215011282,-2.31163397303,-1.57062906173,0.466307500999,3.0,0.75,0.008,0.0
1454587897044736408,274,1454587897044551862,,274,2.22744726464,-1.58848614089,-0.000420139474296,-2.31237390914,-1.5706326952,0.466304236998,3.0,0.75,0.008,0.0
1454587897052784662,275,1454587897052604720,,275,2.22744731522,-1.58847320555,-0.000429691366506,-2.31312681093,-1.57063623396,0.466299991643,3.0,0.75,0.008,0.0
1454587897060815678,276,1454587897060639758,,276,2.2274487931,-1.58845043412,-0.000439878166125,-2.31389235862,-1.57063968048,0.466294775656,3.0,0.75,0.008,0.0
1454587897068948511,277,1454587897068775448,,277,2.22745168456,-1.5884178989,-0.000450706662544,-2.31467022848,-1.57064303722,0.466288600234,3.0,0.75,0.008,0.0
1454587897076976961,278,1454587897076791780,,278,2.22745597517,-1.58837567733,-0.000462182956713,-2.31546009299,-1.5706463066,0.466281477038,3.0,0.75,0.008,0.0
1454587897084993803,279,1454587897084808529,,279,2.2274616498,-1.58832385191,-0.000474312461802,-2.31626162102,-1.57064949105,0.46627341819,3.0,0.75,0.008,0.0
1454587897092992362,280,1454587897092797696,,280,2.22746869264,-1.58826251018,-0.000487099904144,-2.317074478,-1.57065259296,0.466264436263,3.0,0.75,0.008,0.0
1454587897101122527,281,1454587897100929995,,281,2.22747486276,-1.5882103142,-0.000497124713714,-2.31769135221,-1.57065486666,0.466257101858,3.0,0.75,0.008,0.0
1454587897109178413,282,1454587897108973536,,282,2.22748425992,-1.58813254422,-0.000511072857697,-2.31852321994,-1.5706578298,0.466246536115,3.0,0.75,0.008,0.0
1454587897117176530,283,1454587897117004596,,283,2.2274949784,-1.58804552368,-0.000525688406023,-2.31936548005,-1.57066071683,0.466235084117,3.0,0.75,0.008,0.0
1454587897125249392,284,1454587897125035255,,284,2.22750699996,-1.58794935811,-0.000540973522861,-2.32021778647,-1.57066353004,0.466222760047,3.0,0.75,0.008,0.0
1454587897133331069,285,1454587897133169745,,285,2.22752030575,-1.58784415763,-0.00055692969412,-2.32107979048,-1.57066627163,0.466209578497,3.0,0.75,0.008,0.0
1454587897141431213,286,1454587897141229908,,286,2.22753487631,-1.58773003687,-0.000573557730151,-2.32195114088,-1.57066894382,0.466195554458,3.0,0.75,0.008,0.0
1454587897149459585,287,1454587897149271689,,287,2.22755069159,-1.58760711487,-0.000590857768766,-2.32283148412,-1.57067154873,0.466180703311,3.0,0.75,0.008,0.0
1454587897157480051,288,1454587897157304562,,288,2.22756773099,-1.58747551502,-0.000608829278596,-2.32372046451,-1.57067408846,0.466165040813,3.0,0.75,0.008,0.0
1454587897165647167,289,1454587897165456030,,289,2.22758597334,-1.58733536489,-0.000627471062766,-2.32461772439,-1.57067656505,0.466148583093,3.0,0.75,0.008,0.0
1454587897173660988,290,1454587897173487940,,290,2.22760539693,-1.58718679621,-0.00064678126291,-2.32552290428,-1.57067898049,0.46613134664,3.0,0.75,0.008,0.0
1454587897181748318,291,1454587897181539536,,291,2.22762072647,-1.58706992654,-0.000661701072343,-2.32620676953,-1.57068075309,0.46611791837,3.0,0.75,0.008,0.0
1454587897189786803,292,1454587897189581762,,292,2.22764216346,-1.58690695442,-0.000682174554823,-2.32712493962,-1.5706830661,0.466099359846,3.0,0.75,0.008,0.0
1454587897197900659,293,1454587897197717143,,293,2.22766471936,-1.58673594645,-0.000703307968672,-2.32805003323,-1.5706853231,0.466080069693,3.0,0.75,0.008,0.0
1454587897205959614,294,1454587897205770705,,294,2.22768837061,-1.58655704893,-0.000725097016433,-2.32898168564,-1.57068752587,0.466060065649,3.0,0.75,0.008,0.0
1454587897214016690,295,1454587897213819346,,295,2.22771309317,-1.58637041179,-0.000747536762836,-2.32991953111,-1.57068967609,0.466039365761,3.0,0.75,0.008,0.0
1454587897222072960,296,1454587897221830846,,296,2.22773886255,-1.58617618851,-0.000770621640767,-2.33086320312,-1.5706917754,0.466017988371,3.0,0.75,0.008,0.0
1454587897230310375,297,1454587897230021127,,297,2.22776565385,-1.58597453598,-0.000794345457571,-2.33181233448,-1.57069382536,0.465995952107,3.0,0.75,0.008,0.0
1454587897238275691,298,1454587897238023975,,298,2.22779344174,-1.58576561441,-0.000818701401705,-2.33276655751,-1.57069582746,0.465973275871,3.0,0.75,0.008,0.0
1454587897246291590,299,1454587897246073230,,299,2.22782220053,-1.58554958721,-0.000843682049722,-2.33372550424,-1.57069778314,0.465949978824,3.0,0.75,0.008,0.0
1454587897254328106,300,1454587897254083962,,300,2.22784439108,-1.58538300377,-0.000862822690819,-2.33444759279,-1.57069922026,0.465932110301,3.0,0.75,0.008,0.0
1454587897262492913,301,1454587897262257419,,301,2.22787478593,-1.58515494414,-0.000888876893835,-2.33541392026,-1.57070109793,0.465907773691,3.0,0.75,0.008,0.0
1454587897270462344,302,1454587897270245904,,302,2.22790607909,-1.58492024382,-0.000915532292167,-2.33638395932,-1.57070293275,0.465882870219,3.0,0.75,0.008,0.0
1454587897278542200,303,1454587897278323865,,303,2.22793824352,-1.58467907724,-0.000942779235745,-2.33735734237,-1.5707047259,0.465857419924,3.0,0.75,0.008,0.0
1454587897286566988,304,1454587897286359514,,304,2.22797125189,-1.58443162145,-0.000970607500385,-2.33833370228,-1.57070647848,0.465831443046,3.0,0.75,0.008,0.0
1454587897294772961,305,1454587897294501489,,305,2.22800507656,-1.58417805606,-0.000999006296691,-2.33931267261,-1.57070819151,0.465804960018,3.0,0.75,0.008,0.0
1454587897302770572,306,1454587897302537082,,306,2.22803968964,-1.5839185631,-0.00102796427929,-2.34029388773,-1.57070986596,0.465777991452,3.0,0.75,0.008,0.0
1454587897310899992,307,1454587897310627157,,307,2.22807506297,-1.58365332689,-0.00105746955637,-2.34127698303,-1.57071150274,0.465750558126,3.0,0.75,0.008,0.0
1454587897318941830,308,1454587897318697240,,308,2.2281020748,-1.58345074285,-0.00107995021961,-2.34201531965,-1.5707127061,0.465729690721,3.0,0.75,0.008,0.0
1454587897327070178,309,1454587897326835692,,309,2.22813871008,-1.58317590601,-0.00111038303915,-2.3430008314,-1.5707142789,0.465701494521,3.0,0.75,0.008,0.0
1454587897335185917,310,1454587897334934331,,310,2.22817602699,-1.58289584375,-0.00114132771469,-2.34398722703,-1.57071581615,0.465672891459,3.0,0.75,0.008,0.0
1454587897343205945,311,1454587897342978465,,311,2.22821399656,-1.58261074798,-0.00117277039558,-2.34497414706,-1.57071731851,0.465643902823,3.0,0.75,0.008,0.0
1454587897351235760,312,1454587897351010665,,312,2.22825258966,-1.58232081232,-0.00120469673424,-2.34596123379,-1.57071878656,0.46561455001,3.0,0.75,0.008,0.0
1454587897359362545,313,1454587897359127702,,313,2.22829177699,-1.58202623203,-0.00123709189746,-2.34694813139,-1.57072022084,0.465584854506,3.0,0.75,0.008,0.0
1454587897367444561,314,1454587897367191501,,314,2.22833152914,-1.58172720386,-0.00126994057792,-2.34793448614,-1.57072162183,0.465554837881,3.0,0.75,0.008,0.0
1454587897375454986,315,1454587897375250549,,315,2.22837181656,-1.58142392591,-0.00130322700604,-2.34891994652,-1.57072298994,0.465524521768,3.0,0.75,0.008,0.0
1454587897383437270,316,1454587897383267891,,316,2.22841260961,-1.58111659754,-0.00133693496203,-2.34990416335,-1.57072432552,0.465493927856,3.0,0.75,0.008,0.0
1454587897391574169,317,1454587897391377320,,317,2.22845387855,-1.58080541924,-0.00137104778825,-2.35088679002,-1.5707256289,0.465463077872,3.0,0.75,0.008,0.0
1454587897399660322,318,1454587897399434260,,318,2.22848512464,-1.58056963016,-0.00139688784321,-2.35162250943,-1.57072658545,0.465439785425,3.0,0.75,0.008,0.0
1454587897407678765,319,1454587897407489833,,319,2.22852715468,-1.58025219983,-0.00143166783804,-2.35260152728,-1.57072783306,0.465408539677,3.0,0.75,0.008,0.0
1454587897415740739,320,1454587897415551534,,320,2.22856957859,-1.5799314757,-0.00146680474058,-2.35357801586,-1.57072904905,0.465377097714,3.0,0.75,0.008,0.0
1454587897424045735,321,1454587897423749290,,321,2.22861236647,-1.57960766138,-0.00150228036529,-2.35455163925,-1.57073023356,0.4653454813,3.0,0.75,0.008,0.0
1454587897432056627,322,1454587897431807120,,322,2.22865548846,-1.57928096104,-0.00153807615066,-2.35552206475,-1.57073138667,0.465313712178,3.0,0.75,0.008,0.0
1454587897440128033,323,1454587897439890960,,323,2.22869891467,-1.57895157928,-0.00157417317285,-2.35648896295,-1.57073250845,0.465281812058,3.0,0.75,0.008,0.0
1454587897448163241,324,1454587897447914146,,324,2.22874261528,-1.57861972099,-0.00161055215954,-2.35745200795,-1.5707335989,0.4652498026,3.0,0.75,0.008,0.0
1454587897456292140,325,1454587897456056345,,325,2.22878656052,-1.57828559127,-0.00164719350392,-2.3584108774,-1.57073465801,0.465217705407,3.0,0.75,0.008,0.0
1454587897464322767,326,1454587897464086973,,326,2.2288196621,-1.57803362676,-0.00167483470875,-2.3591270975,-1.57073543175,0.465193587889,3.0,0.75,0.008,0.0
1454587897472386200,327,1454587897472133041,,327,2.22886396398,-1.57769601567,-0.00171188704523,-2.36007789545,-1.57073643587,0.465161388911,3.0,0.75,0.008,0.0
1454587897480384849,328,1454587897480146714,,328,2.22890842898,-1.57735669713,-0.00174914621292,-2.36102365105,-1.57073740844,0.465129161188,3.0,0.75,0.008,0.0
1454587897488539703,329,1454587897488293600,,329,2.22895302766,-1.57701587589,-0.00178659147882,-2.3619640566,-1.57073834935,0.465096925985,3.0,0.75,0.008,0.0
1454587897496549773,330,1454587897496323786,,330,2.22899773073,-1.57667375632,-0.0018242018444,-2.36289880857,-1.57073925845,0.465064704444,3.0,0.75,0.008,0.0
1454587897504583467,331,1454587897504379927,,331,2.229042509,-1.5763305423,-0.00186195606056,-2.36382760775,-1.57074013559,0.465032517578,3.0,0.75,0.008,0.0
1454587897512665583,332,1454587897512426521,,332,2.22908733348,-1.57598643711,-0.00189983264266,-2.36475015933,-1.57074098059,0.465000386254,3.0,0.75,0.008,0.0
1454587897520762930,333,1454587897520546921,,333,2.22913217534,-1.57564164331,-0.00193780988568,-2.36566617303,-1.57074179327,0.464968331183,3.0,0.75,0.008,0.0
1454587897528817778,334,1454587897528587045,,334,2.22917700594,-1.57529636266,-0.00197586587946,-2.36657536322,-1.57074257344,0.464936372909,3.0,0.75,0.008,0.0
1454587897536853803,335,1454587897536641703,,335,2.22922179687,-1.57495079595,-0.00201397852406,-2.367477449,-1.5707433209,0.464904531793,3.0,0.75,0.008,0.0
1454587897544907809,336,1454587897544678955,,336,2.22926651992,-1.57460514293,-0.00205212554517,-2.36837215431,-1.57074403544,0.464872828007,3.0,0.75,0.008,0.0
1454587897553138363,337,1454587897552894515,,337,2.22930000083,-1.57434596604,-0.00208074488116,-2.36903817658,-1.57074454962,0.46484915231,3.0,0.75,0.008,0.0
1454587897561142394,338,1454587897560875898,,338,2.22934453795,-1.57400063912,-0.00211889799447,-2.36991931674,-1.57074520607,0.464817736771,3.0,0.75,0.008,0.0
1454587897569213971,339,1454587897568949319,,339,2.2293889309,-1.57365576893,-0.00215702345748,-2.37079234305,-1.57074582906,0.46478651295,3.0,0.75,0.008,0.0
1454587897577147549,340,1454587897576939634,,340,2.22943315245,-1.57331155034,-0.00219509848034,-2.37165699848,-1.57074641839,0.464755500201,3.0,0.75,0.008,0.0
1454587897585291648,341,1454587897585077208,,341,2.22947717566,-1.57296817668,-0.00223310017279,-2.37251303128,-1.57074697388,0.46472471763,3.0,0.75,0.008,0.0
1454587897593265563,342,1454587897593079264,,342,2.22952097387,-1.5726258396,-0.00227100555987,-2.37336019507,-1.57074749536,0.464694184089,3.0,0.75,0.008,0.0
1454587897601358839,343,1454587897601181756,,343,2.22956452078,-1.57228472901,-0.00230879159754,-2.37419824893,-1.57074798268,0.464663918164,3.0,0.75,0.008,0.0
1454587897609434640,344,1454587897609244910,,344,2.22960779039,-1.57194503296,-0.00234643518833,-2.37502695746,-1.57074843569,0.464633938168,3.0,0.75,0.008,0.0
1454587897617645393,345,1454587897617418640,,345,2.22965075706,-1.57160693756,-0.00238391319705,-2.37584609087,-1.57074885428,0.464604262126,3.0,0.75,0.008,0.0
1454587897625792863,346,1454587897625521867,,346,2.2296933955,-1.57127062686,-0.00242120246635,-2.37665542504,-1.57074923835,0.464574907767,3.0,0.75,0.008,0.0
1454587897633870083,347,1454587897633619499,,347,2.22972514392,-1.57101967456,-0.00244903162336,-2.37725586335,-1.5707495037,0.464553113597,3.0,0.75,0.008,0.0
1454587897641937997,348,1454587897641679109,,348,2.22976714822,-1.57068692347,-0.00248593486538,-2.3780475269,-1.57074982719,0.464524363927,3.0,0.75,0.008,0.0
1454587897650118781,349,1454587897649854420,,349,2.22980875669,-1.57035645193,-0.00252258569824,-2.37882880472,-1.570750116,0.464495983099,3.0,0.75,0.008,0.0
1454587897658113610,350,1454587897657865547,,350,2.22984994548,-1.57002843547,-0.00255896101999,-2.37959949456,-1.57075037014,0.464467987655,3.0,0.75,0.008,0.0
1454587897666138098,351,1454587897665912923,,351,2.22989069117,-1.5697030472,-0.00259503778014,-2.38035940014,-1.57075058963,0.464440393796,3.0,0.75,0.008,0.0
1454587897674216621,352,1454587897673965326,,352,2.22993097075,-1.56938045762,-0.00263079299486,-2.3811083312,-1.57075077453,0.46441321738,3.0,0.75,0.008,0.0
1454587897682380682,353,1454587897682141013,,353,2.22997076165,-1.56906083462,-0.00266620376227,-2.38184610357,-1.57075092493,0.464386473906,3.0,0.75,0.008,0.0
1454587897690420109,354,1454587897690183854,,354,2.23001004175,-1.56874434334,-0.00270124727745,-2.38257253918,-1.57075104096,0.464360178515,3.0,0.75,0.008,0.0
1454587897698484915,355,1454587897698242380,,355,2.23004878937,-1.56843114613,-0.00273590084748,-2.38328746613,-1.57075112277,0.464334345976,3.0,0.75,0.008,0.0
1454587897706537403,356,1454587897706283722,,356,2.23007748787,-1.56819850599,-0.00276162154338,-2.38381600887,-1.5707511618,0.464315283991,3.0,0.75,0.008,0.0
1454587897714686203,357,1454587897714445593,,357,2.23011525291,-1.56789145534,-0.00279553849434,-2.38451040069,-1.57075118423,0.464290295845,3.0,0.75,0.008,0.0
1454587897722682136,358,1454587897722447023,,358,2.23015242829,-1.56758813013,-0.00282900379284,-2.38519284318,-1.57075117309,0.464265809203,3.0,0.75,0.008,0.0
1454587897730722195,359,1454587897730488144,,359,2.23018899414,-1.56728868153,-0.00286199529717,-2.38586318786,-1.57075112867,0.464241837387,3.0,0.75,0.008,0.0
1454587897738746031,360,1454587897738512848,,360,2.23022493107,-1.56699325754,-0.00289449104699,-2.38652129256,-1.57075105132,0.464218393315,3.0,0.75,0.008,0.0
1454587897746917318,361,1454587897746684621,,361,2.23026022019,-1.56670200296,-0.00292646927749,-2.38716702145,-1.57075094141,0.464195489502,3.0,0.75,0.008,0.0
1454587897754841948,362,1454587897754663462,,362,2.23029484314,-1.5664150593,-0.00295790843344,-2.38780024507,-1.57075079938,0.464173138046,3.0,0.75,0.008,0.0
1454587897763054608,363,1454587897762782119,,363,2.23032878207,-1.56613256473,-0.00298878718299,-2.38842084031,-1.57075062568,0.464151350629,3.0,0.75,0.008,0.0
1454587897771005777,364,1454587897770804332,,364,2.23036201966,-1.56585465402,-0.00301908443133,-2.38902869047,-1.57075042082,0.46413013851,3.0,0.75,0.008,0.0
1454587897779222549,365,1454587897779000301,,365,2.23039453911,-1.56558145847,-0.00304877933415,-2.38962368523,-1.57075018535,0.46410951252,3.0,0.75,0.008,0.0
1454587897787421170,366,1454587897787093087,,366,2.23041844764,-1.56537973314,-0.00307064283125,-2.39006143219,-1.57074998901,0.464094433946,3.0,0.75,0.008,0.0
1454587897795438065,367,1454587897795155914,,367,2.23044967161,-1.56511509447,-0.0030992342735,-2.39063368381,-1.5707497014,0.464074858443,3.0,0.75,0.008,0.0
1454587897803415825,368,1454587897803170845,,368,2.2304801341,-1.56485551376,-0.00312716744755,-2.3911928097,-1.5707493849,0.464055896616,3.0,0.75,0.008,0.0
1454587897811636051,369,1454587897811274942,,369,2.23050982036,-1.56460110887,-0.00315442256484,-2.39173872355,-1.5707490402,0.464037557655,3.0,0.75,0.008,0.0
1454587897819503418,370,1454587897819325283,,370,2.23053871624,-1.56435199395,-0.00318098014842,-2.39227134547,-1.57074866803,0.464019850308,3.0,0.75,0.008,0.0
1454587897827568317,371,1454587897827360733,,371,2.23056680812,-1.56410827941,-0.00320682104513,-2.39279060194,-1.57074826918,0.464002782872,3.0,0.75,0.008,0.0
1454587897835616506,372,1454587897835425010,,372,2.23059408297,-1.56387007188,-0.00323192643763,-2.39329642584,-1.57074784446,0.463986363194,3.0,0.75,0.008,0.0
1454587897843641382,373,1454587897843477227,,373,2.23062052834,-1.56363747414,-0.00325627785609,-2.39378875639,-1.57074739473,0.463970598667,3.0,0.75,0.008,0.0
1454587897851721678,374,1454587897851531403,,374,2.23064613232,-1.56341058513,-0.00327985718967,-2.39426753917,-1.57074692087,0.463955496232,3.0,0.75,0.008,0.0
1454587897859743996,375,1454587897859572498,,375,2.23067088364,-1.56318949989,-0.00330264669781,-2.39473272606,-1.57074642381,0.463941062369,3.0,0.75,0.008,0.0
1454587897867901590,376,1454587897867651938,,376,2.23068888108,-1.56302754963,-0.00331921004859,-2.39507266853,-1.57074603637,0.463930679365,3.0,0.75,0.008,0.0
1454587897876141570,377,1454587897875864861,,377,2.23071211476,-1.56281683784,-0.00334057582662,-2.39551396579,-1.57074550105,0.463917429724,3.0,0.75,0.008,0.0
1454587897884125094,378,1454587897883893193,,378,2.23073446769,-1.56261217082,-0.00336110499029,-2.39594156723,-1.57074494524,0.463904864119,3.0,0.75,0.008,0.0
1454587897892156262,379,1454587897891924988,,379,2.23075593077,-1.56241362875,-0.00338078128296,-2.39635544823,-1.57074437,0.463892987309,3.0,0.75,0.008,0.0
1454587897900220993,380,1454587897900003170,,380,2.23077649548,-1.56222128775,-0.00339958886789,-2.3967555903,-1.5707437764,0.463881803595,3.0,0.75,0.008,0.0
1454587897908279921,381,1454587897908053147,,381,2.23079615391,-1.56203521994,-0.00341751233796,-2.39714198111,-1.57074316555,0.463871316816,3.0,0.75,0.008,0.0
1454587897916340252,382,1454587897916114325,,382,2.23081489871,-1.56185549334,-0.00343453672498,-2.39751461442,-1.57074253858,0.463861530354,3.0,0.75,0.008,0.0
1454587897924350698,383,1454587897924133010,,383,2.23083272316,-1.5616821719,-0.00345064750882,-2.39787349005,-1.57074189664,0.46385244713,3.0,0.75,0.008,0.0
1454587897932577212,384,1454587897932332327,,384,2.23084962112,-1.56151531549,-0.00346583062613,-2.39821861382,-1.57074124092,0.463844069608,3.0,0.75,0.008,0.0
1454587897940617422,385,1454587897940392718,,385,2.23086168321,-1.56139444955,-0.00347660098516,-2.39846843884,-1.5707407408,0.463838250807,3.0,0.75,0.008,0.0
1454587897948661736,386,1454587897948393160,,386,2.2308769468,-1.56123903866,-0.00349012825027,-2.39878952874,-1.57074006384,0.463831112819,3.0,0.75,0.008,0.0
1454587897956614478,387,1454587897956394660,,387,2.23089127006,-1.56109023626,-0.00350269159822,-2.39909691332,-1.57073937643,0.463824684959,3.0,0.75,0.008,0.0
1454587897964816461,388,1454587897964563321,,388,2.23090464908,-1.56094808681,-0.00351427875167,-2.39939062045,-1.57073867983,0.463818967987,3.0,0.75,0.008,0.0
1454587897972907468,389,1454587897972651602,,389,2.23091708051,-1.56081263066,-0.00352487792764,-2.39967068375,-1.57073797528,0.463813962214,3.0,0.75,0.008,0.0
1454587897980981821,390,1454587897980750376,,390,2.23092856162,-1.56068390402,-0.00353447784441,-2.39993714253,-1.57073726406,0.463809667505,3.0,0.75,0.008,0.0
1454587897989018111,391,1454587897988764085,,391,2.23093909025,-1.560561939,-0.00354306772828,-2.40019004168,-1.57073654746,0.463806083282,3.0,0.75,0.008,0.0
1454587897997212467,392,1454587897996945931,,392,2.23094866482,-1.56044676362,-0.00355063731988,-2.40042943167,-1.57073582677,0.463803208524,3.0,0.75,0.008,0.0
1454587898005239210,393,1454587898004993513,,393,2.23095728435,-1.56033840178,-0.00355717688018,-2.40065536845,-1.57073510327,0.463801041774,3.0,0.75,0.008,0.0
1454587898013237191,394,1454587898013051573,,394,2.23096494842,-1.5602368733,-0.00356267719624,-2.40086791337,-1.57073437826,0.463799581144,3.0,0.75,0.008,0.0
1454587898021297783,395,1454587898021084425,,395,2.23097006952,-1.56016522095,-0.00356611518664,-2.40101857356,-1.57073383431,0.463798947683,3.0,0.75,0.008,0.0
1454587898029387586,396,1454587898029191264,,396,2.23097606225,-1.5600756863,-0.00356977625787,-2.40120784634,-1.5707331098,0.463798716923,3.0,0.75,0.008,0.0
1454587898037444454,397,1454587898037255834,,397,2.23098110132,-1.55999301855,-0.00357237550434,-2.40138392324,-1.57073238736,0.463799184884,3.0,0.75,0.008,0.0
1454587898045548903,398,1454587898045309318,,398,2.23098518847,-1.55991722232,-0.00357390573091,-2.40154688522,-1.57073166828,0.463800348086,3.0,0.75,0.008,0.0
1454587898053507714,399,1454587898053332605,,399,2.23098832595,-1.55984829825,-0.00357436029104,-2.40169681826,-1.57073095386,0.46380220264,3.0,0.75,0.008,0.0
1454587898061699414,400,1454587898061489148,,400,2.2309905166,-1.55978624296,-0.00357373309052,-2.40183381331,-1.57073024535,0.463804744247,3.0,0.75,0.008,0.0
1454587898069792666,401,1454587898069578746,,401,2.23099176381,-1.55973104914,-0.00357201859099,-2.40195796618,-1.57072954405,0.463807968207,3.0,0.75,0.008,0.0
1454587898077897399,402,1454587898077674654,,402,2.2309920715,-1.55968270554,-0.00356921181299,-2.40206937745,-1.57072885119,0.463811869423,3.0,0.75,0.008,0.0
1454587898085921085,403,1454587898085710594,,403,2.23099144412,-1.55964119701,-0.00356530833873,-2.4021681524,-1.57072816801,0.463816442408,3.0,0.75,0.008,0.0
1454587898094149404,404,1454587898093914517,,404,2.23098988668,-1.55960650453,-0.00356030431454,-2.4022544009,-1.57072749576,0.46382168129,3.0,0.75,0.008,0.0
1454587898102216977,405,1454587898101957783,,405,2.23098811155,-1.5595849446,-0.00355582706152,-2.40231093543,-1.57072699945,0.463826043699,3.0,0.75,0.008,0.0
1454587898110244732,406,1454587898109998884,,406,2.2309849401,-1.55956212295,-0.003548889506,-2.40237554053,-1.57072634918,0.463832432633,3.0,0.75,0.008,0.0
1454587898118198607,407,1454587898117979296,,407,2.230980855,-1.5595460454,-0.00354084372737,-2.40242794428,-1.57072571309,0.46383946938,3.0,0.75,0.008,0.0
1454587898126365214,408,1454587898126132712,,408,2.23097586321,-1.55953667875,-0.00353168800316,-2.40246827294,-1.57072509232,0.463847146681,3.0,0.75,0.008,0.0
1454587898134456812,409,1454587898134218100,,409,2.23096997215,-1.55953398612,-0.00352142118182,-2.40249665692,-1.570724488,0.463855456922,3.0,0.75,0.008,0.0
1454587898142541925,410,1454587898142314510,,410,2.23096318974,-1.55953792698,-0.0035100426833,-2.40251323069,-1.57072390121,0.463864392143,3.0,0.75,0.008,0.0
1454587898150538779,411,1454587898150338496,,411,2.23095552441,-1.55954845719,-0.00349755249913,-2.40251813262,-1.57072333302,0.463873944043,3.0,0.75,0.008,0.0
1454587898158676819,412,1454587898158456671,,412,2.23094698504,-1.55956552906,-0.00348395119221,-2.40251150495,-1.57072278447,0.463884103989,3.0,0.75,0.008,0.0
1454587898166749815,413,1454587898166529826,,413,2.23093758099,-1.55958909141,-0.00346923989633,-2.40249349364,-1.57072225656,0.463894863025,3.0,0.75,0.008,0.0
1454587898174798544,414,1454587898174585221,,414,2.23092732208,-1.5596190896,-0.00345342031524,-2.40246424825,-1.57072175026,0.463906211874,3.0,0.75,0.008,0.0
1454587898182820857,415,1454587898182588786,,415,2.23091907306,-1.55964577697,-0.003440829663,-2.40243503384,-1.57072138528,0.463915104823,3.0,0.75,0.008,0.0
1454587898190931619,416,1454587898190715961,,416,2.23090734313,-1.55968689618,-0.00342307639241,-2.4023864993,-1.57072091903,0.463927462603,3.0,0.75,0.008,0.0
1454587898199034799,417,1454587898198793487,,417,2.23089478767,-1.55973428358,-0.00340422244998,-2.40232715988,-1.57072047687,0.463940383119,3.0,0.75,0.008,0.0
1454587898207119536,418,1454587898206887074,,418,2.23088141813,-1.55978787206,-0.00338427166351,-2.4022571778,-1.57072005964,0.463953855979,3.0,0.75,0.008,0.0
1454587898215154378,419,1454587898214914950,,419,2.23086724642,-1.5598475913,-0.00336322842221,-2.40217671839,-1.57071966814,0.463967870509,3.0,0.75,0.008,0.0
1454587898223247399,420,1454587898223035250,,420,2.23085228482,-1.55991336787,-0.00334109767385,-2.40208595,-1.57071930312,0.463982415766,3.0,0.75,0.008,0.0
1454587898231295041,421,1454587898231078295,,421,2.23083654606,-1.55998512526,-0.00331788492178,-2.40198504384,-1.57071896529,0.463997480544,3.0,0.75,0.008,0.0
1454587898239356961,422,1454587898239134848,,422,2.23082004321,-1.56006278394,-0.00329359622147,-2.40187417392,-1.57071865534,0.464013053386,3.0,0.75,0.008,0.0
1454587898247440440,423,1454587898247188553,,423,2.23080717272,-1.56012485117,-0.00327467755739,-2.40178458895,-1.57071844154,0.464025059403,3.0,0.75,0.008,0.0
1454587898255513515,424,1454587898255291417,,424,2.23078936536,-1.56021263696,-0.00324852216607,-2.40165670911,-1.57071818185,0.464041493053,3.0,0.75,0.008,0.0
1454587898263554151,425,1454587898263337084,,425,2.23077083184,-1.56030609039,-0.00322131029482,-2.40151935742,-1.57071795165,0.46405840202,3.0,0.75,0.008,0.0
1454587898271675247,426,1454587898271413542,,426,2.23075158662,-1.56040512123,-0.00319305003422,-2.40137271731,-1.57071775147,0.464075773975,3.0,0.75,0.008,0.0
1454587898279710505,427,1454587898279433515,,427,2.23073164452,-1.56050963658,-0.00316375000668,-2.40121697441,-1.57071758177,0.464093596376,3.0,0.75,0.008,0.0
1454587898287802589,428,1454587898287557428,,428,2.23071102065,-1.56061954089,-0.00313341936135,-2.40105231651,-1.57071744297,0.46411185648,3.0,0.75,0.008,0.0
1454587898295794687,429,1454587898295575276,,429,2.23068973048,-1.56073473609,-0.00310206776861,-2.4008789334,-1.57071733544,0.46413054135,3.0,0.75,0.008,0.0
1454587898303893502,430,1454587898303644181,,430,2.23066778977,-1.5608551216,-0.0030697054144,-2.40069701674,-1.57071725953,0.464149637866,3.0,0.75,0.008,0.0
1454587898311803210,431,1454587898311601796,,431,2.23064521458,-1.56098059445,-0.00303634299419,-2.40050676001,-1.57071721551,0.464169132734,3.0,0.75,0.008,0.0
1454587898320030557,432,1454587898319757140,,432,2.23062202125,-1.56111104933,-0.0030019917067,-2.40030835832,-1.57071720362,0.464189012495,3.0,0.75,0.008,0.0
1454587898328063795,433,1454587898327800482,,433,2.23060423059,-1.56121209532,-0.00297558631398,-2.40015433018,-1.57071721591,0.464204166716,3.0,0.75,0.008,0.0
1454587898336057717,434,1454587898335833129,,434,2.23057999567,-1.5613510086,-0.00293953294578,-2.39994214892,-1.57071726071,0.464224687187,3.0,0.75,0.008,0.0
1454587898344075094,435,1454587898343839089,,435,2.23055518895,-1.5614946029,-0.00290252404714,-2.39972236695,-1.57071733807,0.464245554762,3.0,0.75,0.008,0.0
1454587898352174946,436,1454587898351950147,,436,2.23052982774,-1.56164276483,-0.00286457264334,-2.3994951846,-1.57071744806,0.464266755444,3.0,0.75,0.008,0.0
1454587898360226813,437,1454587898359992777,,437,2.23050392959,-1.56179537904,-0.00282569222936,-2.39926080333,-1.57071759072,0.464288275118,3.0,0.75,0.008,0.0
1454587898368334082,438,1454587898368089392,,438,2.23047751227,-1.56195232828,-0.00278589676211,-2.39901942561,-1.57071776603,0.464310099556,3.0,0.75,0.008,0.0
1454587898376318016,439,1454587898376099271,,439,2.23045059376,-1.5621134935,-0.00274520065238,-2.39877125481,-1.57071797393,0.464332214429,3.0,0.75,0.008,0.0
1454587898384440857,440,1454587898384242707,,440,2.23042319223,-1.5622787539,-0.00270361875652,-2.39851649506,-1.57071821432,0.464354605317,3.0,0.75,0.008,0.0
1454587898392494413,441,1454587898392304844,,441,2.23039532605,-1.56244798705,-0.00266116636795,-2.39825535118,-1.57071848705,0.464377257713,3.0,0.75,0.008,0.0
1454587898400534883,442,1454587898400355849,,442,2.23036701373,-1.56262106892,-0.00261785920843,-2.39798802852,-1.57071879194,0.464400157041,3.0,0.75,0.008,0.0
1454587898408621087,443,1454587898408396263,,443,2.23034549796,-1.56275333062,-0.00258482758972,-2.3977836055,-1.57071904157,0.46441748478,3.0,0.75,0.008,0.0
1454587898416739010,444,1454587898416548638,,444,2.23031644999,-1.56293284493,-0.00254006366763,-2.39750596542,-1.57071940217,0.464440780972,3.0,0.75,0.008,0.0
1454587898424745140,445,1454587898424560361,,445,2.23028700765,-1.5631158595,-0.0024944903439,-2.39722271328,-1.57071979421,0.464464283704,3.0,0.75,0.008,0.0
1454587898432794906,446,1454587898432620030,,446,2.23025719001,-1.56330224515,-0.00244812486488,-2.39693405553,-1.57072021736,0.464487978204,3.0,0.75,0.008,0.0
1454587898440819916,447,1454587898440645417,,447,2.23022701626,-1.56349187152,-0.00240098486071,-2.39664019866,-1.57072067125,0.464511849674,3.0,0.75,0.008,0.0
1454587898448934770,448,1454587898448765599,,448,2.23019650568,-1.56368460715,-0.00235308833548,-2.39634134909,-1.57072115547,0.464535883293,3.0,0.75,0.008,0.0
1454587898456973083,449,1454587898456811285,,449,2.23016567768,-1.56388031957,-0.00230445365706,-2.39603771307,-1.57072166959,0.46456006423,3.0,0.75,0.008,0.0
1454587898465081975,450,1454587898464889667,,450,2.2301345517,-1.56407887536,-0.00225509954677,-2.39572949653,-1.57072221314,0.464584377651,3.0,0.75,0.008,0.0
1454587898473054191,451,1454587898472897954,,451,2.23010314728,-1.56428014027,-0.002205045069,-2.39541690503,-1.5707227856,0.464608808732,3.0,0.75,0.008,0.0
1454587898481211734,452,1454587898481031898,,452,2.23007148402,-1.56448397928,-0.00215430962046,-2.39510014365,-1.57072338644,0.464633342661,3.0,0.75,0.008,0.0
1454587898489277951,453,1454587898489107237,,453,2.23004757852,-1.56463846616,-0.00211582299701,-2.39485995914,-1.57072385536,0.464651801708,3.0,0.75,0.008,0.0
1454587898497389762,454,1454587898497170840,,454,2.23001550953,-1.5648464829,-0.00206394348411,-2.39453639202,-1.57072450449,0.464676480066,3.0,0.75,0.008,0.0
1454587898505347557,455,1454587898505163228,,455,2.22998323576,-1.56505669913,-0.00201143796661,-2.39420921554,-1.57072518038,0.464701220701,3.0,0.75,0.008,0.0
1454587898513530853,456,1454587898513342909,,456,2.22995077689,-1.56526897769,-0.00195832699027,-2.39387863201,-1.57072588238,0.46472600894,3.0,0.75,0.008,0.0
1454587898521717551,457,1454587898521449372,,457,2.22991815262,-1.56548318102,-0.00190463138071,-2.39354484275,-1.57072660984,0.464750830169,3.0,0.75,0.008,0.0
1454587898529775933,458,1454587898529542208,,458,2.22988538264,-1.56569917131,-0.00185037223188,-2.39320804805,-1.57072736206,0.464775669841,3.0,0.75,0.008,0.0
1454587898537824110,459,1454587898537579235,,459,2.2298524866,-1.5659168105,-0.00179557089455,-2.39286844699,-1.57072813833,0.46480051348,3.0,0.75,0.008,0.0
1454587898545984623,460,1454587898545744027,,460,2.22981948412,-1.56613596042,-0.0017402489646,-2.39252623742,-1.57072893794,0.464825346695,3.0,0.75,0.008,0.0
1454587898553974240,461,1454587898553775907,,461,2.22978639478,-1.56635648286,-0.00168442827127,-2.39218161586,-1.57072976012,0.464850155186,3.0,0.75,0.008,0.0
1454587898562036455,462,1454587898561793655,,462,2.22976153252,-1.56652269227,-0.0016422486947,-2.3919216842,-1.57073039111,0.46486873678,3.0,0.75,0.008,0.0
1454587898570029451,463,1454587898569798979,,463,2.22972833811,-1.56674528416,-0.00158560835148,-2.39157331009,-1.57073125095,0.464893467891,3.0,0.75,0.008,0.0
1454587898578192168,464,1454587898577946676,,464,2.22969511036,-1.56696886888,-0.00152853038129,-2.39122305667,-1.57073213123,0.464918135481,3.0,0.75,0.008,0.0
1454587898586118394,465,1454587898585941165,,465,2.22966186856,-1.56719330873,-0.00147103738201,-2.39087111461,-1.57073303115,0.46494272566,3.0,0.75,0.008,0.0
1454587898594190165,466,1454587898594018886,,466,2.22962863193,-1.56741846635,-0.00141315212781,-2.39051767279,-1.57073394988,0.464967224664,3.0,0.75,0.008,0.0
1454587898602194355,467,1454587898602009869,,467,2.22959541955,-1.56764420482,-0.00135489755687,-2.39016291827,-1.57073488662,0.464991618866,3.0,0.75,0.008,0.0
1454587898610328217,468,1454587898610144948,,468,2.22956225042,-1.56787038765,-0.00129629675914,-2.38980703617,-1.57073584051,0.465015894781,3.0,0.75,0.008,0.0
1454587898618452698,469,1454587898618226931,,469,2.22952914337,-1.56809687896,-0.00123737296402,-2.3894502096,-1.57073681072,0.465040039073,3.0,0.75,0.008,0.0
1454587898626423273,470,1454587898626242191,,470,2.2294961171,-1.56832354349,-0.00117814952803,-2.3890926196,-1.57073779642,0.465064038562,3.0,0.75,0.008,0.0
1454587898634565947,471,1454587898634315910,,471,2.22947141158,-1.56849357459,-0.00113354942714,-2.38882403379,-1.57073854533,0.465081935317,3.0,0.75,0.008,0.0
1454587898642687369,472,1454587898642425354,,472,2.22943857124,-1.56872021895,-0.00107385815925,-2.38846553686,-1.57073955606,0.465105650187,3.0,0.75,0.008,0.0
1454587898650719871,473,1454587898650480438,,473,2.22940586231,-1.56894666845,-0.00101393203505,-2.38810676301,-1.57074057993,0.465129184875,3.0,0.75,0.008,0.0
1454587898658790315,474,1454587898658492622,,474,2.22937330287,-1.56917279089,-0.000953794777273,-2.38774788478,-1.57074161609,0.465152526852,3.0,0.75,0.008,0.0
1454587898666794276,475,1454587898666549079,,475,2.22934091082,-1.56939845504,-0.000893470176758,-2.38738907233,-1.57074266367,0.465175663774,3.0,0.75,0.008,0.0
1454587898674866945,476,1454587898674636939,,476,2.22930870387,-1.56962353074,-0.000832982080092,-2.3870304933,-1.57074372185,0.465198583491,3.0,0.75,0.008,0.0
1454587898682931741,477,1454587898682678050,,477,2.22927669949,-1.56984788893,-0.000772354377181,-2.38667231279,-1.57074478976,0.465221274057,3.0,0.75,0.008,0.0
1454587898690939004,478,1454587898690712456,,478,2.22924491497,-1.57007140178,-0.000711610988856,-2.38631469329,-1.57074586657,0.465243723727,3.0,0.75,0.008,0.0
1454587898698950728,479,1454587898698726104,,479,2.22922123112,-1.57023840546,-0.000665991929753,-2.38604694304,-1.57074667952,0.465260395949,3.0,0.75,0.008,0.0
1454587898707197379,480,1454587898706953271,,480,2.22918987222,-1.57046013514,-0.000605103700338,-2.38569068815,-1.57074776991,0.465282396439,3.0,0.75,0.008,0.0
1454587898715198092,481,1454587898714943089,,481,2.22915877948,-1.5706806746,-0.000544165626447,-2.38533542709,-1.57074886693,0.465304124853,3.0,0.75,0.008,0.0
1454587898723235410,482,1454587898723008807,,482,2.22912796929,-1.57089990106,-0.000483201635064,-2.384981312,-1.57074996977,0.46532557027,3.0,0.75,0.008,0.0
1454587898731163109,483,1454587898730983538,,483,2.22909745777,-1.57111769323,-0.000422235625723,-2.38462849212,-1.57075107763,0.465346722002,3.0,0.75,0.008,0.0
1454587898739309760,484,1454587898739130178,,484,2.22906726078,-1.57133393141,-0.000361291458356,-2.38427711377,-1.57075218973,0.465367569597,3.0,0.75,0.008,0.0
1454587898747460094,485,1454587898747225642,,485,2.22903739391,-1.57154849751,-0.000300392941215,-2.38392732027,-1.57075330529,0.465388102847,3.0,0.75,0.008,0.0
1454587898755583435,486,1454587898755342464,,486,2.22900787246,-1.57176127512,-0.000239563818866,-2.38357925194,-1.57075442355,0.465408311786,3.0,0.75,0.008,0.0
1454587898763504344,487,1454587898763287974,,487,2.22897871144,-1.57197214961,-0.000178827760253,-2.38323304598,-1.57075554376,0.465428186701,3.0,0.75,0.008,0.0
1454587898771653931,488,1454587898771422948,,488,2.22894992558,-1.57218100809,-0.000118208346857,-2.38288883649,-1.5707566652,0.465447718132,3.0,0.75,0.008,0.0
1454587898779759827,489,1454587898779494058,,489,2.22892152929,-1.57238773957,-5.77290609392e-05,-2.38254675442,-1.57075778715,0.465466896878,3.0,0.75,0.008,0.0
1454587898787844379,490,1454587898787573253,,490,2.22890049623,-1.57254132664,-1.24756190015e-05,-2.38229166595,-1.57075862853,0.465481044102,3.0,0.75,0.008,0.0
1454587898795819373,491,1454587898795568077,,491,2.22887281544,-1.57274407453,4.77022796556e-05,-2.3819536123,-1.5707597497,0.465499584301,3.0,0.75,0.008,0.0
1454587898804097286,492,1454587898803736608,,492,2.22884556226,-1.57294440015,0.000107676081017,-2.38161802957,-1.57076086951,0.465517747876,3.0,0.75,0.008,0.0
1454587898812093800,493,1454587898811836280,,493,2.22881874989,-1.57314219991,0.000167422777852,-2.38128503654,-1.5707619873,0.465535526628,3.0,0.75,0.008,0.0
1454587898820096011,494,1454587898819847753,,494,2.22879239124,-1.57333737233,0.000226919516554,-2.38095474867,-1.57076310244,0.465552912633,3.0,0.75,0.008,0.0
1454587898828119251,495,1454587898827875594,,495,2.22876649885,-1.57352981805,0.000286143608253,-2.38062727806,-1.57076421433,0.465569898245,3.0,0.75,0.008,0.0
1454587898836260324,496,1454587898835999266,,496,2.22874108493,-1.57371943991,0.000345072539799,-2.38030273347,-1.57076532237,0.4655864761,3.0,0.75,0.008,0.0
1454587898844265968,497,1454587898844022406,,497,2.22872234562,-1.57385974597,0.000389062101454,-2.38006130872,-1.57076615053,0.465598637628,3.0,0.75,0.008,0.0
1454587898852276113,498,1454587898852053574,,498,2.22869779732,-1.57404419905,0.000447420897659,-2.37974213608,-1.57076725049,0.465614485037,3.0,0.75,0.008,0.0
1454587898860295710,499,1454587898860080994,,499,2.22867375923,-1.57422557271,0.000505423616644,-2.37942617093,-1.57076834508,0.465629905902,3.0,0.75,0.008,0.0
1454587898868468992,500,1454587898868248332,,500,2.22865024222,-1.5744037784,0.000563048499633,-2.37911350917,-1.57076943379,0.465644893933,3.0,0.75,0.008,0.0
1454587898876491691,501,1454587898876270054,,501,2.22862725679,-1.57457872991,0.000620274013787,-2.37880424324,-1.57077051613,0.465659443132,3.0,0.75,0.008,0.0
1454587898884553510,502,1454587898884331106,,502,2.22860481307,-1.57475034346,0.000677078862331,-2.37849846212,-1.57077159163,0.465673547792,3.0,0.75,0.008,0.0
1454587898892540827,503,1454587898892312726,,503,2.22858292081,-1.57491853773,0.000733441994513,-2.3781962513,-1.57077265984,0.465687202504,3.0,0.75,0.008,0.0
1454587898900709709,504,1454587898900450114,,504,2.22856158939,-1.57508323387,0.000789342615399,-2.37789769275,-1.57077372033,0.465700402152,3.0,0.75,0.008,0.0
1454587898908771639,505,1454587898908515467,,505,2.2285408278,-1.57524435557,0.000844760195488,-2.37760286498,-1.5707747727,0.46571314192,3.0,0.75,0.008,0.0
1454587898916754801,506,1454587898916540677,,506,2.22852563575,-1.57536280664,0.000885994190009,-2.3773842377,-1.5707755564,0.465722392221,3.0,0.75,0.008,0.0
1454587898924784226,507,1454587898924530284,,507,2.22850589184,-1.57551749707,0.000940517881573,-2.37709611709,-1.57077659363,0.465734316506,3.0,0.75,0.008,0.0
1454587898932886183,508,1454587898932642415,,508,2.22848674049,-1.57566841639,0.000994503521235,-2.376811925,-1.57077762171,0.465745769206,3.0,0.75,0.008,0.0
1454587898940934716,509,1454587898940711160,,509,2.22846818924,-1.57581549793,0.0010479316574,-2.37653172677,-1.57077864033,0.465756746626,3.0,0.75,0.008,0.0
1454587898949006373,510,1454587898948777229,,510,2.22845024522,-1.57595867772,0.00110078314707,-2.37625558422,-1.57077964916,0.465767245373,3.0,0.75,0.008,0.0
1454587898956982495,511,1454587898956780634,,511,2.22843291517,-1.57609789442,0.00115303916435,-2.3759835557,-1.57078064793,0.465777262354,3.0,0.75,0.008,0.0
1454587898965162692,512,1454587898964937402,,512,2.22841620544,-1.57623308939,0.0012046812088,-2.37571569602,-1.57078163636,0.465786794777,3.0,0.75,0.008,0.0
1454587898973238609,513,1454587898973019323,,513,2.22840012196,-1.57636420667,0.00125569111352,-2.37545205656,-1.5707826142,0.465795840152,3.0,0.75,0.008,0.0
1454587898981321036,514,1454587898981096713,,514,2.22838467027,-1.57649119306,0.00130605105312,-2.37519268518,-1.57078358122,0.465804396286,3.0,0.75,0.008,0.0
1454587898989481869,515,1454587898989228492,,515,2.22837349923,-1.57658369146,0.00134338394182,-2.37500098444,-1.57078429926,0.465810491173,3.0,0.75,0.008,0.0
1454587898997576544,516,1454587898997349436,,516,2.2283591653,-1.57670332892,0.00139256460451,-2.37474918705,-1.57078524684,0.465818186766,3.0,0.75,0.008,0.0
1454587899005583987,517,1454587899005375749,,517,2.22834547632,-1.57681870325,0.00144104810497,-2.37450177164,-1.57078618306,0.465825388636,3.0,0.75,0.008,0.0
1454587899013594989,518,1454587899013415061,,518,2.22833243631,-1.57692977154,0.00148881796509,-2.37425877321,-1.57078710774,0.465832095712,3.0,0.75,0.008,0.0
1454587899021611527,519,1454587899021441707,,519,2.2283200489,-1.57703649366,0.00153585808285,-2.37402022336,-1.57078802075,0.46583830722,3.0,0.75,0.008,0.0
1454587899029726316,520,1454587899029557862,,520,2.22830831729,-1.57713883226,0.00158215273895,-2.37378615032,-1.57078892193,0.465844022678,3.0,0.75,0.008,0.0
1454587899037771069,521,1454587899037596004,,521,2.22829724432,-1.57723675279,0.00162768660323,-2.37355657899,-1.57078981119,0.465849241901,3.0,0.75,0.008,0.0
1454587899045871631,522,1454587899045685253,,522,2.22828683237,-1.57733022346,0.00167244474087,-2.37333153092,-1.57079068841,0.465853964993,3.0,0.75,0.008,0.0
1454587899053908272,523,1454587899053720459,,523,2.22827708347,-1.57741921531,0.00171641261834,-2.37311102439,-1.5707915535,0.46585819235,3.0,0.75,0.008,0.0
1454587899062096553,524,1454587899061876620,,524,2.22826799921,-1.57750370216,0.00175957610909,-2.37289507441,-1.57079240639,0.465861924654,3.0,0.75,0.008,0.0
1454587899070128523,525,1454587899069907327,,525,2.22826162293,-1.57756409672,0.00179141258282,-2.37273610936,-1.57079303801,0.465864399577,3.0,0.75,0.008,0.0
1454587899078187556,526,1454587899077961825,,526,2.22825370446,-1.57764064523,0.00183313564837,-2.37252815974,-1.57079386939,0.465867268042,3.0,0.75,0.008,0.0
1454587899086208371,527,1454587899085977477,,527,2.228246453,-1.57771263114,0.00187401762157,-2.37232479136,-1.57079468842,0.465869644801,3.0,0.75,0.008,0.0
1454587899094328224,528,1454587899094112776,,528,2.22823986866,-1.57778003873,0.00191404594891,-2.37212600727,-1.57079549506,0.465871531597,3.0,0.75,0.008,0.0
1454587899102390414,529,1454587899102170727,,529,2.22823395115,-1.57784285505,0.00195320850769,-2.37193180741,-1.57079628929,0.46587293045,3.0,0.75,0.008,0.0
1454587899110426714,530,1454587899110214013,,530,2.22822869981,-1.57790106993,0.00199149361041,-2.37174218868,-1.5707970711,0.465873843653,3.0,0.75,0.008,0.0
1454587899118489035,531,1454587899118262276,,531,2.22822411358,-1.57795467593,0.00202889000879,-2.37155714491,-1.57079784047,0.465874273773,3.0,0.75,0.008,0.0
1454587899126639770,532,1454587899126409954,,532,2.22822019101,-1.57800366837,0.00206538689763,-2.37137666698,-1.57079859741,0.465874223641,3.0,0.75,0.008,0.0
1454587899134705262,533,1454587899134448179,,533,2.22821768352,-1.57803738379,0.0020921630129,-2.37124429771,-1.57079915697,0.46587387273,3.0,0.75,0.008,0.0
1454587899142763293,534,1454587899142507798,,534,2.22821491773,-1.57807829946,0.00212706110529,-2.3710717792,-1.57079989218,0.465872989769,3.0,0.75,0.008,0.0
1454587899150789640,535,1454587899150521977,,535,2.22821280967,-1.57811460274,0.00216103228668,-2.37090378638,-1.570800615,0.465871635701,3.0,0.75,0.008,0.0
1454587899158873310,536,1454587899158670968,,536,2.22821135646,-1.57814629911,0.00219406744314,-2.3707402993,-1.57080132545,0.465869814333,3.0,0.75,0.008,0.0
1454587899166918716,537,1454587899166700347,,537,2.22821055488,-1.57817339673,0.00222615791858,-2.37058129527,-1.57080202356,0.465867529726,3.0,0.75,0.008,0.0
1454587899174988675,538,1454587899174762587,,538,2.22821040133,-1.57819590637,0.00225729551712,-2.37042674884,-1.57080270936,0.465864786184,3.0,0.75,0.008,0.0
1454587899183030137,539,1454587899182811537,,539,2.22821089185,-1.57821384147,0.00228747250518,-2.37027663193,-1.57080338288,0.46586158826,3.0,0.75,0.008,0.0
1454587899191198577,540,1454587899190970982,,540,2.22821202211,-1.57822721806,0.0023166816134,-2.37013091381,-1.57080404417,0.465857940743,3.0,0.75,0.008,0.0
1454587899199228839,541,1454587899199003639,,541,2.22821328685,-1.57823427005,0.00233794916313,-2.37002449198,-1.57080453213,0.465854913074,3.0,0.75,0.008,0.0
1454587899207335221,542,1454587899207078929,,542,2.22821552522,-1.57823971552,0.00236544839168,-2.36988639011,-1.5708051721,0.465850491001,3.0,0.75,0.008,0.0
1454587899215307744,543,1454587899215080404,,543,2.22821838965,-1.57824065974,0.00239196215561,-2.36975258945,-1.57080579994,0.465845633709,3.0,0.75,0.008,0.0
1454587899223494823,544,1454587899223257740,,544,2.22822187454,-1.57823712827,0.00241748493877,-2.36962304993,-1.57080641569,0.465840346848,3.0,0.75,0.008,0.0
1454587899231580733,545,1454587899231343775,,545,2.22822597392,-1.57822914914,0.0024420116947,-2.3694977291,-1.5708070194,0.465834636289,3.0,0.75,0.008,0.0
1454587899239643419,546,1454587899239403951,,546,2.22823068151,-1.57821675282,0.00246553784706,-2.36937658222,-1.5708076111,0.465828508113,3.0,0.75,0.008,0.0
1454587899247708776,547,1454587899247459872,,547,2.2282359907,-1.5781999722,0.00248805928982,-2.3692595623,-1.57080819083,0.465821968616,3.0,0.75,0.008,0.0
1454587899255897559,548,1454587899255612862,,548,2.22824189458,-1.57817884253,0.00250957238721,-2.36914662014,-1.57080875863,0.465815024295,3.0,0.75,0.008,0.0
1454587899264045998,549,1454587899263745344,,549,2.22824670841,-1.57816016375,0.0025250435615,-2.36906455877,-1.57080917667,0.465809554409,3.0,0.75,0.008,0.0
1454587899272092893,550,1454587899271811308,,550,2.22825363539,-1.57813151513,0.00254478471907,-2.36895862799,-1.57080972366,0.465801917878,3.0,0.75,0.008,0.0
1454587899280085598,551,1454587899279825643,,551,2.22826113641,-1.57809862641,0.00256350995417,-2.36885662892,-1.5708102588,0.465793895405,3.0,0.75,0.008,0.0
1454587899288179181,552,1454587899287958300,,552,2.22826920341,-1.57806154146,0.0025812173897,-2.36875850471,-1.57081078212,0.465785494212,3.0,0.75,0.008,0.0
1454587899296219731,553,1454587899295983340,,553,2.22827782804,-1.57802030634,0.00259790561512,-2.3686641966,-1.57081129363,0.465776721699,3.0,0.75,0.008,0.0
1454587899304260787,554,1454587899304035296,,554,2.22828700166,-1.57797496929,0.00261357368506,-2.368573644,-1.57081179335,0.465767585441,3.0,0.75,0.008,0.0
1454587899312322757,555,1454587899312073070,,555,2.22829671535,-1.57792558067,0.00262822111756,-2.36848678454,-1.5708122813,0.465758093184,3.0,0.75,0.008,0.0
1454587899320395777,556,1454587899320173584,,556,2.22830695993,-1.57787219292,0.00264184789217,-2.36840355415,-1.57081275748,0.465748252837,3.0,0.75,0.008,0.0
1454587899328480539,557,1454587899328263729,,557,2.22831772595,-1.57781486052,0.00265445444777,-2.3683238871,-1.5708132219,0.465738072469,3.0,0.75,0.008,0.0
1454587899336567918,558,1454587899336328825,,558,2.22832613684,-1.57776930644,0.00266324036749,-2.36826643483,-1.57081356248,0.465730218994,3.0,0.75,0.008,0.0
1454587899344587364,559,1454587899344347179,,559,2.22833779188,-1.57770520799,0.00267406396869,-2.36819284079,-1.57081400629,0.465719463461,3.0,0.75,0.008,0.0
1454587899352724988,560,1454587899352504564,,560,2.22834994109,-1.57763732487,0.00268387090571,-2.36812262142,-1.57081443832,0.465708390866,3.0,0.75,0.008,0.0
1454587899360790627,561,1454587899360573590,,561,2.22836257408,-1.57756571882,0.00269266331663,-2.36805570541,-1.57081485854,0.465697009822,3.0,0.75,0.008,0.0
1454587899368836549,562,1454587899368598795,,562,2.22837568027,-1.57749045341,0.00270044378543,-2.36799202012,-1.57081526693,0.465685329076,3.0,0.75,0.008,0.0
1454587899376840224,563,1454587899376614423,,563,2.22838924882,-1.57741159397,0.00270721533849,-2.36793149165,-1.57081566347,0.465673357496,3.0,0.75,0.008,0.0
1454587899385041751,564,1454587899384778774,,564,2.2284032687,-1.57732920758,0.00271298144095,-2.36787404489,-1.57081604811,0.465661104074,3.0,0.75,0.008,0.0
1454587899393099070,565,1454587899392851243,,565,2.22841772867,-1.57724336298,0.00271774599276,-2.36781960361,-1.57081642083,0.465648577915,3.0,0.75,0.008,0.0
1454587899401037092,566,1454587899400840999,,566,2.22843261728,-1.57715413055,0.00272151332462,-2.36776809049,-1.57081678157,0.465635788231,3.0,0.75,0.008,0.0
1454587899409068220,567,1454587899408866506,,567,2.22844405804,-1.57708502619,0.00272368724374,-2.36773133019,-1.57081704424,0.465626028629,3.0,0.75,0.008,0.0
1454587899417231899,568,1454587899417026164,,568,2.22845966868,-1.57699003913,0.00272572114149,-2.36768475237,-1.5708173839,0.465612800249,3.0,0.75,0.008,0.0
1454587899425209551,569,1454587899425002313,,569,2.22847567553,-1.57689186578,0.00272677191372,-2.36764088518,-1.57081771143,0.465599334188,3.0,0.75,0.008,0.0
1454587899433241802,570,1454587899433027868,,570,2.22849206647,-1.57679058217,0.0027268454663,-2.3675996479,-1.57081802678,0.465585640012,3.0,0.75,0.008,0.0
1454587899441278538,571,1454587899441086846,,571,2.22850882922,-1.57668626573,0.00272594811352,-2.36756095908,-1.57081832987,0.465571727365,3.0,0.75,0.008,0.0
1454587899449505695,572,1454587899449248812,,572,2.22852595136,-1.57657899521,0.00272408657289,-2.36752473657,-1.57081862062,0.465557605966,3.0,0.75,0.008,0.0
1454587899457522129,573,1454587899457287984,,573,2.22854342029,-1.57646885064,0.00272126795966,-2.36749089762,-1.57081889897,0.465543285601,3.0,0.75,0.008,0.0
1454587899465591301,574,1454587899465344215,,574,2.22856122331,-1.57635591329,0.00271749978124,-2.36745935892,-1.57081916483,0.465528776117,3.0,0.75,0.008,0.0
1454587899473743734,575,1454587899473506306,,575,2.22857478708,-1.57626942706,0.00271405522949,-2.36743716406,-1.57081935598,0.465517775849,3.0,0.75,0.008,0.0
1454587899481790935,576,1454587899481549557,,576,2.22859314375,-1.57615180135,0.00270864453534,-2.36740944894,-1.57081959977,0.465502959265,3.0,0.75,0.008,0.0
1454587899489753981,577,1454587899489536384,,577,2.22861179888,-1.57603161219,0.00270230689534,-2.3673838027,-1.57081983084,0.465487980909,3.0,0.75,0.008,0.0
1454587899497797107,578,1454587899497584837,,578,2.22863073931,-1.57590894493,0.00269505123437,-2.36736014056,-1.57082004908,0.465472850806,3.0,0.75,0.008,0.0
1454587899505870228,579,1454587899505652881,,579,2.22864995179,-1.57578388591,0.00268688684036,-2.36733837751,-1.5708202544,0.465457579012,3.0,0.75,0.008,0.0
1454587899513999904,580,1454587899513759092,,580,2.22866942296,-1.57565652234,0.00267782335775,-2.36731842834,-1.57082044672,0.46544217561,3.0,0.75,0.008,0.0
1454587899522027734,581,1454587899521782343,,581,2.22868913939,-1.57552694232,0.0026678707807,-2.36730020777,-1.57082062592,0.465426650703,3.0,0.75,0.008,0.0
1454587899530053641,582,1454587899529832169,,582,2.22870908758,-1.57539523473,0.00265703944624,-2.36728363046,-1.57082079191,0.465411014411,3.0,0.75,0.008,0.0
1454587899538162058,583,1454587899537940471,,583,2.22872925395,-1.57526148917,0.00264534002721,-2.36726861107,-1.57082094459,0.46539527686,3.0,0.75,0.008,0.0
1454587899546251471,584,1454587899546011276,,584,2.22874962488,-1.57512579595,0.00263278352508,-2.36725506435,-1.57082108386,0.46537944818,3.0,0.75,0.008,0.0
1454587899554332580,585,1454587899554095748,,585,2.22876502909,-1.57502280256,0.0026228104872,-2.36724581956,-1.57082117946,0.465367522959,3.0,0.75,0.008,0.0
1454587899562373010,586,1454587899562125919,,586,2.22878572505,-1.57488392006,0.00260878152424,-2.36723464537,-1.57082129504,0.465351559165,3.0,0.75,0.008,0.0
1454587899570462247,587,1454587899570227741,,587,2.22880658787,-1.57474334126,0.0025939273666,-2.36722471033,-1.57082139694,0.465335532064,3.0,0.75,0.008,0.0
1454587899578524097,588,1454587899578260367,,588,2.22882760376,-1.57460115852,0.00257826018196,-2.36721593005,-1.57082148507,0.465319451746,3.0,0.75,0.008,0.0
1454587899586724406,589,1454587899586313161,,589,2.22884875894,-1.57445746461,0.00256179243078,-2.36720822048,-1.57082155935,0.465303328271,3.0,0.75,0.008,0.0
1454587899594587682,590,1454587899594346570,,590,2.22887003962,-1.57431235263,0.00254453685841,-2.36720149802,-1.57082161967,0.465287171672,3.0,0.75,0.008,0.0
1454587899602719843,591,1454587899602497309,,591,2.22889143198,-1.57416591601,0.00252650648709,-2.36719567953,-1.57082166597,0.465270991945,3.0,0.75,0.008,0.0
1454587899610859071,592,1454587899610621553,,592,2.22891292224,-1.57401824841,0.00250771460783,-2.36719068243,-1.57082169815,0.465254799043,3.0,0.75,0.008,0.0
1454587899618860596,593,1454587899618616242,,593,2.22892909589,-1.57390674633,0.00249312910139,-2.3671874243,-1.57082171298,0.465242651681,3.0,0.75,0.008,0.0
1454587899626848911,594,1454587899626594674,,594,2.22895072432,-1.57375715043,0.00247303734392,-2.36718366773,-1.57082172029,0.465226459527,3.0,0.75,0.008,0.0
1454587899634906726,595,1454587899634680303,,595,2.2289724128,-1.57360658193,0.00245222194753,-2.36718050867,-1.57082171329,0.465210281309,3.0,0.75,0.008,0.0
1454587899642958888,596,1454587899642724517,,596,2.22899414764,-1.5734551349,0.00243069713748,-2.36717786705,-1.57082169193,0.465194126773,3.0,0.75,0.008,0.0
1454587899651041831,597,1454587899650819678,,597,2.22901591517,-1.57330290341,0.00240847736809,-2.36717566361,-1.57082165614,0.465178005598,3.0,0.75,0.008,0.0
1454587899658995644,598,1454587899658824549,,598,2.22903770178,-1.57314998145,0.00238557731417,-2.36717381992,-1.57082160589,0.46516192739,3.0,0.75,0.008,0.0
1454587899667183699,599,1454587899666967768,,599,2.22905949393,-1.57299646286,0.00236201186236,-2.36717225848,-1.57082154113,0.465145901678,3.0,0.75,0.008,0.0
1454587899675275576,600,1454587899675054776,,600,2.22908127814,-1.57284244133,0.00233779610243,-2.3671709027,-1.57082146184,0.465129937905,3.0,0.75,0.008,0.0
1454587899683381266,601,1454587899683130597,,601,2.22909760301,-1.57272665134,0.00231921670504,-2.36716997534,-1.57082139282,0.465118011355,3.0,0.75,0.008,0.0
1454587899691406732,602,1454587899691149041,,602,2.22911934109,-1.57257197432,0.00229389979516,-2.36716879828,-1.57082128804,0.465102178432,3.0,0.75,0.008,0.0
1454587899699556720,603,1454587899699316430,,603,2.22914103456,-1.57241705057,0.00226797504944,-2.36716762164,-1.57082116869,0.46508643295,3.0,0.75,0.008,0.0
1454587899707564056,604,1454587899707359816,,604,2.22916267024,-1.57226197262,0.00224145824076,-2.36716637284,-1.57082103477,0.465070783995,3.0,0.75,0.008,0.0
1454587899715598048,605,1454587899715409903,,605,2.22918423506,-1.57210683254,0.00221436530297,-2.36716498048,-1.5708208863,0.465055240548,3.0,0.75,0.008,0.0
1454587899723614157,606,1454587899723433710,,606,2.22920571607,-1.57195172193,0.00218671232199,-2.36716337437,-1.5708207233,0.465039811479,3.0,0.75,0.008,0.0
1454587899731781195,607,1454587899731581123,,607,2.22922710042,-1.57179673185,0.00215851552673,-2.36716148559,-1.57082054581,0.465024505542,3.0,0.75,0.008,0.0
1454587899739942433,608,1454587899739660387,,608,2.2292483754,-1.57164195278,0.00212979128011,-2.36715924651,-1.57082035388,0.46500933137,3.0,0.75,0.008,0.0
1454587899748029626,609,1454587899747751002,,609,2.22926425227,-1.57152606102,0.00210791186924,-2.3671572974,-1.57082020048,0.464998042336,3.0,0.75,0.008,0.0
1454587899755951847,610,1454587899755723624,,610,2.22928530562,-1.57137186698,0.00207830432677,-2.36715428664,-1.57081998343,0.464983119151,3.0,0.75,0.008,0.0
1454587899764039035,611,1454587899763843862,,611,2.22930100201,-1.57125651615,0.00205578154859,-2.36715168469,-1.57081981128,0.464972027937,3.0,0.75,0.008,0.0
1454587899772186212,612,1454587899771965838,,612,2.2293217959,-1.5711031785,0.00202534180259,-2.36714770672,-1.57081956935,0.464957381098,3.0,0.75,0.008,0.0
1454587899780213316,613,1454587899779975026,,613,2.22934242486,-1.57095045046,0.00199444965394,-2.36714309128,-1.57081931334,0.464942903274,3.0,0.75,0.008,0.0
1454587899788227621,614,1454587899787999273,,614,2.22936287694,-1.57079841841,0.00196312204072,-2.36713777856,-1.57081904338,0.464928602363,3.0,0.75,0.008,0.0
1454587899796433819,615,1454587899796201231,,615,2.2293831404,-1.57064716785,0.00193137597616,-2.36713171032,-1.57081875959,0.464914486117,3.0,0.75,0.008,0.0
1454587899804484718,616,1454587899804247775,,616,2.22940320361,-1.57049678335,0.00189922853956,-2.36712482986,-1.57081846212,0.464900562134,3.0,0.75,0.008,0.0
1454587899812546863,617,1454587899812307310,,617,2.22942305517,-1.57034734848,0.00186669686738,-2.36711708211,-1.57081815112,0.464886837864,3.0,0.75,0.008,0.0
1454587899820559584,618,1454587899820289821,,618,2.22943779816,-1.57023594523,0.00184205629465,-2.3671106699,-1.57081790909,0.464876680113,3.0,0.75,0.008,0.0
1454587899828666242,619,1454587899828415908,,619,2.22945725238,-1.57008837023,0.00180889358439,-2.36710127674,-1.57081757484,0.464863322781,3.0,0.75,0.008,0.0
1454587899836716574,620,1454587899836479101,,620,2.22947646447,-1.56994196929,0.00177539398491,-2.36709087327,-1.57081722757,0.464850184818,3.0,0.75,0.008,0.0
1454587899844774369,621,1454587899844574037,,621,2.22949542372,-1.56979682193,0.00174157476703,-2.36707941066,-1.57081686749,0.464837273064,3.0,0.75,0.008,0.0
1454587899852864464,622,1454587899852601692,,622,2.22951411962,-1.56965300648,0.00170745321628,-2.3670668418,-1.57081649482,0.46482459419,3.0,0.75,0.008,0.0
1454587899860950399,623,1454587899860730466,,623,2.22953254186,-1.56951060008,0.00167304662416,-2.36705312134,-1.5708161098,0.464812154693,3.0,0.75,0.008,0.0
1454587899868953478,624,1454587899868767681,,624,2.22955068034,-1.56936967857,0.00163837227934,-2.36703820568,-1.57081571268,0.464799960897,3.0,0.75,0.008,0.0
1454587899877044693,625,1454587899876822821,,625,2.22956852519,-1.56923031654,0.00160344745899,-2.36702205303,-1.57081530373,0.464788018948,3.0,0.75,0.008,0.0
1454587899885083826,626,1454587899884890109,,626,2.22958171031,-1.56912686253,0.00157709985136,-2.36700910264,-1.57081498942,0.464779231356,3.0,0.75,0.008,0.0
1454587899893260459,627,1454587899893051636,,627,2.22959901819,-1.568990405,0.00154177820667,-2.36699069015,-1.57081456044,0.464767744383,3.0,0.75,0.008,0.0
1454587899901262387,628,1454587899901068023,,628,2.22961600641,-1.56885570504,0.00150625346919,-2.36697093511,-1.57081412044,0.464756525221,3.0,0.75,0.008,0.0
