Thorcito/FGP_ROBOT/src/controller/tum_ics_ur_robot/tum_ics_ur_robot_lli/src/matlab/seCtrlData.csv
%time,field.header.seq,field.header.stamp,field.header.frame_id,field.time,field.q0,field.q1,field.q2,field.q3,field.q4,field.q5,field.qp0,field.qp1,field.qp2,field.qp3,field.qp4,field.qp5,field.qpp0,field.qpp1,field.qpp2,field.qpp3,field.qpp4,field.qpp5,field.qd0,field.qd1,field.qd2,field.qd3,field.qd4,field.qd5,field.qpd0,field.qpd1,field.qpd2,field.qpd3,field.qpd4,field.qpd5,field.qppd0,field.qppd1,field.qppd2,field.qppd3,field.qppd4,field.qppd5,field.Dq0,field.Dq1,field.Dq2,field.Dq3,field.Dq4,field.Dq5,field.Dqp0,field.Dqp1,field.Dqp2,field.Dqp3,field.Dqp4,field.Dqp5,field.Xef_00,field.Xef_01,field.Xef_02,field.Xef_03,field.Xef_04,field.Xef_05,field.Xd_00,field.Xd_01,field.Xd_02,field.Xd_03,field.Xd_04,field.Xd_05,field.torques0,field.torques1,field.torques2,field.torques3,field.torques4,field.torques5
1455732142996416137,123,1455732142995650798,,0.257089853287,2.44283603638,-1.57023443675,0.000375054725272,-2.79139807185,-0.784329265766,0.436514002306,-0.00747916003255,0.00672741881059,0.00449094546316,0.0135028498429,0.0127831896429,0.00218967482558,0.0,0.0,0.0,0.0,0.0,0.0,2.44281780792,-1.57021749641,0.000385886925016,-2.79136914242,-0.78430481711,0.436525256461,-0.00733915889417,0.00660524300475,0.0044034953365,0.0132104860095,0.0124765701201,0.00220174766825,-0.0545382131492,0.0490843918342,0.0327229278895,0.0981687836685,0.0927149623536,0.0163614639447,1.82284658226e-05,-1.69403414809e-05,-1.08321997431e-05,-2.89294362608e-05,-2.44486559695e-05,-1.12541555843e-05,-0.000140001138382,0.000122175805837,8.74501266555e-05,0.000292363833421,0.000306619522858,-1.20728426711e-05,0.0,0.0,0.0,0.0,0.0,0.0,0.0,0.0,0.0,0.0,0.0,0.0,-0.627184731204,-1.09314787387,-1.52243078968,-1.7788706611,2.21554837047,0.137291257448
1455732142998438267,124,1455732142997755794,,0.259194850922,2.44282096047,-1.57022087612,0.000384107261032,-2.79137085361,-0.784303498181,0.436518416091,-0.00759675674752,0.00683321135667,0.00456159029594,0.0137153894925,0.0129843950001,0.00222411079355,0.0,0.0,0.0,0.0,0.0,0.0,2.44280223789,-1.57020348338,0.000395228940531,-2.79134111637,-0.784278348066,0.436529927469,-0.0074543662585,0.00670892963265,0.0044726197551,0.0134178592653,0.0126724226395,0.00223630987755,-0.0549224249237,0.0494301824313,0.0329534549542,0.0988603648627,0.0933681223703,0.0164767274771,1.87225749007e-05,-1.73927345861e-05,-1.1121679499e-05,-2.97372434703e-05,-2.51501152857e-05,-1.15113777227e-05,-0.00014239048902,0.000124281724015,8.89705408402e-05,0.000297530227167,0.000311972360621,-1.21990840045e-05,0.0,0.0,0.0,0.0,0.0,0.0,0.0,0.0,0.0,0.0,0.0,0.0,-0.634041863932,-1.07879777597,-1.51322008949,-1.77249088842,2.21599483498,0.139151298224
1455732143000654505,125,1455732142999877144,,0.261316299438,2.44280564796,-1.57020710242,0.000393301169209,-2.79134320601,-0.784277319104,0.436522898738,-0.00771574881119,0.0069404855287,0.00463231788129,0.0139322110386,0.0131946822714,0.00225853605262,0.0,0.0,0.0,0.0,0.0,0.0,2.44278629996,-1.57018913924,0.000404791701243,-2.79131242809,-0.784251253577,0.436534708849,-0.00757129120617,0.00681416208555,0.0045427747237,0.0136283241711,0.0128711950505,0.00227138736185,-0.0553086465338,0.0497777818804,0.0331851879203,0.0995555637609,0.0940246991075,0.0165925939601,1.93480038631e-05,-1.79631787698e-05,-1.14905320343e-05,-3.0777925077e-05,-2.60655266998e-05,-1.18101112328e-05,-0.000144457605024,0.000126323443146,8.9543157595e-05,0.000303886867539,0.00032348722091,-1.28513092299e-05,0.0,0.0,0.0,0.0,0.0,0.0,0.0,0.0,0.0,0.0,0.0,0.0,-0.642071351893,-1.06256521738,-1.50284274204,-1.76547696341,2.21637596888,0.141141053251
1455732143002606332,126,1455732143001973773,,0.263412952423,2.44279009568,-1.57019311246,0.000402637154351,-2.79131511995,-0.784250713335,0.436527450175,-0.0078365310905,0.00704947746714,0.00470366726072,0.0141538541525,0.013411086266,0.00229290134347,0.0,0.0,0.0,0.0,0.0,0.0,2.44277030374,-1.57017474265,0.000414389431175,-2.7912836349,-0.784224060009,0.436539507714,-0.00768765354309,0.00691888818878,0.00461259212585,0.0138377763776,0.0130690110233,0.00230629606293,-0.0556893754341,0.0501204378907,0.0334136252604,0.100240875781,0.0946719382379,0.0167068126302,1.97919405145e-05,-1.83698106717e-05,-1.17522768242e-05,-3.14850496812e-05,-2.66533263027e-05,-1.20575388027e-05,-0.000148877547405,0.000130589278363,9.10751348622e-05,0.000316077774918,0.000342075242734,-1.33947194603e-05,0.0,0.0,0.0,0.0,0.0,0.0,0.0,0.0,0.0,0.0,0.0,0.0,-0.653098055478,-1.04084241955,-1.48889642213,-1.75620258046,2.21662442656,0.143733856098
1455732143004677658,127,1455732143004058405,,0.26549744606,2.44277430051,-1.57017890352,0.000412117136016,-2.79128658889,-0.784223678472,0.436532070538,-0.00795864161958,0.00715946060667,0.00477631440446,0.0143771995813,0.0136237775137,0.00232746119404,0.0,0.0,0.0,0.0,0.0,0.0,2.44275415761,-1.57016021113,0.00042407710727,-2.79125457187,-0.784196611594,0.436544351552,-0.00780413136656,0.0070237182299,0.00468247881993,0.0140474364598,0.0132670233231,0.00234123940997,-0.0560669327258,0.0504602394532,0.0336401596355,0.100920478906,0.0953137856338,0.0168200798177,2.01428946291e-05,-1.86923867402e-05,-1.19599712539e-05,-3.20170242323e-05,-2.70668781253e-05,-1.22810143126e-05,-0.000154510253024,0.000135742376772,9.38355845276e-05,0.000329763121507,0.000356754190561,-1.37782159257e-05,0.0,0.0,0.0,0.0,0.0,0.0,0.0,0.0,0.0,0.0,0.0,0.0,-0.65676935264,-1.03570545576,-1.48619522928,-1.75561550523,2.21661775671,0.143739134108
1455732143006821844,128,1455732143006156661,,0.267595767975,2.44275826093,-1.57016447495,0.000421744081614,-2.79125761463,-0.78419623059,0.436536760686,-0.00808093629415,0.00726910881423,0.00485063119304,0.0145970676573,0.0138241041883,0.00236268697206,0.0,0.0,0.0,0.0,0.0,0.0,2.44273765832,-1.57014536177,0.000433976680265,-2.79122487315,-0.784168562803,0.436549301339,-0.00792217573909,0.00712995816518,0.00475330544345,0.0142599163304,0.0134676987565,0.00237665272173,-0.0564460250433,0.050801422539,0.033867615026,0.101602845078,0.0959582425736,0.016933807513,2.06026050398e-05,-1.91131768115e-05,-1.22325986511e-05,-3.27414759775e-05,-2.76677865748e-05,-1.25406526438e-05,-0.000158760555055,0.000139150649047,9.73257495831e-05,0.000337151326909,0.000356405431876,-1.39657496646e-05,0.0,0.0,0.0,0.0,0.0,0.0,0.0,0.0,0.0,0.0,0.0,0.0,-0.656439251655,-1.03873707536,-1.48892980501,-1.75904021667,2.21664371462,0.142660654431
1455732143008939467,129,1455732143008257717,,0.269696712494,2.44274197654,-1.57014982713,0.000431520680522,-2.79122820255,-0.784168384293,0.436541521919,-0.0082034555778,0.00737871158267,0.00492596771521,0.0148150076203,0.0140221926082,0.00239854557095,0.0,0.0,0.0,0.0,0.0,0.0,2.44272088942,-1.57013026976,0.000444038023783,-2.79119468912,-0.784140055663,0.43655433201,-0.00804116357719,0.00723704721947,0.00482469814631,0.0144740944389,0.0136699780812,0.00241234907316,-0.0568246172453,0.0511421555208,0.0340947703472,0.102284311042,0.096601849317,0.0170473851736,2.10871190309e-05,-1.95573716915e-05,-1.25173432608e-05,-3.35134312537e-05,-2.83286297458e-05,-1.28100918598e-05,-0.000162292000607,0.0001416643632,0.000101269568894,0.000340913181388,0.000352214526981,-1.38035022018e-05,0.0,0.0,0.0,0.0,0.0,0.0,0.0,0.0,0.0,0.0,0.0,0.0,-0.660140198156,-1.03102947357,-1.48416874356,-1.75611410957,2.21711562218,0.143588996145
1455732143011083145,130,1455732143010363040,,0.271802186966,2.44272544628,-1.57013495904,0.000441447583037,-2.79119835154,-0.784140128619,0.436546355064,-0.00832680683233,0.007489377439,0.0050009348001,0.0150359996305,0.0142334814298,0.00243459940295,0.0,0.0,0.0,0.0,0.0,0.0,2.44270383272,-1.57011491873,0.000454272041879,-2.79116398707,-0.784111059279,0.43655944902,-0.00816120491871,0.00734508442684,0.00489672295123,0.0146901688537,0.0138740483618,0.00244836147561,-0.0572030488116,0.0514827439305,0.034321829287,0.102965487861,0.0972451829798,0.0171609146435,2.16135534488e-05,-2.00403098147e-05,-1.28244588422e-05,-3.43644782927e-05,-2.9069340315e-05,-1.30939559342e-05,-0.000165601913614,0.000144293012163,0.000104211848872,0.000345830776813,0.000359433067999,-1.37620726643e-05,0.0,0.0,0.0,0.0,0.0,0.0,0.0,0.0,0.0,0.0,0.0,0.0,-0.665411195428,-1.01854295692,-1.47605249366,-1.75005973638,2.21778397547,0.145445734895
1455732143013168198,131,1455732143012453670,,0.273892641068,2.44270866819,-1.57011986811,0.000451523539721,-2.79116805359,-0.784111437826,0.436551260266,-0.0084512774269,0.00760155735331,0.00507502188386,0.0152619537254,0.0144573119615,0.00247060295187,0.0,0.0,0.0,0.0,0.0,0.0,2.44268664684,-1.57009945143,0.000464583573503,-2.79113305247,-0.784081843273,0.436564604785,-0.00828117714904,0.00745305943414,0.00496870628942,0.0149061188683,0.0140780011534,0.00248435314471,-0.0575778138571,0.0518200324714,0.0345466883143,0.103640064943,0.0978822835571,0.0172733441571,2.20213552291e-05,-2.04166724582e-05,-1.3060033782e-05,-3.50011198083e-05,-2.95945531911e-05,-1.33445193913e-05,-0.000170100277861,0.000148497919178,0.000106315594432,0.000355834857117,0.000379310808161,-1.37501928465e-05,0.0,0.0,0.0,0.0,0.0,0.0,0.0,0.0,0.0,0.0,0.0,0.0,-0.671963921506,-1.00387598372,-1.46659594469,-1.74331177651,2.21817927687,0.147407065088
1455732143015195243,132,1455732143014553162,,0.275992155075,2.44269164035,-1.57010455195,0.000461747717503,-2.79113730163,-0.784082302732,0.43655623764,-0.00857656335221,0.00771460032422,0.0051491558978,0.0154900033954,0.0146777818542,0.00250677155955,0.0,0.0,0.0,0.0,0.0,0.0,2.44266913321,-1.57008368917,0.000475091747742,-2.79110152795,-0.784052070112,0.436569858872,-0.00840245684575,0.00756221116118,0.00504147410745,0.0151244223224,0.0142841766378,0.00252073705373,-0.0579532342422,0.052157910818,0.0347719405453,0.104315821636,0.0985204982118,0.0173859702727,2.25071381816e-05,-2.08627761391e-05,-1.33440302392e-05,-3.57736854042e-05,-3.02326197188e-05,-1.36212319993e-05,-0.000174106506455,0.000152389163044,0.000107681790346,0.000365581073035,0.000393605216416,-1.39654941737e-05,0.0,0.0,0.0,0.0,0.0,0.0,0.0,0.0,0.0,0.0,0.0,0.0,-0.674543467268,-0.999050212973,-1.46389871514,-1.74232101511,2.21813092821,0.147593351914
1455732143017324257,133,1455732143016637343,,0.278076410294,2.44267436132,-1.57008900943,0.0004721213712,-2.79110609402,-0.7840527379,0.436561287791,-0.0087024708366,0.00782792337275,0.00522449779956,0.0157176067564,0.0148870502119,0.00254337867651,0.0,0.0,0.0,0.0,0.0,0.0,2.4426514942,-1.57006781406,0.000485675154786,-2.79106977773,-0.784022083792,0.436575150576,-0.0085236337351,0.00767127036159,0.00511418024106,0.0153425407232,0.0144901773497,0.00255709012053,-0.0583249664887,0.0524924698398,0.0349949798932,0.10498493968,0.0991524430308,0.0174974899466,2.2867115733e-05,-2.11953630083e-05,-1.3553783586e-05,-3.63162963848e-05,-3.06541076111e-05,-1.38627852854e-05,-0.000178837101501,0.00015665301116,0.000110317558499,0.000375066033202,0.000396872862267,-1.37114440171e-05,0.0,0.0,0.0,0.0,0.0,0.0,0.0,0.0,0.0,0.0,0.0,0.0,-0.679365553444,-0.989846332731,-1.4582324734,-1.73939627898,2.2181785868,0.148389555165
1455732143019232423,134,1455732143018735397,,0.28017449379,2.44265682997,-1.57007324013,0.000482647047237,-2.79107443214,-0.784022758071,0.436566411659,-0.00882887121113,0.00794137376232,0.0053011782374,0.0159442790027,0.0150927786222,0.00258048966597,0.0,0.0,0.0,0.0,0.0,0.0,2.44263348226,-1.57005160332,0.0004964823195,-2.79103735623,-0.783991463492,0.436580554158,-0.00864639609152,0.00778175648237,0.00518783765491,0.0155635129647,0.0146988733556,0.00259391882746,-0.0586982000806,0.0528283800725,0.0352189200483,0.105656760145,0.099786940137,0.0176094600242,2.33477148752e-05,-2.16368129444e-05,-1.38352722632e-05,-3.70759047681e-05,-3.12945788004e-05,-1.41424992999e-05,-0.000182475119606,0.000159617279944,0.000113340582488,0.000380766037936,0.000393905266648,-1.34291614903e-05,0.0,0.0,0.0,0.0,0.0,0.0,0.0,0.0,0.0,0.0,0.0,0.0,-0.680547165913,-0.987854843781,-1.4572948387,-1.73960275871,2.21852711971,0.148330811544
1455732143021361814,135,1455732143020820960,,0.282259941101,2.44263904529,-1.57005724348,0.000493326652295,-2.79104231634,-0.783992358651,0.436571610104,-0.00895581249211,0.00805527776906,0.00537842682072,0.0161715222097,0.0153066409273,0.00261795563693,0.0,0.0,0.0,0.0,0.0,0.0,2.44261532275,-1.57003525975,0.000507378027757,-2.79100466911,-0.783960592319,0.436586002012,-0.00876919409703,0.00789227468733,0.00526151645822,0.0157845493747,0.014907629965,0.00263075822911,-0.0590682270998,0.0531614043898,0.0354409362599,0.10632280878,0.10041598607,0.0177204681299,2.37225449329e-05,-2.19837237978e-05,-1.40513754616e-05,-3.76472283254e-05,-3.17663326442e-05,-1.43919081253e-05,-0.000186618395075,0.000163003081727,0.000116910362502,0.000386972835082,0.000399010962323,-1.28025921773e-05,0.0,0.0,0.0,0.0,0.0,0.0,0.0,0.0,0.0,0.0,0.0,0.0,-0.685631285316,-0.976679829778,-1.45013874222,-1.73476870459,2.21914049662,0.149798590746
1455732143023346562,136,1455732143022902836,,0.284341812134,2.44262100606,-1.57004101819,0.000504160555592,-2.79100974388,-0.783961522009,0.436576883672,-0.00908342108001,0.00817000980408,0.00545547647577,0.0164009302012,0.0155300016716,0.00265561199066,0.0,0.0,0.0,0.0,0.0,0.0,2.44259693814,-1.57001871361,0.000518408790074,-2.79097157682,-0.783929338492,0.436591517394,-0.00889255021519,0.00800329519367,0.00533553012911,0.0160065903873,0.0151173353658,0.00266776506456,-0.0594366669658,0.0534930002692,0.0356620001795,0.106986000538,0.101042333842,0.0178310000897,2.40679152221e-05,-2.23045797001e-05,-1.4248234482e-05,-3.81670628653e-05,-3.21835166099e-05,-1.46337216562e-05,-0.000190870864823,0.000166714610405,0.000119946346651,0.000394339813871,0.000412666305757,-1.21530739005e-05,0.0,0.0,0.0,0.0,0.0,0.0,0.0,0.0,0.0,0.0,0.0,0.0,-0.687986125412,-0.970964572727,-1.44667961631,-1.73254600498,2.21953800734,0.150451724066
1455732143025383233,137,1455732143024966801,,0.286405801773,2.44260271129,-1.570024563,0.000515148319851,-2.79097671192,-0.783930241037,0.436582232851,-0.00921135090037,0.00828518272525,0.00553228778339,0.0166310292082,0.0157509701387,0.00269356711139,0.0,0.0,0.0,0.0,0.0,0.0,2.44257845715,-1.57000208072,0.000529497385298,-2.79093831104,-0.783897920806,0.436597061691,-0.00901560303406,0.00811404273066,0.00540936182044,0.0162280854613,0.0153265251579,0.00270468091022,-0.0598010034252,0.0538209030827,0.0358806020551,0.107641806165,0.101661705823,0.0179403010276,2.42541352833e-05,-2.24822800083e-05,-1.43490654477e-05,-3.84008891308e-05,-3.23202312702e-05,-1.48288401666e-05,-0.000195747866309,0.000171139994599,0.000122925962958,0.000402943746852,0.000424444980756,-1.11137988315e-05,0.0,0.0,0.0,0.0,0.0,0.0,0.0,0.0,0.0,0.0,0.0,0.0,-0.689706945341,-0.966862191652,-1.44436784526,-1.73147734341,2.21962993199,0.1507319847
1455732143027438885,138,1455732143027045740,,0.288484811783,2.44258416079,-1.57000787767,0.000526289967013,-2.79094322157,-0.783898529609,0.436587658481,-0.00933914441008,0.00840014050903,0.00560935937849,0.0168593230466,0.0159604576929,0.00273206275391,0.0,0.0,0.0,0.0,0.0,0.0,2.44255958412,-1.56998509499,0.000540821204038,-2.79090433958,-0.783865836653,0.436602723601,-0.00914031058702,0.00822627952832,0.00548418635221,0.0164525590566,0.0155385279979,0.00274209317611,-0.0601670469894,0.0541503422905,0.0361002281936,0.108300684581,0.102283979882,0.0180501140968,2.45766712048e-05,-2.27826848829e-05,-1.4531237025e-05,-3.88819930932e-05,-3.26929565332e-05,-1.50651196709e-05,-0.000198833823054,0.000173860980708,0.000125173026279,0.000406763989963,0.000421929694913,-1.00304221995e-05,0.0,0.0,0.0,0.0,0.0,0.0,0.0,0.0,0.0,0.0,0.0,0.0,-0.687546515877,-0.970975776602,-1.44750176252,-1.73458637908,2.21965555271,0.149812176118
1455732143029543091,139,1455732143029138020,,0.290577173233,2.44256535467,-1.56999096248,0.000537586160592,-2.79090927554,-0.783866402663,0.436593161599,-0.00946697802334,0.00851505207271,0.00568683420066,0.0170867129768,0.0161664880592,0.00277105544544,0.0,0.0,0.0,0.0,0.0,0.0,2.44254032731,-1.56996776386,0.000552375288089,-2.79086967733,-0.783833100081,0.436608500643,-0.00926658637063,0.00833992773357,0.00555995182238,0.0166798554671,0.0157531968301,0.00277997591119,-0.0605344851542,0.0544810366388,0.0363206910925,0.108962073278,0.102908624762,0.0181603455463,2.50273555245e-05,-2.3198618379e-05,-1.47891274977e-05,-3.95982092254e-05,-3.33025822612e-05,-1.53390434974e-05,-0.000200391652715,0.000175124339144,0.000126882378284,0.000406857509671,0.000413291229118,-8.92046575311e-06,0.0,0.0,0.0,0.0,0.0,0.0,0.0,0.0,0.0,0.0,0.0,0.0,-0.690847279399,-0.962635664803,-1.4420961935,-1.73107696557,2.22010068218,0.150917528707
1455732143031644504,140,1455732143031217839,,0.292656898499,2.44254629177,-1.5699738162,0.000549037230629,-2.79087487033,-0.783833848714,0.436598742723,-0.00959591947882,0.00863122897128,0.00576423583609,0.0173184900656,0.0163874611692,0.00281006870967,0.0,0.0,0.0,0.0,0.0,0.0,2.44252092418,-1.56995030105,0.000564017166193,-2.79083475169,-0.78380011476,0.436614321582,-0.00939286042296,0.00845357438066,0.00563571625377,0.0169071487613,0.015967862719,0.00281785812689,-0.0608987544912,0.0548088790421,0.0365392526947,0.109617758084,0.103527882635,0.0182696263474,2.5367588194e-05,-2.35151544896e-05,-1.49799355641e-05,-4.01186404919e-05,-3.37339543252e-05,-1.55788583939e-05,-0.000203059055863,0.000177654590618,0.000128519582318,0.000411341304305,0.00041959845014,-7.78941721377e-06,0.0,0.0,0.0,0.0,0.0,0.0,0.0,0.0,0.0,0.0,0.0,0.0,-0.699128443284,-0.943293574148,-1.42924801636,-1.72169600587,2.22084366842,0.153720526234
1455732143033642793,141,1455732143033264104,,0.294703245163,2.44252696977,-1.56995643616,0.000560642899074,-2.79083999685,-0.783800839598,0.436604401747,-0.00972608201145,0.00874881079113,0.00584143260887,0.0175549926107,0.0166216546452,0.00284895460999,0.0,0.0,0.0,0.0,0.0,0.0,2.44250157538,-1.56993288712,0.000575626449844,-2.79079992384,-0.78376722179,0.436620126224,-0.00951784632614,0.00856606169352,0.00571070779568,0.017132123387,0.0161803387544,0.00285535389784,-0.0612562539408,0.0551306285467,0.0367537523645,0.110261257093,0.104135631699,0.0183768761822,2.5394392789e-05,-2.35490402043e-05,-1.49835507704e-05,-4.007300877e-05,-3.36178088562e-05,-1.57244768999e-05,-0.000208235685309,0.000182749097609,0.000130724813192,0.000422869223633,0.000441315890802,-6.39928785318e-06,0.0,0.0,0.0,0.0,0.0,0.0,0.0,0.0,0.0,0.0,0.0,0.0,-0.703753653782,-0.933147444088,-1.42283537171,-1.71752743759,2.22120186158,0.154853799913
1455732143035716398,142,1455732143035342437,,0.296781539917,2.44250738761,-1.56993882136,0.000572403654393,-2.79080465314,-0.78376737446,0.436610139019,-0.0098560738502,0.00886599289079,0.00591932271063,0.017788718628,0.0168434834716,0.00288831766913,0.0,0.0,0.0,0.0,0.0,0.0,2.44248166193,-1.56991496502,0.000587574515829,-2.79076407964,-0.783733368936,0.436626100256,-0.00964553136171,0.00868097822554,0.00578731881702,0.0173619564511,0.0163974033149,0.00289365940851,-0.0616183978486,0.0554565580638,0.0369710387092,0.110913116128,0.104751276343,0.0184855193546,2.57256802354e-05,-2.38563354997e-05,-1.51708614358e-05,-4.0573495486e-05,-3.40055243632e-05,-1.59612376132e-05,-0.000210542488499,0.000185014665257,0.000132003893607,0.000426762176919,0.000446080156732,-5.34173938268e-06,0.0,0.0,0.0,0.0,0.0,0.0,0.0,0.0,0.0,0.0,0.0,0.0,-0.698612779461,-0.945158231206,-1.43151413132,-1.72530565402,2.22094601944,0.152433574942
1455732143037838195,143,1455732143037373568,,0.298812627792,2.4424875456,-1.56992097269,0.00058432138361,-2.79076884522,-0.783733481459,0.436615955696,-0.0099859419259,0.00898266907863,0.00599840650655,0.0180192006643,0.0170495181854,0.00292835900811,0.0,0.0,0.0,0.0,0.0,0.0,2.44246194367,-1.56989721858,0.000599405473273,-2.79072858677,-0.78369984789,0.436632015735,-0.00977104238858,0.00879393814972,0.00586262543315,0.0175878762994,0.0166107720606,0.00293131271657,-0.0619714043797,0.0557742639417,0.0371828426278,0.111548527883,0.105351387445,0.0185914213139,2.56019268665e-05,-2.37541096968e-05,-1.5084089663e-05,-4.02584485268e-05,-3.36335687986e-05,-1.60600396582e-05,-0.000214899537322,0.000188730928913,0.000135781073401,0.000431324364842,0.000438746124792,-2.95370846564e-06,0.0,0.0,0.0,0.0,0.0,0.0,0.0,0.0,0.0,0.0,0.0,0.0,-0.703659701036,-0.934048216555,-1.42441736828,-1.72102820795,2.22111863442,0.15370728117
1455732143039866383,144,1455732143039455515,,0.300894498825,2.44246744408,-1.56990289099,0.000596397574822,-2.79073257811,-0.783699177667,0.436621852997,-0.0101155759633,0.00909903886535,0.00607778470493,0.018247908308,0.0172542734443,0.00296894259534,0.0,0.0,0.0,0.0,0.0,0.0,2.44244146706,-1.56987878964,0.000611691438557,-2.79069172888,-0.783665037655,0.436638158718,-0.00990043469611,0.0089103912265,0.00594026081766,0.017820782453,0.0168307389834,0.00297013040883,-0.0623323026649,0.0560990723984,0.0373993815989,0.112198144797,0.10596491453,0.0186996907995,2.5977017784e-05,-2.41013496787e-05,-1.52938637355e-05,-4.08492354063e-05,-3.41400121402e-05,-1.63057206967e-05,-0.000215141267153,0.00018864763885,0.000137523887269,0.000427125855015,0.000423534460898,-1.18781349664e-06,0.0,0.0,0.0,0.0,0.0,0.0,0.0,0.0,0.0,0.0,0.0,0.0,-0.696970649435,-0.946598323145,-1.43299264682,-1.72757231996,2.22157746308,0.151856027026
1455732143041889488,145,1455732143041536240,,0.302975416183,2.44244708308,-1.569884576,0.000608631786683,-2.7906958517,-0.783664449831,0.436627831635,-0.0102454247835,0.00921594311199,0.00615642715664,0.0184785026263,0.0174735622408,0.00300969522017,0.0,0.0,0.0,0.0,0.0,0.0,2.44242072986,-1.56986012615,0.000624133760024,-2.79065440191,-0.783629784411,0.436644379879,-0.0100305175753,0.0090274658178,0.0060183105452,0.0180549316356,0.0170518798781,0.0030091552726,-0.0626920910175,0.0564228819157,0.0376152546105,0.112845763831,0.10657655473,0.0188076273052,2.63532194826e-05,-2.44498499022e-05,-1.55019733412e-05,-4.14497888737e-05,-3.46654206124e-05,-1.65482436149e-05,-0.000214907208146,0.000188477294189,0.000138116611439,0.000423570990674,0.000421682362734,5.39947568549e-07,0.0,0.0,0.0,0.0,0.0,0.0,0.0,0.0,0.0,0.0,0.0,0.0,-0.706196301062,-0.924288077634,-1.41809894083,-1.71642874235,2.2224439427,0.15524090562
1455732143043987836,146,1455732143043616385,,0.305055379868,2.44242646045,-1.56986602478,0.000621022219855,-2.79065865497,-0.783629260598,0.436633891296,-0.0103771986208,0.00933528464541,0.00623400601537,0.0187182238921,0.0177156715396,0.00304996570171,0.0,0.0,0.0,0.0,0.0,0.0,2.44239973088,-1.56984122707,0.000636733149151,-2.79061660374,-0.783594086142,0.436650679573,-0.0101612880324,0.00914515922919,0.00609677281946,0.0182903184584,0.0172741896551,0.00304838640973,-0.0630507714636,0.0567456943173,0.0378304628782,0.113491388635,0.107186311488,0.0189152314391,2.67295779568e-05,-2.47977058354e-05,-1.57109292962e-05,-4.20512297361e-05,-3.51744560252e-05,-1.67882772565e-05,-0.00021591058838,0.000190125416219,0.00013723319591,0.000427905433753,0.000441481884447,1.57929198461e-06,0.0,0.0,0.0,0.0,0.0,0.0,0.0,0.0,0.0,0.0,0.0,0.0,-0.716612245492,-0.900107280327,-1.40206169713,-1.70457541583,2.22302285174,0.158653713624
1455732143046069844,147,1455732143045708185,,0.307147264481,2.44240557248,-1.56984723296,0.000633567774426,-2.7906209724,-0.783593584161,0.436640031126,-0.0105107787462,0.00945653259386,0.00631154855535,0.0189643511163,0.0179607646378,0.00308986458301,0.0,0.0,0.0,0.0,0.0,0.0,2.44237833642,-1.56982197206,0.000649569824645,-2.79057809372,-0.783557715561,0.436657097911,-0.0102935594525,0.00926420350726,0.00617613567151,0.0185284070145,0.0174990510693,0.00308806783575,-0.0634105574338,0.0570695016904,0.0380463344603,0.114139003381,0.107797947637,0.0190231672301,2.72360597466e-05,-2.52609018372e-05,-1.60020502194e-05,-4.28786812097e-05,-3.58686004139e-05,-1.70667847187e-05,-0.000217219293658,0.0001923290866,0.000135412883847,0.000435944101826,0.000461713568506,1.79674725607e-06,0.0,0.0,0.0,0.0,0.0,0.0,0.0,0.0,0.0,0.0,0.0,0.0,-0.725258317958,-0.88283321657,-1.39110320414,-1.6977213067,2.22296334341,0.160405283099
1455732143048181158,148,1455732143047796307,,0.309235334396,2.44238441559,-1.56982819744,0.00064627027407,-2.79058279494,-0.783557429597,0.436646250763,-0.010646110498,0.00957899082137,0.00639095108851,0.0192131036572,0.0181937993921,0.00312977239509,0.0,0.0,0.0,0.0,0.0,0.0,2.44235670425,-1.56980250311,0.000662549125701,-2.79053915581,-0.783520940875,0.436663587561,-0.0104263392476,0.00938370532285,0.00625580354857,0.0187674106457,0.0177247767209,0.00312790177428,-0.0637687377478,0.0573918639731,0.0382612426487,0.114783727946,0.108406854171,0.0191306213244,2.77113389293e-05,-2.56943300061e-05,-1.62788516316e-05,-4.36391296046e-05,-3.64887227098e-05,-1.73367982686e-05,-0.000219771250428,0.000195285498513,0.000135147539936,0.000445693011458,0.000469022671146,1.87062081001e-06,0.0,0.0,0.0,0.0,0.0,0.0,0.0,0.0,0.0,0.0,0.0,0.0,-0.735775630272,-0.863570390387,-1.37900082019,-1.69078336496,2.22284014298,0.162155250878
1455732143050363431,149,1455732143049873529,,0.311312675476,2.44236298641,-1.56980891613,0.000659134173573,-2.79054411914,-0.783520815246,0.43665255043,-0.0107830723777,0.00970231882566,0.00647294841487,0.019462699501,0.0184205518643,0.00316989461285,0.0,0.0,0.0,0.0,0.0,0.0,2.44233490734,-1.56978288589,0.000675627272117,-2.79049992137,-0.783483886126,0.436670126635,-0.0105591779712,0.00950326017412,0.00633550678274,0.0190065203482,0.0179506025511,0.00316775339137,-0.064124137008,0.0577117233072,0.0384744822048,0.115423446614,0.109011032914,0.0192372411024,2.80790667464e-05,-2.60302399826e-05,-1.6493098544e-05,-4.41977656935e-05,-3.69291196315e-05,-1.75762044686e-05,-0.000223894406422,0.000199058651549,0.00013744163213,0.000456179152794,0.000469949313148,2.14122147581e-06,0.0,0.0,0.0,0.0,0.0,0.0,0.0,0.0,0.0,0.0,0.0,0.0,-0.743364376925,-0.850804517038,-1.37124498087,-1.68687408781,2.22310029757,0.163085335672
1455732143052720963,150,1455732143051926005,,0.313364982605,2.44234128245,-1.56978938785,0.000672163980979,-2.7905049454,-0.783483743959,0.436658930718,-0.0109208868388,0.0098259547478,0.00655685899055,0.0197110386495,0.0186507355105,0.00321039350668,0.0,0.0,0.0,0.0,0.0,0.0,2.44231310137,-1.56976326052,0.000688710852028,-2.79046067063,-0.783446815983,0.436676668425,-0.0106911399058,0.0096220259152,0.00641468394347,0.0192440518304,0.0181749378398,0.00320734197173,-0.0644743327248,0.0580268994523,0.0386845996349,0.116053798905,0.109606365632,0.0193422998174,2.81810740477e-05,-2.61273362749e-05,-1.65468710492e-05,-4.42747672746e-05,-3.69279753367e-05,-1.77377063044e-05,-0.000229746933056,0.000203928832602,0.000142175047088,0.000466986819096,0.000475797670629,3.05153494349e-06,0.0,0.0,0.0,0.0,0.0,0.0,0.0,0.0,0.0,0.0,0.0,0.0,-0.745971799075,-0.847774775118,-1.36999012253,-1.68727007574,2.22359878452,0.162840505093
1455732143054479438,151,1455732143054020001,,0.315459012985,2.44231930328,-1.56976961294,0.000685362329639,-2.79046527945,-0.783446212563,0.436665392667,-0.0110582807477,0.00994895410923,0.00664148967019,0.0199549162406,0.0188806605479,0.00325155555962,0.0,0.0,0.0,0.0,0.0,0.0,2.44229057218,-1.56974298424,0.000702228366731,-2.79042011809,-0.783408516358,0.436683427182,-0.010826524411,0.00974387196987,0.00649591464658,0.0194877439397,0.0184050914987,0.00324795732329,-0.0648307054675,0.0583476349208,0.0388984232805,0.116695269842,0.110212199295,0.0194492116403,2.87310976335e-05,-2.66286994728e-05,-1.68660370917e-05,-4.51613564945e-05,-3.76962042711e-05,-1.80345145897e-05,-0.000231756336747,0.000205082139353,0.00014557502361,0.000467172300809,0.000475569049242,3.59823632401e-06,0.0,0.0,0.0,0.0,0.0,0.0,0.0,0.0,0.0,0.0,0.0,0.0,-0.74058146108,-0.859921754849,-1.3788045945,-1.6946368497,2.22389567053,0.160638690309
1455732143056510647,152,1455732143056097392,,0.317536592484,2.44229704906,-1.56974959153,0.000698729357032,-2.79042512499,-0.783408218119,0.43667193729,-0.0111959373985,0.0100724582629,0.00672553772268,0.0201995396332,0.0191137831314,0.0032930666797,0.0,0.0,0.0,0.0,0.0,0.0,2.44226793905,-1.56972261442,0.000715808247476,-2.79037937845,-0.78337004003,0.436690217122,-0.0109615818291,0.00986542364623,0.00657694909749,0.0197308472925,0.0186346891096,0.00328847454874,-0.0651833385197,0.0586650046678,0.0391100031118,0.117330009336,0.110811675484,0.0195550015559,2.91100140624e-05,-2.69771082184e-05,-1.7078890444e-05,-4.57465428561e-05,-3.81780893699e-05,-1.8279832723e-05,-0.000234355569382,0.000207034616651,0.000148588625188,0.000468692340724,0.000479094021847,4.59213095429e-06,0.0,0.0,0.0,0.0,0.0,0.0,0.0,0.0,0.0,0.0,0.0,0.0,-0.7494864531,-0.838731513799,-1.36488882409,-1.68441957621,2.22442337782,0.163709001467
1455732143058526506,153,1455732143058173181,,0.319612264633,2.44227451819,-1.56972932123,0.000712263069188,-2.79038447449,-0.783369747591,0.436678564738,-0.0113349339347,0.0101978474269,0.00680817443314,0.0204509591931,0.0193567443926,0.00333438173853,0.0,0.0,0.0,0.0,0.0,0.0,2.44224504573,-1.56970201043,0.000729544240095,-2.79033817047,-0.783331121384,0.436697085119,-0.0110972459007,0.00998752131062,0.00665834754042,0.0199750426212,0.0188653180312,0.00332917377021,-0.0655347135581,0.0589812422022,0.0393208281348,0.117962484404,0.111409013049,0.0196604140674,2.94724637602e-05,-2.73107914563e-05,-1.72811709066e-05,-4.63040218852e-05,-3.8626207598e-05,-1.8520380614e-05,-0.000237688034001,0.000210326116252,0.000149826892719,0.000475916571817,0.000491426361413,5.20796832004e-06,0.0,0.0,0.0,0.0,0.0,0.0,0.0,0.0,0.0,0.0,0.0,0.0,-0.754509166859,-0.825665906203,-1.35636179817,-1.67806080084,2.22484553733,0.165542817488
1455732143060577897,154,1455732143060248469,,0.321687459946,2.44225170854,-1.56970879916,0.000725961593166,-2.79034331808,-0.783330790974,0.436685274799,-0.0114747183309,0.0103242172619,0.00689034954525,0.020705455707,0.0195998735238,0.00337567949174,0.0,0.0,0.0,0.0,0.0,0.0,2.44222187541,-1.56968115715,0.000743446428988,-2.7902964639,-0.783291731849,0.436704036213,-0.0112336069266,0.0101102462339,0.00674016415596,0.0202204924679,0.0190971317752,0.00337008207798,-0.0658850750749,0.0592965675674,0.039531045045,0.118593135135,0.112004627627,0.0197655225225,2.9833126316e-05,-2.76420101071e-05,-1.74848358212e-05,-4.6854173664e-05,-3.90591248782e-05,-1.87614138302e-05,-0.000241111404343,0.000213971027966,0.000150185389293,0.000484963239113,0.00050274174856,5.59741375899e-06,0.0,0.0,0.0,0.0,0.0,0.0,0.0,0.0,0.0,0.0,0.0,0.0,-0.758230991146,-0.817637490993,-1.3514669003,-1.67542411172,2.22500605464,0.166186013466
1455732143062810083,155,1455732143062329763,,0.323768854141,2.4422286187,-1.56968802411,0.000739825791396,-2.79030165309,-0.783291354551,0.436692067778,-0.0116151138148,0.0104508323115,0.00697384868394,0.0209595354856,0.0198365488991,0.00341729879718,0.0,0.0,0.0,0.0,0.0,0.0,2.44219835088,-1.56965998507,0.000757561147704,-2.79025411975,-0.783251740146,0.436711093572,-0.0113711046371,0.0102339941734,0.00682266278227,0.0204679883468,0.0193308778831,0.00341133139114,-0.0662355470168,0.0596119923151,0.0397413282101,0.11922398463,0.112600429929,0.019870664105,3.02678253643e-05,-2.80390386083e-05,-1.77353563085e-05,-4.75333386207e-05,-3.96144054855e-05,-1.90257948995e-05,-0.000244009177641,0.000216838138142,0.000151185901675,0.0004915471388,0.000505671015998,5.96740604391e-06,0.0,0.0,0.0,0.0,0.0,0.0,0.0,0.0,0.0,0.0,0.0,0.0,-0.761874485437,-0.810708198319,-1.34733699295,-1.67388501394,2.22514637554,0.1665164715
1455732143064863394,156,1455732143064415662,,0.32585477829,2.44220524727,-1.56966699548,0.000753858717259,-2.79025948,-0.783251445628,0.436698944346,-0.0117563247135,0.0105777962552,0.00705907717919,0.0212135476445,0.0200723739199,0.00345926992741,0.0,0.0,0.0,0.0,0.0,0.0,2.44217448727,-1.56963850782,0.000771879316118,-2.79021116524,-0.783211172002,0.436718252657,-0.0115096324718,0.0103586692247,0.00690577948311,0.0207173384493,0.0195663752021,0.00345288974155,-0.0665858418474,0.0599272576627,0.0399515051084,0.119854515325,0.113195931141,0.0199757525542,3.07600008589e-05,-2.84876626622e-05,-1.80205988591e-05,-4.83147607317e-05,-4.02736265053e-05,-1.93083103818e-05,-0.000246692241702,0.000219127030544,0.000153297696084,0.00049620919516,0.000505998717781,6.38018585231e-06,0.0,0.0,0.0,0.0,0.0,0.0,0.0,0.0,0.0,0.0,0.0,0.0,-0.767597632313,-0.798784248318,-1.33976075972,-1.66946292012,2.22554857317,0.167754302785
1455732143066979517,157,1455732143066501196,,0.327940225601,2.44218159224,-1.56964571191,0.000768062903245,-2.79021679622,-0.783211056312,0.43670590497,-0.0118987029296,0.0107057758213,0.00714510880741,0.0214702351372,0.0203169428415,0.00350135412284,0.0,0.0,0.0,0.0,0.0,0.0,2.44215033949,-1.56961677482,0.000786367983734,-2.79016769924,-0.783170120777,0.43672549699,-0.0116488580972,0.0104839722874,0.0069893148583,0.0209679445749,0.0198030587652,0.00349465742915,-0.0669351167554,0.0602416050799,0.0401610700532,0.12048321016,0.113789698484,0.0200805350266,3.12527525765e-05,-2.89370920106e-05,-1.8305080489e-05,-4.90969808e-05,-4.09355346574e-05,-1.95920201398e-05,-0.000249844832428,0.000221803533843,0.000155793949116,0.000502290562291,0.000513884076354,6.69669369041e-06,0.0,0.0,0.0,0.0,0.0,0.0,0.0,0.0,0.0,0.0,0.0,0.0,-0.774576801527,-0.783623620625,-1.33002479965,-1.66296239029,2.2261039864,0.169605883773
1455732143069030963,158,1455732143068586932,,0.330025911331,2.44215765124,-1.56962417109,0.000782439162358,-2.79017359539,-0.783170169648,0.436712949746,-0.012042291078,0.0108350500536,0.00723115030486,0.0217305917461,0.0205697211079,0.00354342192437,0.0,0.0,0.0,0.0,0.0,0.0,2.44212589779,-1.56959477729,0.000801033001679,-2.79012370419,-0.783128569893,0.436732829499,-0.0117888271793,0.0106099444614,0.00707329630757,0.0212198889227,0.0200410062048,0.00353664815378,-0.0672834924275,0.0605551431848,0.0403700954565,0.12111028637,0.114381937127,0.0201850477283,3.17534551426e-05,-2.9393793052e-05,-1.8593839321e-05,-4.98912077491e-05,-4.15997548835e-05,-1.98797530647e-05,-0.000253463898735,0.000225105592218,0.00015785399729,0.00051070282335,0.000528714903113,6.77377059021e-06,0.0,0.0,0.0,0.0,0.0,0.0,0.0,0.0,0.0,0.0,0.0,0.0,-0.78076337582,-0.770481728817,-1.32179047236,-1.65761426768,2.22648504651,0.171060636705
1455732143071036855,159,1455732143070670021,,0.332109212875,2.44213342203,-1.56960237066,0.000796987682504,-2.79012987142,-0.783128778095,0.436720078744,-0.0121869267426,0.0109653741851,0.00731736984118,0.0219933816087,0.0208218312234,0.00358557574525,0.0,0.0,0.0,0.0,0.0,0.0,2.44210119185,-1.56957254194,0.000815856567561,-2.79007923349,-0.783086569789,0.436740241282,-0.0119293606405,0.0107364245765,0.00715761638431,0.0214728491529,0.0202799130889,0.00357880819215,-0.067630532986,0.0608674796874,0.0405783197916,0.121734959375,0.114971906076,0.0202891598958,3.22301804601e-05,-2.98287176375e-05,-1.88688850578e-05,-5.06379320426e-05,-4.22083058867e-05,-2.01625383364e-05,-0.000257566102112,0.0002289496086,0.000159753456871,0.000520532455778,0.000541918134491,6.76755309343e-06,0.0,0.0,0.0,0.0,0.0,0.0,0.0,0.0,0.0,0.0,0.0,0.0,-0.786325548557,-0.759282138136,-1.3149591302,-1.65367141605,2.22664407889,0.172064725856
1455732143073144330,160,1455732143072749408,,0.334188461304,2.44210890269,-1.56958030895,0.000811709434692,-2.79008562117,-0.783086888264,0.436727292317,-0.0123324059446,0.011096336029,0.00740438234719,0.0222568686593,0.0210679997925,0.0036279968354,0.0,0.0,0.0,0.0,0.0,0.0,2.4420762413,-1.56955008645,0.000830826895218,-2.79003432251,-0.783044153861,0.436747726446,-0.0120703406013,0.0108633065412,0.0072422043608,0.0217266130824,0.0205195790223,0.0036211021804,-0.0679759654841,0.0611783689357,0.0407855792905,0.122356737871,0.115559141323,0.0203927896452,3.26613938664e-05,-3.02224989082e-05,-1.91174605258e-05,-5.12986647441e-05,-4.27344032307e-05,-2.0434129584e-05,-0.000262065343227,0.000233029487783,0.000162177986389,0.000530255576857,0.000548420770207,6.89465500071e-06,0.0,0.0,0.0,0.0,0.0,0.0,0.0,0.0,0.0,0.0,0.0,0.0,-0.790585781588,-0.751028012885,-1.31007194339,-1.65135439064,2.2268052355,0.172612233564
1455732143075233453,161,1455732143074856817,,0.336295843124,2.44208409184,-1.56955798504,0.000826606260057,-2.79004084452,-0.783044509324,0.436734591127,-0.0124784432659,0.0112275738099,0.00749244301786,0.0225197835032,0.0213109404768,0.00367081381223,0.0,0.0,0.0,0.0,0.0,0.0,2.44205065328,-1.56952705724,0.000846179705762,-2.78998826407,-0.783000654231,0.436755402851,-0.0122139599858,0.0109925639873,0.00732837599151,0.0219851279745,0.0207637319759,0.00366418799575,-0.0683251216454,0.0614926094809,0.0409950729872,0.122985218962,0.116152706797,0.0204975364936,3.34385622303e-05,-3.0927804886e-05,-1.95734457052e-05,-5.25804442151e-05,-4.38550928374e-05,-2.08117242085e-05,-0.000264483280023,0.00023500982263,0.000164067026346,0.000534655528692,0.000547208500885,6.62581647472e-06,0.0,0.0,0.0,0.0,0.0,0.0,0.0,0.0,0.0,0.0,0.0,0.0,-0.793217817528,-0.745797588806,-1.30711353966,-1.65032411955,2.22714562856,0.172841478896
1455732143077324025,162,1455732143076936313,,0.338375329971,2.44205898755,-1.56953539735,0.000841679816865,-2.78999553841,-0.783001633707,0.43674197564,-0.012625851306,0.0113601151723,0.00758111378994,0.0227863242467,0.0215646766211,0.00371369862162,0.0,0.0,0.0,0.0,0.0,0.0,2.44202510654,-1.56950406517,0.000861507752718,-2.78994227993,-0.782957224765,0.436763066875,-0.0123563985921,0.0111207587329,0.00741383915524,0.0222415174657,0.0210058776065,0.00370691957762,-0.0686687191274,0.0618018472146,0.0412012314764,0.123603694429,0.116736822516,0.0206006157382,3.38810125848e-05,-3.13321863374e-05,-1.98279358532e-05,-5.32584773323e-05,-4.44089421141e-05,-2.10912352526e-05,-0.000269452713976,0.000239356439439,0.000167274634703,0.000544806780985,0.000558799014615,6.77904400099e-06,0.0,0.0,0.0,0.0,0.0,0.0,0.0,0.0,0.0,0.0,0.0,0.0,-0.805354317271,-0.719309968785,-1.28975570388,-1.63818811348,2.2278537911,0.176372599216
1455732143079418910,163,1455732143079015869,,0.340455055237,2.44203358714,-1.56951254322,0.000856930869497,-2.78994969532,-0.782958240534,0.436749445887,-0.0127745594103,0.0114940144484,0.00766993884175,0.0230567634681,0.0218284961988,0.00375654910825,0.0,0.0,0.0,0.0,0.0,0.0,2.44199925987,-1.56948080317,0.000877015752615,-2.78989575593,-0.782913285432,0.436770820875,-0.0124995671912,0.0112496104721,0.00749974031475,0.0224992209442,0.0212492642251,0.00374987015737,-0.0690114258441,0.0621102832597,0.0414068555064,0.124220566519,0.117319423935,0.0207034277532,3.43272683629e-05,-3.17400565617e-05,-2.00848831182e-05,-5.39393893075e-05,-4.49551023347e-05,-2.13749874711e-05,-0.000274992219005,0.000244403976313,0.000170198526999,0.000557542523879,0.000579231973715,6.67895087109e-06,0.0,0.0,0.0,0.0,0.0,0.0,0.0,0.0,0.0,0.0,0.0,0.0,-0.807304392451,-0.715291896098,-1.28765669489,-1.63751106651,2.22818235352,0.176430599309
1455732143081449770,164,1455732143081096283,,0.342535257339,2.44200788916,-1.56948942132,0.000872360174228,-2.78990331308,-0.782914328429,0.436757002268,-0.0129234245418,0.0116278911196,0.00775936588943,0.0233254824235,0.0220836089578,0.00379983160558,0.0,0.0,0.0,0.0,0.0,0.0,2.44197310868,-1.5694572671,0.000892706464934,-2.7898486838,-0.782868828413,0.436778666231,-0.0126434806298,0.0113791325668,0.00758608837787,0.0227582651336,0.0214939170706,0.00379304418894,-0.0693532813305,0.0624179531975,0.0416119687983,0.124835906395,0.117900578262,0.0208059843992,3.47804716094e-05,-3.21542194719e-05,-2.03462907058e-05,-5.46292803723e-05,-4.55000154148e-05,-2.16639629167e-05,-0.000279943912017,0.000248758552782,0.000173277511559,0.000567217289916,0.000589691887199,6.78741664725e-06,0.0,0.0,0.0,0.0,0.0,0.0,0.0,0.0,0.0,0.0,0.0,0.0,-0.80831442445,-0.71389447212,-1.28744466745,-1.6387760065,2.22817760128,0.175927528637
1455732143083541466,165,1455732143083175791,,0.344614982605,2.44198189327,-1.56946603176,0.000887969266753,-2.78985639535,-0.782869917186,0.436764645797,-0.0130724609997,0.0117616643799,0.00784972663608,0.02359224352,0.0223276337119,0.00384369689167,0.0,0.0,0.0,0.0,0.0,0.0,2.44194666349,-1.56943346642,0.000908573583359,-2.78980108244,-0.782823871578,0.43678659979,-0.0127880709975,0.0115092638977,0.00767284259849,0.0230185277955,0.0217397206957,0.00383642129925,-0.0696941295891,0.0627247166302,0.0418164777534,0.12544943326,0.118480020301,0.0209082388767,3.52297834429e-05,-3.25653416102e-05,-2.06043166056e-05,-5.53129097045e-05,-4.60456082833e-05,-2.1953993632e-05,-0.000284390002248,0.000252400482188,0.00017688403759,0.00057371572457,0.000587913016141,7.27559242654e-06,0.0,0.0,0.0,0.0,0.0,0.0,0.0,0.0,0.0,0.0,0.0,0.0,-0.810311158329,-0.70913500335,-1.28474062515,-1.63786346311,2.22837783889,0.176164720184
1455732143085614984,166,1455732143085253503,,0.346692562103,2.44195559894,-1.56944237432,0.000903759373425,-2.78980894374,-0.782825016024,0.436772377446,-0.0132218712187,0.0118957791039,0.00794038003521,0.023859364061,0.0225735289075,0.00388795245488,0.0,0.0,0.0,0.0,0.0,0.0,2.4419199446,-1.56940941942,0.000924604917501,-2.78975298844,-0.782778449465,0.436794615457,-0.0129332189944,0.0116398970949,0.00775993139662,0.0232797941899,0.0219864722904,0.00387996569831,-0.070033699579,0.0630303296211,0.0420202197474,0.126060659242,0.119057289284,0.0210101098737,3.56543414615e-05,-3.29548993396e-05,-2.08455440763e-05,-5.59553045498e-05,-4.65665590665e-05,-2.22380113565e-05,-0.000288652224315,0.000255882008979,0.000180448638589,0.00057956987114,0.000587056617075,7.98675656711e-06,0.0,0.0,0.0,0.0,0.0,0.0,0.0,0.0,0.0,0.0,0.0,0.0,-0.812955025806,-0.70179726216,-1.28011656168,-1.63496300369,2.22896049534,0.177051186666
1455732143087830426,167,1455732143087338960,,0.348778009415,2.44192900534,-1.569418448,0.000919730451582,-2.78976095607,-0.782779612434,0.436780197801,-0.0133717286213,0.0120305354928,0.00803069812262,0.024128308215,0.0228300608756,0.00393240302063,0.0,0.0,0.0,0.0,0.0,0.0,2.44189282051,-1.56938500774,0.000940879368376,-2.78970416509,-0.78273233852,0.436802752683,-0.013079625195,0.0117716626755,0.00784777511699,0.023543325351,0.0222353628315,0.0039238875585,-0.0703736248676,0.0633362623809,0.0422241749206,0.126672524762,0.119635162275,0.0211120874603,3.6184826413e-05,-3.34402610551e-05,-2.11489167932e-05,-5.67909848983e-05,-4.72739134283e-05,-2.25548813184e-05,-0.000292103426343,0.000258872817283,0.00018292300563,0.000584982864023,0.000594698044127,8.51546213667e-06,0.0,0.0,0.0,0.0,0.0,0.0,0.0,0.0,0.0,0.0,0.0,0.0,-0.815506940341,-0.694419947003,-1.27547154626,-1.63193802295,2.2295778474,0.177952361657
1455732143089988345,168,1455732143089433809,,0.350872993469,2.44190211125,-1.56939425121,0.000935881860622,-2.78971242752,-0.782733687664,0.436788107128,-0.0135223554737,0.0121662567983,0.0081207109167,0.0244002452406,0.0230947089336,0.00397692379011,0.0,0.0,0.0,0.0,0.0,0.0,2.44186526422,-1.56936020708,0.000957413141744,-2.78965456377,-0.782685492829,0.436811019569,-0.0132274136957,0.0119046723262,0.00793644821743,0.0238093446523,0.0224866032827,0.00396822410872,-0.070714166551,0.0636427498959,0.0424284999306,0.127285499792,0.120214083137,0.0212142499653,3.68470312653e-05,-3.40441288167e-05,-2.15312811224e-05,-5.7863751548e-05,-4.81948348299e-05,-2.29124411919e-05,-0.000294941777961,0.000261584472144,0.000184262699267,0.00059090058834,0.000608105650889,8.69968139499e-06,0.0,0.0,0.0,0.0,0.0,0.0,0.0,0.0,0.0,0.0,0.0,0.0,-0.821449935549,-0.680108237575,-1.26623976166,-1.62577030242,2.22998691721,0.17971581433
1455732143092008328,169,1455732143091528509,,0.352967500687,2.44187491447,-1.56936978148,0.000952213457378,-2.7896633503,-0.782687230586,0.436796105424,-0.0136744250917,0.0123034723811,0.00821088583912,0.0246769767669,0.0233623693135,0.00402137236929,0.0,0.0,0.0,0.0,0.0,0.0,2.44183740395,-1.56933513284,0.000974129304944,-2.78960441528,-0.782638130367,0.436819377651,-0.0133758807606,0.0120382926845,0.00802552845634,0.024076585369,0.022738997293,0.00401276422817,-0.071053691564,0.0639483224076,0.0426322149384,0.127896644815,0.120791275659,0.0213161074692,3.75105226991e-05,-3.46486444365e-05,-2.19158475661e-05,-5.89350191387e-05,-4.91002189813e-05,-2.32722266323e-05,-0.000298544331088,0.00026517969654,0.000185357382773,0.000600391397826,0.000623372020492,8.60814112056e-06,0.0,0.0,0.0,0.0,0.0,0.0,0.0,0.0,0.0,0.0,0.0,0.0,-0.830908714793,-0.659107192201,-1.25260670857,-1.61666297881,2.23024497809,0.18226703622
1455732143094153003,170,1455732143093622118,,0.355061292648,2.44184741191,-1.56934503585,0.000968726231865,-2.78961371533,-0.782640238879,0.436804192563,-0.0138281416892,0.0124421583769,0.00830188864862,0.0249579907049,0.0236293371338,0.00406576629671,0.0,0.0,0.0,0.0,0.0,0.0,2.44180924164,-1.56930978676,0.000991026689465,-2.78955372312,-0.782590254444,0.436827826343,-0.0135250069165,0.0121725062249,0.00811500414992,0.0243450124498,0.0229925117581,0.00405750207496,-0.0713921628021,0.0642529465219,0.0428352976812,0.128505893044,0.121366676764,0.0214176488406,3.81702634544e-05,-3.52490904612e-05,-2.23004576001e-05,-5.99922052325e-05,-4.99844353457e-05,-2.36337802271e-05,-0.000303134772695,0.000269652152004,0.000186884498699,0.000612978255129,0.000636825375658,8.26422175393e-06,0.0,0.0,0.0,0.0,0.0,0.0,0.0,0.0,0.0,0.0,0.0,0.0,-0.839172651963,-0.642147081749,-1.24185955358,-1.61010416764,2.23045212399,0.184002805033
1455732143096132530,171,1455732143095706440,,0.357145547867,2.44181960059,-1.56932001193,0.000985422505746,-2.78956351674,-0.782592715166,0.436812368645,-0.0139831748434,0.0125817585536,0.00839438523222,0.0252406010047,0.0238943763732,0.00411031604173,0.0,0.0,0.0,0.0,0.0,0.0,2.44178089677,-1.56928427637,0.00100803361611,-2.78950270234,-0.782542068152,0.436836329807,-0.0136741567195,0.0123067410475,0.00820449403169,0.0246134820951,0.0232460664231,0.00410224701585,-0.0717281618434,0.0645553456591,0.0430368971061,0.129110691318,0.121937875134,0.021518448553,3.87038246608e-05,-3.57355634952e-05,-2.26111103625e-05,-6.08143934522e-05,-5.06470139944e-05,-2.39611612103e-05,-0.000309018123882,0.000275017506109,0.000189891200524,0.000627118909641,0.000648309950087,8.06902588609e-06,0.0,0.0,0.0,0.0,0.0,0.0,0.0,0.0,0.0,0.0,0.0,0.0,-0.845618806721,-0.630102522593,-1.2345461294,-1.6063694295,2.2307261453,0.184906804856
1455732143098245007,172,1455732143097794559,,0.359233617783,2.44179147854,-1.56929470862,0.00100230541435,-2.78951275432,-0.782544663761,0.436820634259,-0.0141388715768,0.012721557487,0.00848852336992,0.0255218104784,0.0241570287925,0.00415529747475,0.0,0.0,0.0,0.0,0.0,0.0,2.44175218756,-1.56925843808,0.00102525914094,-2.78945102577,-0.782493262498,0.436844942569,-0.0138242807639,0.0124418526875,0.00829456845833,0.024883705375,0.0235012772986,0.00414728422917,-0.0720638456164,0.0648574610547,0.0432383073698,0.129714922109,0.122508537548,0.0216191536849,3.92909862947e-05,-3.6270534703e-05,-2.29537265926e-05,-6.17285564659e-05,-5.140126252e-05,-2.430831011e-05,-0.000314590812869,0.000279704799496,0.000193954911591,0.000638105103453,0.000655751493873,8.01324558353e-06,0.0,0.0,0.0,0.0,0.0,0.0,0.0,0.0,0.0,0.0,0.0,0.0,-0.847443587194,-0.627653132423,-1.23367394,-1.60729388052,2.23103524311,0.184496644384
1455732143100356632,173,1455732143099916126,,0.361355304718,2.44176304476,-1.56926912561,0.00101937756893,-2.78946143102,-0.782496087229,0.436828990336,-0.0142949107334,0.0128614464738,0.00858363120903,0.025801490428,0.024419502806,0.00420077912708,0.0,0.0,0.0,0.0,0.0,0.0,2.44172269431,-1.56923189416,0.00104295509151,-2.78939793792,-0.782443123971,0.436853790544,-0.0139775386836,0.0125797848153,0.00838652321017,0.0251595696305,0.0237618157622,0.00419326160509,-0.0724039808244,0.065163582742,0.0434423884947,0.130327165484,0.123086767402,0.0217211942473,4.03504549413e-05,-3.72314566033e-05,-2.35775225876e-05,-6.34931072816e-05,-5.29632575478e-05,-2.48002087951e-05,-0.000317372049746,0.000281661658524,0.000197107998857,0.000641920797466,0.000657687043842,7.51752199619e-06,0.0,0.0,0.0,0.0,0.0,0.0,0.0,0.0,0.0,0.0,0.0,0.0,-0.850453618247,-0.621061561769,-1.22986012458,-1.60551966941,2.23147004128,0.184972757266
1455732143102479018,174,1455732143102004514,,0.363443613052,2.44173429711,-1.56924326082,0.00103663970425,-2.78940954194,-0.782446971229,0.436837437254,-0.0144527419213,0.0130033480375,0.00867850410879,0.0260875904713,0.0246964968428,0.00424613920387,0.0,0.0,0.0,0.0,0.0,0.0,2.44169334677,-1.56920548138,0.00106056361034,-2.78934511236,-0.782393233168,0.436862594804,-0.0141290892696,0.0127161803427,0.00847745356177,0.0254323606853,0.0240194517584,0.00423872678089,-0.0727378277459,0.0654640449713,0.0436426966476,0.130928089943,0.123654307168,0.0218213483238,4.09503336627e-05,-3.77794403306e-05,-2.39239060955e-05,-6.44295828596e-05,-5.37380612387e-05,-2.5157549877e-05,-0.000323652651717,0.000287167694802,0.000201050547015,0.000655229786006,0.000677045084417,7.41242298793e-06,0.0,0.0,0.0,0.0,0.0,0.0,0.0,0.0,0.0,0.0,0.0,0.0,-0.866336276936,-0.58538722022,-1.20632377829,-1.5884749311,2.23224108081,0.18995232564
1455732143104556760,175,1455732143104092790,,0.365531921387,2.44170523211,-1.56921711026,0.00105409104902,-2.7893570744,-0.782397291634,0.436845974648,-0.0146122582907,0.0131472085947,0.00877284066489,0.0263799535057,0.0249830986321,0.00429125481603,0.0,0.0,0.0,0.0,0.0,0.0,2.44166368203,-1.56917878311,0.00107836245615,-2.78929171582,-0.782342803105,0.436871494227,-0.0142813360607,0.0128532024546,0.00856880163642,0.0257064049093,0.0242782713032,0.00428440081821,-0.0730707455942,0.0657636710348,0.0438424473565,0.13152734207,0.12422026751,0.0219212236783,4.15500764617e-05,-3.83271524083e-05,-2.42714071285e-05,-6.53585763022e-05,-5.44885288827e-05,-2.55195787605e-05,-0.000330922229997,0.000294006140079,0.000204039028466,0.000673548596396,0.000704827328913,6.85399782261e-06,0.0,0.0,0.0,0.0,0.0,0.0,0.0,0.0,0.0,0.0,0.0,0.0,-0.868401461337,-0.581052749102,-1.20412377792,-1.58780874386,2.23246603993,0.189940943959
1455732143106601662,176,1455732143106178925,,0.367618083954,2.441675848,-1.56919067221,0.00107173199941,-2.78930402494,-0.782347053524,0.436854602776,-0.0147718531252,0.0132908430264,0.00886810972541,0.0266695031089,0.0252550115218,0.00433687372607,0.0,0.0,0.0,0.0,0.0,0.0,2.4416337296,-1.56915182592,0.0010963339166,-2.78923780144,-0.782291883967,0.436880479957,-0.0144341196126,0.0129907076514,0.00866047176758,0.0259814153027,0.0245380033415,0.00433023588379,-0.0734023944574,0.0660621550117,0.0440414366744,0.132124310023,0.124784070578,0.0220207183372,4.21183991279e-05,-3.88462914611e-05,-2.46019171874e-05,-6.62235010354e-05,-5.51695566681e-05,-2.58771804429e-05,-0.00033773351255,0.000300135375076,0.000207637957828,0.000688087806187,0.000717008180353,6.63784227962e-06,0.0,0.0,0.0,0.0,0.0,0.0,0.0,0.0,0.0,0.0,0.0,0.0,-0.868779008954,-0.581809194473,-1.2055194441,-1.59082300415,2.23234106695,0.188864596976
1455732143108703558,177,1455732143108263076,,0.369702100754,2.44164614478,-1.56916394754,0.00108956532693,-2.78925040081,-0.78229628671,0.43686332296,-0.014931367155,0.0134338312812,0.00896521779206,0.026954633512,0.0255118025409,0.00438330980351,0.0,0.0,0.0,0.0,0.0,0.0,2.44160348901,-1.56912460939,0.0011144782676,-2.78918336839,-0.782240474973,0.436889552132,-0.0145874358586,0.0131286922727,0.00875246151513,0.0262573845454,0.0247986409595,0.00437623075757,-0.0737327779266,0.0663595001339,0.0442396667559,0.132719000268,0.125345722475,0.022119833378,4.26557638535e-05,-3.93381436592e-05,-2.49129406737e-05,-6.70324174257e-05,-5.5811737116e-05,-2.62291724152e-05,-0.000343931296487,0.000305139008475,0.000212756276929,0.000697248966564,0.000713161581374,7.07904594241e-06,0.0,0.0,0.0,0.0,0.0,0.0,0.0,0.0,0.0,0.0,0.0,0.0,-0.869153863285,-0.580851288979,-1.20542192467,-1.59226487492,2.23256138319,0.188412093294
1455732143110795349,178,1455732143110350578,,0.371789693832,2.44161612253,-1.56913693704,0.00110759356558,-2.78919620801,-0.782245003524,0.436872136616,-0.015090883078,0.0135766635135,0.00906302086329,0.0272381653977,0.0257713832819,0.00443034657152,0.0,0.0,0.0,0.0,0.0,0.0,2.44157287548,-1.56909705721,0.00113284638883,-2.78912826402,-0.782188431962,0.436898736193,-0.0147417045354,0.0132675340819,0.00884502272126,0.0265350681638,0.0250608977102,0.00442251136063,-0.0740628029114,0.0666565226202,0.0444376817468,0.13331304524,0.125906764949,0.0222188408734,4.32470490095e-05,-3.98798307142e-05,-2.52528232516e-05,-6.79439822155e-05,-5.65715614541e-05,-2.65995766568e-05,-0.000349178542547,0.000309129431657,0.000217998142035,0.000703097233967,0.000710485571639,7.83521088967e-06,0.0,0.0,0.0,0.0,0.0,0.0,0.0,0.0,0.0,0.0,0.0,0.0,-0.869743461838,-0.577212810648,-1.20323415405,-1.59114902622,2.23328056816,0.188829158275
1455732143112888838,179,1455732143112438609,,0.373877763748,2.44158578093,-1.5691096402,0.00112581658124,-2.78914144589,-0.782193185643,0.43688104455,-0.0152507167905,0.0137201768394,0.00915999479705,0.0275239540812,0.0260464972574,0.0044775872848,0.0,0.0,0.0,0.0,0.0,0.0,2.44154193207,-1.56906920815,0.00115141243325,-2.78907256589,-0.78213582817,0.436908019215,-0.0148966966769,0.0134070270092,0.00893801800611,0.0268140540183,0.0253243843507,0.00446900900306,-0.0743919774638,0.0669527797174,0.0446351864783,0.133905559435,0.126466361688,0.0223175932391,4.38488565013e-05,-4.04320569856e-05,-2.55958520075e-05,-6.88799959851e-05,-5.73574734275e-05,-2.69746650087e-05,-0.000354020113663,0.000313149830274,0.000221976790938,0.000709900062823,0.000722112906794,8.57828174096e-06,0.0,0.0,0.0,0.0,0.0,0.0,0.0,0.0,0.0,0.0,0.0,0.0,-0.872880578512,-0.567108190606,-1.19666314319,-1.58634199374,2.23406512891,0.190314917986
1455732143115076564,180,1455732143114533011,,0.375972032547,2.44155511898,-1.56908205519,0.00114423238005,-2.78908610814,-0.782140807657,0.436890046959,-0.0154112291975,0.0138648331548,0.00925580401349,0.0278137962602,0.0263314887322,0.00452482177634,0.0,0.0,0.0,0.0,0.0,0.0,2.441510571,-1.56904098318,0.00117022907409,-2.78901611597,-0.782082514354,0.436917427536,-0.0150528383767,0.013547554539,0.009031703026,0.027095109078,0.0255898252403,0.004515851513,-0.0747211999331,0.0672490799398,0.0448327199599,0.13449815988,0.127026039886,0.0224163599799,4.45479785847e-05,-4.10720082555e-05,-2.59966940397e-05,-6.99921681724e-05,-5.82933031589e-05,-2.73805763689e-05,-0.000358390820783,0.00031727861583,0.000224100987489,0.000718687182188,0.0007416634919,8.97026333474e-06,0.0,0.0,0.0,0.0,0.0,0.0,0.0,0.0,0.0,0.0,0.0,0.0,-0.877149145118,-0.555168354048,-1.18899120869,-1.58110171398,2.23444846064,0.191814808485
1455732143117132130,181,1455732143116626571,,0.37806558609,2.44152413497,-1.56905417969,0.00116283957304,-2.78903018689,-0.782087862306,0.436899143848,-0.0155727768701,0.014010666632,0.00935138896997,0.0281074521045,0.0266138626407,0.00457206668536,0.0,0.0,0.0,0.0,0.0,0.0,2.44147889309,-1.56901247306,0.00118923582206,-2.78895909572,-0.782028661902,0.43692693091,-0.0152096149034,0.0136886534131,0.00912576894204,0.0273773068261,0.0258563453358,0.00456288447102,-0.075049380495,0.0675444424455,0.045029628297,0.135088884891,0.127583946842,0.0225148141485,4.52418857937e-05,-4.17066304175e-05,-2.63962490221e-05,-7.10911637052e-05,-5.92004043561e-05,-2.77870618902e-05,-0.000363161966748,0.000322013218967,0.00022562002793,0.00073014527842,0.000757517304891,9.18221434169e-06,0.0,0.0,0.0,0.0,0.0,0.0,0.0,0.0,0.0,0.0,0.0,0.0,-0.88417629681,-0.538708139787,-1.17841275135,-1.57438511551,2.23456540084,0.193660420113
1455732143119155369,182,1455732143118714531,,0.380153656006,2.44149282666,-1.56902601156,0.00118163893636,-2.7889736758,-0.782034358299,0.436908335349,-0.0157355394035,0.0141574631022,0.00944797435872,0.0284036335774,0.0268901444215,0.00461943428276,0.0,0.0,0.0,0.0,0.0,0.0,2.4414469705,-1.56898374273,0.00120838937345,-2.78890163507,-0.781974393506,0.436936507685,-0.0153666641865,0.0138299977679,0.00921999851192,0.0276599955358,0.0261233291171,0.00460999925596,-0.0753757765331,0.0678381988798,0.0452254659198,0.13567639776,0.128138820106,0.0226127329599,4.58561551802e-05,-4.22688277777e-05,-2.67504370897e-05,-7.20407322121e-05,-5.99647929167e-05,-2.81723366202e-05,-0.000368875216918,0.000327465334362,0.000227975846794,0.000743638041668,0.000766815304428,9.43502680162e-06,0.0,0.0,0.0,0.0,0.0,0.0,0.0,0.0,0.0,0.0,0.0,0.0,-0.890540006496,-0.525034970482,-1.16979655576,-1.56954606857,2.23475727097,0.194922755236
1455732143121275396,183,1455732143120804787,,0.382243871689,2.44146119199,-1.56899754947,0.00120063310503,-2.78891657249,-0.781980304,0.436917621912,-0.0158991252737,0.0143046281625,0.00954619430945,0.0286996747149,0.0271641547907,0.00466712901667,0.0,0.0,0.0,0.0,0.0,0.0,2.44141468596,-1.56895468665,0.00122776009645,-2.7888435229,-0.781919509791,0.436946193047,-0.0155245564813,0.0139721008332,0.00931473388879,0.0279442016664,0.0263917460182,0.00465736694439,-0.0757015835891,0.0681314252301,0.0454209501534,0.13626285046,0.128692692101,0.0227104750767,4.65060288355e-05,-4.28628210118e-05,-2.71269914209e-05,-7.30495929173e-05,-6.07942088693e-05,-2.85711348204e-05,-0.000374568792417,0.0003325273293,0.000231460420658,0.000755473048575,0.000772408772481,9.76207228039e-06,0.0,0.0,0.0,0.0,0.0,0.0,0.0,0.0,0.0,0.0,0.0,0.0,-0.893830886011,-0.518581328731,-1.16609910071,-1.56842622765,2.23514319046,0.195117815939
1455732143123355815,184,1455732143122893017,,0.384332180023,2.44142922959,-1.56896879283,0.00121982505337,-2.78885887792,-0.781925697946,0.436927004263,-0.0160632773323,0.014452012644,0.0096457540226,0.028994903642,0.0274418984311,0.00471522232882,0.0,0.0,0.0,0.0,0.0,0.0,2.4413821006,-1.56892535982,0.00124731131562,-2.78878486924,-0.78186411467,0.436955968656,-0.0156829838085,0.0141146854276,0.00940979028507,0.0282293708552,0.0266610724744,0.00470489514254,-0.0760261704721,0.0684235534249,0.0456157022833,0.13684710685,0.129244489803,0.0228078511416,4.71289915094e-05,-4.34330089574e-05,-2.74862622567e-05,-7.40086720641e-05,-6.1583276623e-05,-2.89643930588e-05,-0.00038029352384,0.000337327216386,0.000235963737526,0.00076553278682,0.000780825956689,1.03271862797e-05,0.0,0.0,0.0,0.0,0.0,0.0,0.0,0.0,0.0,0.0,0.0,0.0,-0.897582454712,-0.5104036289,-1.16120864911,-1.56607868717,2.23568280806,0.195732182738
1455732143125527074,185,1455732143125006861,,0.386445999146,2.44139693832,-1.5689397409,0.00123921649646,-2.78880059226,-0.781870530943,0.436936483099,-0.0162279948232,0.014599920497,0.00974568907145,0.0292907520099,0.0277251051428,0.00476361355105,0.0,0.0,0.0,0.0,0.0,0.0,2.44134877951,-1.56889537084,0.00126730396751,-2.78872489129,-0.781807468823,0.436965964982,-0.0158440358054,0.0142596322248,0.00950642148323,0.0285192644497,0.0269348608692,0.00475321074162,-0.076353783843,0.0687184054587,0.0458122703058,0.137436810917,0.129801432533,0.0229061351529,4.81588058308e-05,-4.43700536457e-05,-2.80874710488e-05,-7.57009720704e-05,-6.30621200599e-05,-2.9481883122e-05,-0.000383959017852,0.000340288272141,0.00023926758822,0.000771487560249,0.000790244273647,1.04028094331e-05,0.0,0.0,0.0,0.0,0.0,0.0,0.0,0.0,0.0,0.0,0.0,0.0,-0.90067500996,-0.502515006449,-1.15645698173,-1.56341599106,2.23615359711,0.19645653424
1455732143127518037,186,1455732143127092062,,0.388531208038,2.44136431604,-1.56891039132,0.00125880736068,-2.78874170899,-0.781814787905,0.436946058584,-0.0163942853582,0.0147496586048,0.00984517515408,0.0295925227282,0.0280179325109,0.00481187129761,0.0,0.0,0.0,0.0,0.0,0.0,2.44131557516,-1.56886548692,0.00128722658042,-2.78866512345,-0.78175102142,0.436975926289,-0.0160035855381,0.0144032269843,0.00960215132284,0.0288064539685,0.0272060954147,0.00480107566142,-0.0766760384767,0.0690084346291,0.046005623086,0.138016869258,0.13034926541,0.023002811543,4.87408805032e-05,-4.49043939126e-05,-2.84192197358e-05,-7.65855360694e-05,-6.37664856582e-05,-2.98677047296e-05,-0.000390699820169,0.000346431620497,0.000243023831239,0.000786068759692,0.000811837096216,1.07956361922e-05,0.0,0.0,0.0,0.0,0.0,0.0,0.0,0.0,0.0,0.0,0.0,0.0,-0.914310781344,-0.471457312581,-1.13608556774,-1.54896155316,2.23672057567,0.200623280462
1455732143129633983,187,1455732143129174773,,0.390613794327,2.44133135986,-1.56888074082,0.00127859701002,-2.78868221789,-0.781758457894,0.436955730501,-0.0165618968649,0.0149008435161,0.00994447417639,0.029898575668,0.0283120783254,0.0048600451589,0.0,0.0,0.0,0.0,0.0,0.0,2.4412820798,-1.5688353411,0.0013073237954,-2.7886048318,-0.78169407931,0.436985974896,-0.0161636043491,0.0145472439142,0.00969816260948,0.0290944878284,0.0274781273935,0.00484908130474,-0.0769969720318,0.0692972748286,0.0461981832191,0.138594549657,0.130894852454,0.0230990916095,4.92800565834e-05,-4.53997142649e-05,-2.87267853873e-05,-7.73860826193e-05,-6.43785839377e-05,-3.02443957641e-05,-0.000398292515797,0.000353599601898,0.000246311566918,0.000804087839605,0.000833950931868,1.09638541575e-05,0.0,0.0,0.0,0.0,0.0,0.0,0.0,0.0,0.0,0.0,0.0,0.0,-0.915115468487,-0.469669221394,-1.13561942557,-1.54988989481,2.23683951203,0.200130366073
1455732143131663529,188,1455732143131260530,,0.392699718475,2.44129806868,-1.56885078858,0.00129858645452,-2.78862211893,-0.781701555641,0.436965499401,-0.016729277127,0.0150513953879,0.0100449703235,0.0302003834939,0.028590175583,0.00490885484144,0.0,0.0,0.0,0.0,0.0,0.0,2.441248196,-1.56880484569,0.00132765407254,-2.78854384097,-0.781636476859,0.436996140035,-0.0163245486538,0.0146920937884,0.00979472919229,0.0293841875769,0.0277517327115,0.00489736459614,-0.0773175032961,0.0695857529665,0.0463905019777,0.139171505933,0.131439755603,0.0231952509888,4.9872677816e-05,-4.59428910624e-05,-2.90676180218e-05,-7.82779548603e-05,-6.50787819101e-05,-3.0640634331e-05,-0.000404728473223,0.000359301599469,0.000250241131234,0.000816195917049,0.000838442871511,1.14902452915e-05,0.0,0.0,0.0,0.0,0.0,0.0,0.0,0.0,0.0,0.0,0.0,0.0,-0.913658135869,-0.473624256544,-1.13908472111,-1.55443861143,2.23683547481,0.198635579107
1455732143133822447,189,1455732143133355308,,0.394794464111,2.44126444292,-1.56882053587,0.00131877847379,-2.78856142039,-0.781644105638,0.43697536669,-0.0168964898417,0.0152013114774,0.0101470489523,0.0304981583613,0.0288598270749,0.00495843466177,0.0,0.0,0.0,0.0,0.0,0.0,2.44121383036,-1.56877391661,0.00134827345952,-2.78848198281,-0.781578055262,0.437006449728,-0.016486845487,0.0148381609383,0.00989210729222,0.0296763218767,0.028027637328,0.00494605364611,-0.0776384676154,0.0698746208539,0.0465830805693,0.139749241708,0.131985394946,0.0232915402846,5.06125558259e-05,-4.66192646777e-05,-2.94949857333e-05,-7.94375739663e-05,-6.60503757161e-05,-3.10830383214e-05,-0.000409644354683,0.000363150539106,0.000254941660034,0.000821836484678,0.000832189746912,1.23810156555e-05,0.0,0.0,0.0,0.0,0.0,0.0,0.0,0.0,0.0,0.0,0.0,0.0,-0.914837126185,-0.469740339804,-1.13690587212,-1.55408981951,2.23730250628,0.198750066907
1455732143135885133,190,1455732143135439177,,0.396878242493,2.44123048207,-1.56878998259,0.00133917474124,-2.78850012409,-0.781586102987,0.436985333379,-0.0170643584863,0.0153519674503,0.0102492184949,0.0307981363113,0.0291428241802,0.00500825433678,0.0,0.0,0.0,0.0,0.0,0.0,2.44117930664,-1.56874284526,0.00136898769213,-2.78841984011,-0.781519364936,0.437016806845,-0.0166489587097,0.0149840628387,0.00998937522579,0.0299681256774,0.0283032298064,0.0049946876129,-0.0779568350393,0.0701611515354,0.0467741010236,0.140322303071,0.132526619567,0.0233870505118,5.11754285153e-05,-4.71373346658e-05,-2.98129508966e-05,-8.02839771255e-05,-6.67380501905e-05,-3.14734656281e-05,-0.000415399776667,0.000367904611586,0.000259843269087,0.0008300106339,0.000839594373807,1.35667238833e-05,0.0,0.0,0.0,0.0,0.0,0.0,0.0,0.0,0.0,0.0,0.0,0.0,-0.92096710317,-0.453213813649,-1.12599716524,-1.54627865392,2.23820746623,0.201113553122
1455732143137956444,191,1455732143137496598,,0.39893579483,2.44119618475,-1.56875912684,0.00135977429092,-2.78843822371,-0.781527519296,0.436995399659,-0.0172329547799,0.0155037838636,0.0103503311846,0.0311022442526,0.0294408665222,0.00505802538104,0.0,0.0,0.0,0.0,0.0,0.0,2.4411448853,-1.56871186605,0.00138964049687,-2.7883578817,-0.781460848656,0.437027133247,-0.0168096816151,0.0151287134536,0.0100858089691,0.0302574269072,0.0285764587457,0.00504290448453,-0.0782702994013,0.0704432694611,0.0469621796408,0.140886538922,0.133059508982,0.0234810898204,5.12994564681e-05,-4.72607904491e-05,-2.98662059486e-05,-8.03420107558e-05,-6.66706395607e-05,-3.1733588276e-05,-0.000423273164835,0.000375070410015,0.000264522215545,0.000844817345352,0.000864407776482,1.512089651e-05,0.0,0.0,0.0,0.0,0.0,0.0,0.0,0.0,0.0,0.0,0.0,0.0,-0.922761859037,-0.446493767805,-1.12186816035,-1.54362376589,2.238750607,0.201838721937
1455732143140046520,192,1455732143139606961,,0.401046037674,2.4411615511,-1.56872796824,0.00138057571577,-2.78837571887,-0.781468352642,0.437005566057,-0.017400700108,0.015654821068,0.0104510936713,0.0314026003864,0.029725787266,0.00510837270167,0.0,0.0,0.0,0.0,0.0,0.0,2.44110923828,-1.56867978373,0.00141102871015,-2.78829371706,-0.781400248719,0.437037827354,-0.0169751893564,0.0152776704207,0.0101851136138,0.0305553408415,0.0288578219058,0.00509255680691,-0.078590866835,0.0707317801515,0.047154520101,0.141463560303,0.13360447362,0.0235772600505,5.23128237147e-05,-4.81845054388e-05,-3.04529943735e-05,-8.20018059593e-05,-6.81039234014e-05,-3.22612968337e-05,-0.000425510751664,0.0003771506473,0.000265980057441,0.00084725954497,0.00086796536017,1.58158947555e-05,0.0,0.0,0.0,0.0,0.0,0.0,0.0,0.0,0.0,0.0,0.0,0.0,-0.913578641639,-0.464635324537,-1.13467043862,-1.55445153714,2.23855732072,0.19853830666
1455732143142251565,193,1455732143141690897,,0.403130054474,2.4411265814,-1.56869650709,0.00140157912099,-2.78831261223,-0.78140862401,0.437015833507,-0.0175690036959,0.0158063286944,0.0105523115438,0.0317040362969,0.030002844411,0.00515907741376,0.0,0.0,0.0,0.0,0.0,0.0,2.4410736908,-1.568647791,0.00143235719424,-2.78822973161,-0.781339818014,0.437048491596,-0.0171393031277,0.015425372815,0.0102835818766,0.0308507456299,0.0291368153172,0.00514179093832,-0.0789065324605,0.0710158792144,0.0473439194763,0.142031758429,0.134141105183,0.0236719597381,5.28905933916e-05,-4.8716081809e-05,-3.07780732471e-05,-8.28806215414e-05,-6.88059966421e-05,-3.26580887626e-05,-0.000429700568184,0.000380955879473,0.000268729667139,0.000853290666915,0.00086602909381,1.72864754315e-05,0.0,0.0,0.0,0.0,0.0,0.0,0.0,0.0,0.0,0.0,0.0,0.0,-0.929313353627,-0.42763803758,-1.11001444849,-1.53709201812,2.23909680677,0.203677874426
1455732143144373804,194,1455732143143781139,,0.405220270157,2.44109127307,-1.56866474075,0.00142278496361,-2.78824889468,-0.781348324937,0.437026202039,-0.0177393208846,0.0159600023457,0.0106535310767,0.0320135177347,0.0302962288985,0.00520945479747,0.0,0.0,0.0,0.0,0.0,0.0,2.44103769336,-1.56861539331,0.00145395565921,-2.78816493621,-0.781278622363,0.437059290828,-0.0173045648882,0.0155741083994,0.0103827389329,0.0311482167988,0.02941776031,0.00519136946647,-0.0792222216289,0.071299999466,0.0475333329773,0.142599998932,0.134677776769,0.0237666664887,5.35797104289e-05,-4.93474482248e-05,-3.11706955972e-05,-8.39584624215e-05,-6.97025740826e-05,-3.30887890367e-05,-0.000434755996407,0.000385893946324,0.000270792143722,0.000865300935894,0.000878468588533,1.80853310002e-05,0.0,0.0,0.0,0.0,0.0,0.0,0.0,0.0,0.0,0.0,0.0,0.0,-0.934368465808,-0.41428865132,-1.10130084716,-1.53119635125,2.23983431536,0.205311572668
1455732143146375033,195,1455732143145871865,,0.407310962677,2.44105562316,-1.56863266616,0.0014441936245,-2.78818455562,-0.781287429491,0.437036671258,-0.0179105899356,0.0161145876599,0.0107551298158,0.0323255402449,0.0305992172039,0.00525976366736,0.0,0.0,0.0,0.0,0.0,0.0,2.44100134147,-1.5685826766,0.00147576679554,-2.7880995028,-0.781216824143,0.437070196396,-0.0174705234759,0.0157234711283,0.0104823140855,0.0314469422566,0.029699889909,0.00524115704277,-0.0795370664786,0.0715833598307,0.0477222398872,0.143166719661,0.135213013014,0.0238611199436,5.42816934916e-05,-4.9989562714e-05,-3.15731710345e-05,-8.50528134313e-05,-7.06053475812e-05,-3.35251387367e-05,-0.000440066459739,0.000391116531542,0.000272815730212,0.000878597988285,0.000899327294886,1.86066245871e-05,0.0,0.0,0.0,0.0,0.0,0.0,0.0,0.0,0.0,0.0,0.0,0.0,-0.940007315378,-0.402331979725,-1.0939858302,-1.52733576503,2.24026250422,0.206241117481
1455732143148371642,196,1455732143147979023,,0.409418106079,2.44101962976,-1.56860028184,0.00146580693212,-2.78811959223,-0.781225931256,0.437047241317,-0.0180828064427,0.0162697329988,0.0108581778019,0.03263784887,0.0308990178089,0.0053102956809,0.0,0.0,0.0,0.0,0.0,0.0,2.44096435176,-1.56854938587,0.00149796061973,-2.78803292133,-0.781153941642,0.437081293308,-0.0176384529896,0.0158746076906,0.0105830717938,0.0317492153813,0.0299853700823,0.00529153589688,-0.0798534621885,0.0718681159697,0.0479120773131,0.143736231939,0.135750885721,0.0239560386566,5.52780041021e-05,-5.08959783454e-05,-3.21536876103e-05,-8.66708968967e-05,-7.19896144498e-05,-3.40519914852e-05,-0.000444353453152,0.00039512530817,0.000275106008176,0.000888633488718,0.000913647726554,1.87597840198e-05,0.0,0.0,0.0,0.0,0.0,0.0,0.0,0.0,0.0,0.0,0.0,0.0,-0.945479712456,-0.391104049842,-1.08723249978,-1.52422269765,2.24039405326,0.206938802322
1455732143150567040,197,1455732143150063734,,0.411502838135,2.44098329033,-1.56856758596,0.00148762764919,-2.78805400113,-0.781163835381,0.437057912518,-0.0182566258113,0.0164261502432,0.0109625392661,0.0329532488695,0.0311968568758,0.0053609048651,0.0,0.0,0.0,0.0,0.0,0.0,2.44092740656,-1.56851613518,0.00152012774002,-2.78796641997,-0.781091134801,0.437092376869,-0.017805251559,0.0160247264031,0.0106831509354,0.0320494528062,0.0302689276503,0.0053415754677,-0.080165578107,0.0721490202963,0.0480993468642,0.144298040593,0.136281482782,0.0240496734321,5.58837723292e-05,-5.14507755365e-05,-3.25000908309e-05,-8.75811600234e-05,-7.27005805832e-05,-3.44643510836e-05,-0.000451374252358,0.000401423840098,0.000279388330729,0.000903796063288,0.000927929225467,1.93293973984e-05,0.0,0.0,0.0,0.0,0.0,0.0,0.0,0.0,0.0,0.0,0.0,0.0,-0.957573766815,-0.364907120273,-1.07030743301,-1.51315858182,2.24076789109,0.210021437733
1455732143152654134,198,1455732143152153110,,0.413592100143,2.44094660214,-1.56853457631,0.00150965780298,-2.78798777733,-0.781101143857,0.437068685057,-0.0184315620605,0.0165835047555,0.011067614526,0.0332705551648,0.0314946676424,0.00541163463598,0.0,0.0,0.0,0.0,0.0,0.0,2.44089003153,-1.56848249766,0.00154255275484,-2.78789914493,-0.781027597259,0.437103589376,-0.0179730644164,0.0161757579747,0.0107838386498,0.0323515159495,0.0305542095078,0.00539191932491,-0.080477460247,0.0724297142223,0.0482864761482,0.144859428445,0.13681168242,0.0241432380741,5.65706091606e-05,-5.20786427707e-05,-3.28949518608e-05,-8.8632400455e-05,-7.35465980605e-05,-3.49043189935e-05,-0.000458497644153,0.000407746780761,0.000283775876147,0.000919039215282,0.000940458134551,1.97153110647e-05,0.0,0.0,0.0,0.0,0.0,0.0,0.0,0.0,0.0,0.0,0.0,0.0,-0.958149161174,-0.363904213586,-1.07043379105,-1.51466574466,2.24108671338,0.209374798925
1455732143154748833,199,1455732143154235089,,0.415674209595,2.44090956402,-1.56850125209,0.00153189880446,-2.78792092135,-0.781037860608,0.437079559535,-0.0186065563701,0.0167407083401,0.0111733869598,0.0335854249408,0.031788581236,0.0054628429715,0.0,0.0,0.0,0.0,0.0,0.0,2.44085243498,-1.56844866076,0.00156511068694,-2.78783147113,-0.780963683118,0.437114868342,-0.0181409500841,0.0163268550757,0.0108845700505,0.0326537101514,0.030839615143,0.00544228502523,-0.0807873671071,0.0727086303964,0.0484724202642,0.145417260793,0.137338524082,0.0242362101321,5.71290442295e-05,-5.25913278244e-05,-3.32118824746e-05,-8.94502166484e-05,-7.41774901309e-05,-3.53088074359e-05,-0.000465606285951,0.000413853264401,0.000288816909355,0.000931714789427,0.000948966092981,2.05579462638e-05,0.0,0.0,0.0,0.0,0.0,0.0,0.0,0.0,0.0,0.0,0.0,0.0,-0.959747354027,-0.360392507709,-1.06886342261,-1.51503651708,2.24146300928,0.209141581116
1455732143156976328,200,1455732143156328426,,0.417767524719,2.44087217597,-1.56846761365,0.00155435188197,-2.78785343783,-0.780973991231,0.437090536975,-0.018781500533,0.0168977344485,0.0112796905475,0.0338980923471,0.0320807958697,0.0055145971142,0.0,0.0,0.0,0.0,0.0,0.0,2.44081428302,-1.568414324,0.00158800186058,-2.78776279761,-0.780898824792,0.437126313929,-0.018310388818,0.0164793499362,0.0109862332908,0.0329586998724,0.0311276609906,0.0054931166454,-0.0810980292606,0.0729882263345,0.0486588175563,0.145976452669,0.137866649743,0.0243294087782,5.78929434005e-05,-5.32896455021e-05,-3.36499786114e-05,-9.06402202929e-05,-7.51664383504e-05,-3.57769541722e-05,-0.000471111714985,0.000418384512334,0.000293457256682,0.000939392474679,0.000953134879131,2.14804688004e-05,0.0,0.0,0.0,0.0,0.0,0.0,0.0,0.0,0.0,0.0,0.0,0.0,-0.958994727915,-0.360162675681,-1.06924641018,-1.51641724611,2.2418972904,0.208694544485
1455732143159019977,201,1455732143158423996,,0.419862985611,2.44083443765,-1.56843366063,0.00157701732194,-2.78778532772,-0.780909532292,0.437101618196,-0.0189568180311,0.0170552834834,0.0113857494208,0.0342120177944,0.0323781428183,0.00556662432995,0.0,0.0,0.0,0.0,0.0,0.0,2.44077573604,-1.56837963172,0.00161113004841,-2.78769341305,-0.780833294927,0.437137878023,-0.0184806515911,0.0166325864319,0.0110883909546,0.0332651728639,0.0314171077048,0.00554419547732,-0.0814080941556,0.07326728474,0.0488448564933,0.14653456948,0.138393760064,0.0244224282467,5.8701604551e-05,-5.40289093134e-05,-3.4112726472e-05,-9.19146736376e-05,-7.62373651774e-05,-3.62598266425e-05,-0.000476166440014,0.000422697051435,0.000297358466159,0.000946844930512,0.000961035113479,2.24288526356e-05,0.0,0.0,0.0,0.0,0.0,0.0,0.0,0.0,0.0,0.0,0.0,0.0,-0.964396618437,-0.345174947566,-1.05949742725,-1.50980186681,2.24251780437,0.210647960857
1455732143161082449,202,1455732143160518815,,0.421957969666,2.44079634752,-1.56839939101,0.0015998941533,-2.78771658435,-0.780844467818,0.437112803345,-0.0191333093992,0.0172143422412,0.0114910819421,0.0345313543844,0.0326863311109,0.00561852461511,0.0,0.0,0.0,0.0,0.0,0.0,2.4407368405,-1.56834462573,0.00163446737542,-2.78762340106,-0.7807671725,0.437149546686,-0.0186515241679,0.0167863717511,0.0111909145008,0.0335727435023,0.0317075910855,0.00559545725038,-0.0817171733747,0.0735454560372,0.0490303040248,0.147090912074,0.138919194737,0.0245151520124,5.95070221392e-05,-5.47652741056e-05,-3.45732221202e-05,-9.31832824924e-05,-7.72953177797e-05,-3.6743341203e-05,-0.000481785231261,0.000427970490087,0.000300167441374,0.000958610882105,0.000978740025394,2.30673647362e-05,0.0,0.0,0.0,0.0,0.0,0.0,0.0,0.0,0.0,0.0,0.0,0.0,-0.971475696628,-0.326782722113,-1.04748768659,-1.50151687978,2.24308951631,0.213012174444
1455732143163194171,203,1455732143162616610,,0.424055576324,2.44075790318,-1.56836480191,0.00162298152548,-2.78764719786,-0.78077878275,0.437124092169,-0.0193110318178,0.0173747538449,0.0115962902383,0.034855131975,0.0329987372467,0.00567029879614,0.0,0.0,0.0,0.0,0.0,0.0,2.44069753694,-1.56830925252,0.0016580495136,-2.78755265465,-0.780700356442,0.437161337755,-0.0188232584235,0.0169409325812,0.0112939550541,0.0338818651623,0.03199953932,0.00564697752706,-0.082025723526,0.0738231511734,0.0492154341156,0.147646302347,0.139443729994,0.0246077170578,6.03662445413e-05,-5.55493852765e-05,-3.50679881112e-05,-9.45432106474e-05,-7.84263075746e-05,-3.72455868775e-05,-0.000487773394332,0.00043382126377,0.000302335184239,0.000973266812705,0.000999197926747,2.33212690842e-05,0.0,0.0,0.0,0.0,0.0,0.0,0.0,0.0,0.0,0.0,0.0,0.0,-0.977764470046,-0.31190993598,-1.0380838409,-1.49587823556,2.24338969628,0.214485668377
1455732143165269560,204,1455732143164712671,,0.426151752472,2.44071910225,-1.56832989113,0.0016462804327,-2.78757716195,-0.780712476789,0.437135484643,-0.0194899030676,0.0175360259859,0.0117026169746,0.0351807799592,0.0333072237316,0.00572217538045,0.0,0.0,0.0,0.0,0.0,0.0,2.44065789964,-1.56827357896,0.00168183189316,-2.78748130751,-0.780632973033,0.437173228945,-0.0189955211567,0.017095969041,0.011397312694,0.034191938082,0.0322923859663,0.005698656347,-0.0823331483748,0.0740998335374,0.0493998890249,0.148199667075,0.139966352237,0.0246999445125,6.12026089293e-05,-5.63121747921e-05,-3.55514604623e-05,-9.58544374057e-05,-7.95037553611e-05,-3.77443024829e-05,-0.000494381910982,0.000440056944934,0.000305304280571,0.000988841877252,0.00101483776526,2.35190334515e-05,0.0,0.0,0.0,0.0,0.0,0.0,0.0,0.0,0.0,0.0,0.0,0.0,-0.984437601513,-0.297537016864,-1.02915208525,-1.49114468343,2.24359338756,0.215661274271
1455732143167583510,205,1455732143166824702,,0.428263902664,2.44067994255,-1.56829465726,0.00166979369047,-2.78750647442,-0.780645557843,0.437146981144,-0.0196697903834,0.0176978403137,0.0118106407992,0.0355067466557,0.0336117225579,0.00577432579755,0.0,0.0,0.0,0.0,0.0,0.0,2.44061759436,-1.56823730421,0.0017060150581,-2.78740875802,-0.780564454066,0.437185320528,-0.0191697474568,0.0172527727111,0.0115018484741,0.0345055454222,0.0325885706765,0.00575092423704,-0.0826419916811,0.0743777925129,0.0495851950086,0.148755585026,0.140491385858,0.0247925975043,6.23481903808e-05,-5.73530559047e-05,-3.62213676302e-05,-9.77164056155e-05,-8.11037764062e-05,-3.83393837758e-05,-0.00050004292661,0.000445067602581,0.000308792325151,0.00100120123349,0.0010231518814,2.34015605117e-05,0.0,0.0,0.0,0.0,0.0,0.0,0.0,0.0,0.0,0.0,0.0,0.0,-0.989540664489,-0.286699346761,-1.02260492588,-1.48814561802,2.24392303918,0.216360187897
1455732143169702543,206,1455732143168948511,,0.430387496948,2.44064042154,-1.56825909849,0.0016935241851,-2.78743513176,-0.780578022347,0.437158582001,-0.0198512227701,0.0178609355205,0.0119198538321,0.0358359137022,0.0339237727539,0.0058265317642,0.0,0.0,0.0,0.0,0.0,0.0,2.44057669902,-1.5682004984,0.0017305522635,-2.7873351464,-0.780494931984,0.43719758913,-0.0193455743971,0.0174110169574,0.0116073446383,0.0348220339148,0.0328874764751,0.00580367231913,-0.0829515737788,0.074656416401,0.0497709442673,0.149312832802,0.141017675424,0.0248854721337,6.37225195539e-05,-5.86000881644e-05,-3.70280783948e-05,-9.99853614454e-05,-8.30903630493e-05,-3.9007128912e-05,-0.000505648373018,0.000449918563124,0.000312509193814,0.00101387978741,0.00103629627886,2.28594450656e-05,0.0,0.0,0.0,0.0,0.0,0.0,0.0,0.0,0.0,0.0,0.0,0.0,-1.00134739175,-0.260728251517,-1.00581775746,-1.4770838378,2.2446066443,0.219477991956
1455732143171571758,207,1455732143171045174,,0.432484149933,2.44060053504,-1.56822321084,0.00171747345056,-2.78736312216,-0.78050984353,0.437170286827,-0.0200352765631,0.0180267168534,0.0120294116298,0.0361736903218,0.0342550447904,0.00587829374122,0.0,0.0,0.0,0.0,0.0,0.0,2.44053595551,-1.56816382924,0.00175499836672,-2.78726180809,-0.780425668025,0.437209812182,-0.019519814684,0.0175678332156,0.0117118888104,0.0351356664312,0.0331836849628,0.0058559444052,-0.0832563097149,0.0749306787434,0.049953785829,0.149861357487,0.141535726515,0.0249768929145,6.45795255947e-05,-5.93815906269e-05,-3.75249161573e-05,-0.000101314067094,-8.41755046406e-05,-3.95253550187e-05,-0.000515461879127,0.000458883637761,0.000317522819353,0.00103802389059,0.00107135982761,2.23493360201e-05,0.0,0.0,0.0,0.0,0.0,0.0,0.0,0.0,0.0,0.0,0.0,0.0,-1.01711292174,-0.226476996812,-0.983564951038,-1.46179419705,2.24533515193,0.223758610952
1455732143173734501,208,1455732143173141482,,0.434580564499,2.44056027907,-1.5681869904,0.00174164248566,-2.7872904346,-0.780441002547,0.437182095158,-0.0202206969699,0.018193714988,0.0121396234699,0.0365138655215,0.0345859379708,0.00593003783133,0.0,0.0,0.0,0.0,0.0,0.0,2.44049485071,-1.56812683492,0.00177966124693,-2.78718781945,-0.780355789864,0.437222143622,-0.019694673018,0.0177252057162,0.0118168038108,0.0354504114323,0.0334809441305,0.00590840190539,-0.0835600991643,0.0752040892479,0.0501360594986,0.150408178496,0.142052168579,0.0250680297493,6.54283524084e-05,-6.01554790982e-05,-3.8018761266e-05,-0.000102615151876,-8.521268247e-05,-4.00484635504e-05,-0.000526023951993,0.000468509271875,0.000322819659139,0.00106345408916,0.00110499384024,2.16359259467e-05,0.0,0.0,0.0,0.0,0.0,0.0,0.0,0.0,0.0,0.0,0.0,0.0,-1.01687540216,-0.228799702173,-0.986303113415,-1.46595716104,2.24530365473,0.222179958572
1455732143175922303,209,1455732143175256853,,0.436696052551,2.44051965269,-1.56815043706,0.00176603380003,-2.78721707366,-0.780371524883,0.437194007881,-0.0204056744481,0.0183596283612,0.0122516908982,0.0368470814303,0.034891725653,0.0059826843617,0.0,0.0,0.0,0.0,0.0,0.0,2.44045299966,-1.56808916898,0.00180477187779,-2.78711248756,-0.780284643077,0.437234698937,-0.019871766851,0.0178845901659,0.0119230601106,0.0357691803318,0.0337820036467,0.00596153005531,-0.0838657290283,0.0754791561255,0.050319437417,0.150958312251,0.142571739348,0.0251597187085,6.66530324174e-05,-6.12680820331e-05,-3.87380777541e-05,-0.000104586097493,-8.6881806272e-05,-4.06910567854e-05,-0.000533907597041,0.000475038195276,0.000328630787589,0.00107790109842,0.0011097220063,2.11543063965e-05,0.0,0.0,0.0,0.0,0.0,0.0,0.0,0.0,0.0,0.0,0.0,0.0,-1.01492522772,-0.234350811565,-0.991123170189,-1.47203547217,2.24514112736,0.220188861075
1455732143177913699,210,1455732143177355623,,0.438794612885,2.44047865586,-1.56811355175,0.0017906506101,-2.78714304767,-0.780301440973,0.43720602654,-0.0205911622548,0.0185256837804,0.0123651191719,0.0371789027717,0.0351921848697,0.0060359747238,0.0,0.0,0.0,0.0,0.0,0.0,2.44041111267,-1.56805147068,0.00182990407428,-2.78703709097,-0.780213435187,0.437247265036,-0.020048081467,0.0180432733203,0.0120288488802,0.0360865466406,0.0340817384939,0.00601442444011,-0.0841679974706,0.0757511977235,0.0505007984823,0.151502395447,0.1430855957,0.0252503992412,6.7543189878e-05,-6.20810646388e-05,-3.9253464182e-05,-0.000105956702785,-8.80057858271e-05,-4.12384959489e-05,-0.000543080787766,0.000482410460115,0.000336270291699,0.00109235613111,0.00111044637577,2.15502836914e-05,0.0,0.0,0.0,0.0,0.0,0.0,0.0,0.0,0.0,0.0,0.0,0.0,-1.02350210231,-0.213561016681,-0.977610599125,-1.46313015807,2.24588329599,0.222843791925
1455732143180101549,211,1455732143179457019,,0.440896034241,2.44043728722,-1.56807633321,0.00181549374667,-2.78706835452,-0.780230737849,0.43721815189,-0.0207774761062,0.0186928513804,0.0124780173951,0.037514244811,0.0355109393081,0.0060893752336,0.0,0.0,0.0,0.0,0.0,0.0,2.44036879714,-1.56801338671,0.00185529339262,-2.78696092301,-0.780141498785,0.437259959695,-0.0202252711245,0.018202744012,0.0121351626747,0.036405488024,0.0343829609116,0.00606758133734,-0.0844697647351,0.0760227882616,0.050681858841,0.152045576523,0.14359860005,0.0253409294205,6.84900820782e-05,-6.29465069832e-05,-3.97996459517e-05,-0.000107431510213,-8.92390636033e-05,-4.18078051598e-05,-0.000552204981771,0.000490107368327,0.000342854720378,0.00110875678691,0.00112797839648,2.17938962628e-05,0.0,0.0,0.0,0.0,0.0,0.0,0.0,0.0,0.0,0.0,0.0,0.0,-1.02400346541,-0.208989124877,-0.974916849551,-1.46150935611,2.24680949437,0.223326923451
1455732143182275383,212,1455732143181571347,,0.4430103302,2.44039554583,-1.56803877984,0.00184056171841,-2.78699298949,-0.780159386856,0.437230384229,-0.0209639143796,0.0188605211692,0.0125899543442,0.0378507928571,0.0358400535847,0.0061429641044,0.0,0.0,0.0,0.0,0.0,0.0,2.4403258459,-1.56797473059,0.00188106413367,-2.78688361079,-0.780068481685,0.437272845065,-0.0204041853625,0.0183637668262,0.0122425112175,0.0367275336524,0.0346871151162,0.00612125560874,-0.0847724592637,0.0762952133373,0.0508634755582,0.152590426675,0.144113180748,0.0254317377791,6.96999266752e-05,-6.40492460082e-05,-4.05024152622e-05,-0.000109378695694,-9.09051703516e-05,-4.24608363467e-05,-0.000559729017135,0.000496754342993,0.00034744312677,0.00112325920469,0.00115293846856,2.17084956592e-05,0.0,0.0,0.0,0.0,0.0,0.0,0.0,0.0,0.0,0.0,0.0,0.0,-1.02568144211,-0.202520127234,-0.971136980912,-1.45965392026,2.2472944975,0.223808648829
1455732143184363195,213,1455732143183666641,,0.445105791092,2.4403534306,-1.56800089001,0.00186585340353,-2.78691694801,-0.780087377767,0.437242723844,-0.0211513198242,0.0190293043694,0.0127017307748,0.0381906821298,0.0361690351541,0.00619665094044,0.0,0.0,0.0,0.0,0.0,0.0,2.4402829034,-1.56793608234,0.00190682963822,-2.78680631428,-0.779995479422,0.437285727818,-0.0205821362561,0.0185239226305,0.0123492817537,0.037047845261,0.0349896316354,0.00617464087684,-0.0850715459603,0.0765643913642,0.0510429275762,0.153128782728,0.144621628132,0.0255214637881,7.05272000556e-05,-6.48076772951e-05,-4.09762346936e-05,-0.000110633734358,-9.18983445054e-05,-4.30039735771e-05,-0.000569183568028,0.000505381738926,0.000352449021083,0.00114283686874,0.00117940351868,2.20100635992e-05,0.0,0.0,0.0,0.0,0.0,0.0,0.0,0.0,0.0,0.0,0.0,0.0,-1.03477085189,-0.180120925793,-0.956586640995,-1.450127848,2.24755786651,0.226509470383
1455732143186419695,214,1455732143185785697,,0.447224855423,2.44031093983,-1.56796266206,0.00189136924123,-2.78684022556,-0.780014720347,0.437255171099,-0.0213394444918,0.0191986549726,0.0128141069301,0.0385317723704,0.0364883846271,0.00625060417072,0.0,0.0,0.0,0.0,0.0,0.0,2.44023909729,-1.56789665685,0.00193311329864,-2.78672746329,-0.779921009051,0.437298869648,-0.0207627279831,0.0186864551848,0.0124576367899,0.0373729103697,0.0352966375713,0.00622881839494,-0.0853730797481,0.0768357717733,0.0512238478489,0.153671543547,0.145134235572,0.0256119239244,7.18425364457e-05,-6.60052085886e-05,-4.17440574124e-05,-0.000112762261129,-9.37112959246e-05,-4.36985486778e-05,-0.000576716508655,0.000512199787776,0.000356470140235,0.0011588620008,0.00119174705573,2.17857757764e-05,0.0,0.0,0.0,0.0,0.0,0.0,0.0,0.0,0.0,0.0,0.0,0.0,-1.03413672192,-0.179829078718,-0.957009210027,-1.4520858549,2.24762009359,0.225770024131
1455732143188669805,215,1455732143187889470,,0.449328660965,2.44026807193,-1.56792409479,0.00191711093926,-2.7867628198,-0.779941426482,0.437267726547,-0.0215284607882,0.0193686154177,0.0129275910999,0.0388739846824,0.0368054805284,0.00630484328966,0.0,0.0,0.0,0.0,0.0,0.0,2.4401952274,-1.56785717394,0.00195943523447,-2.78664849749,-0.779846430233,0.437312030616,-0.0209426504379,0.0188483853941,0.0125655902627,0.0376967707882,0.0356025057444,0.00628279513137,-0.0856715260121,0.0771043734109,0.0514029156073,0.154208746822,0.145641594221,0.0257014578036,7.28445242153e-05,-6.69208419428e-05,-4.23242952122e-05,-0.000114322311565,-9.49962489536e-05,-4.43040691323e-05,-0.000585810350344,0.000520230023618,0.00036200083713,0.00117721389418,0.001202974784,2.20481582966e-05,0.0,0.0,0.0,0.0,0.0,0.0,0.0,0.0,0.0,0.0,0.0,0.0,-1.04500753342,-0.154880903487,-0.940796975115,-1.44165827327,2.24822126742,0.228757862614
1455732143190770186,216,1455732143189996812,,0.451435804367,2.44022482474,-1.56788518651,0.00194308051209,-2.78668472679,-0.779867487642,0.437280390579,-0.021718721776,0.0195396577711,0.0130419817245,0.0392190251778,0.0371333590596,0.0063591885841,0.0,0.0,0.0,0.0,0.0,0.0,2.44015090782,-1.56781728632,0.00198602698335,-2.78656872224,-0.779771086945,0.43732532649,-0.0211234867594,0.0190111380834,0.0126740920556,0.0380222761668,0.0359099274909,0.00633704602781,-0.0859695314156,0.077372578274,0.0515817188493,0.154745156548,0.146148203406,0.0257908594247,7.39169231112e-05,-6.7900192068e-05,-4.29464712639e-05,-0.000116004548333,-9.64006978478e-05,-4.49359116966e-05,-0.000595235016605,0.000528519687649,0.000367889668903,0.00119674901099,0.00122343156868,2.2142556291e-05,0.0,0.0,0.0,0.0,0.0,0.0,0.0,0.0,0.0,0.0,0.0,0.0,-1.04785137608,-0.147369663029,-0.936370876902,-1.43975018765,2.24887130258,0.229191580197
1455732143192749698,217,1455732143192094760,,0.453533887863,2.44018119656,-1.5678459358,0.00196927949259,-2.78660594385,-0.779792889011,0.437293163608,-0.0219094642505,0.0197110550591,0.013156998777,0.0395639135254,0.0374652722867,0.00641384049378,0.0,0.0,0.0,0.0,0.0,0.0,2.44010639955,-1.56777722887,0.00201273194722,-2.78648860735,-0.77969542288,0.437338678972,-0.0213041684958,0.0191737516462,0.0127825010975,0.0383475032924,0.0362170864428,0.00639125054873,-0.0862653470586,0.0776388123527,0.0517592082351,0.155277624705,0.14665109,0.0258796041176,7.47970102055e-05,-6.87069250465e-05,-4.34524546347e-05,-0.000117336501247,-9.74661308063e-05,-4.55153645548e-05,-0.000605295754678,0.000537303412887,0.000374497679551,0.00121641023305,0.00124818584388,2.25899450515e-05,0.0,0.0,0.0,0.0,0.0,0.0,0.0,0.0,0.0,0.0,0.0,0.0,-1.05125026811,-0.13888874975,-0.931435225377,-1.43767571963,2.2492887391,0.229667192681
1455732143194859096,218,1455732143194197107,,0.455636262894,2.4401371868,-1.56780634234,0.00199570903564,-2.78652647287,-0.779717633778,0.437306046463,-0.0221002952405,0.0198824022992,0.0132725442775,0.039907063358,0.0377899609713,0.00646901452905,0.0,0.0,0.0,0.0,0.0,0.0,2.44006141933,-1.56773674668,0.00203972007643,-2.78640764296,-0.779618956514,0.437352173037,-0.0214858414054,0.0193372572649,0.0128915048433,0.0386745145298,0.0365259303892,0.00644575242163,-0.0865608592513,0.0779047733262,0.0519365155508,0.155809546652,0.147153460727,0.0259682577754,7.57674660536e-05,-6.95956614936e-05,-4.40110407837e-05,-0.000118829911974,-9.86772636254e-05,-4.61265741338e-05,-0.000614453835106,0.00054514503432,0.000381039434293,0.00123254882823,0.00126403058203,2.32621074245e-05,0.0,0.0,0.0,0.0,0.0,0.0,0.0,0.0,0.0,0.0,0.0,0.0,-1.05020836299,-0.139216787196,-0.932366607761,-1.43987050174,2.24945421556,0.228910628982
1455732143196937986,219,1455732143196301320,,0.457740306854,2.44009279541,-1.56776640626,0.00202236980201,-2.78644631694,-0.779641737242,0.437319040212,-0.0222910875456,0.0200536840857,0.0133882220914,0.0402488676915,0.0381065745561,0.00652473513915,0.0,0.0,0.0,0.0,0.0,0.0,2.44001602036,-1.5676958876,0.00206695946146,-2.78632592481,-0.779541778257,0.437365792729,-0.0216682795931,0.0195014516338,0.0130009677558,0.0390029032675,0.0368360753082,0.00650048387792,-0.0868556962431,0.0781701266188,0.0521134177458,0.156340253238,0.147654683613,0.0260567088729,7.67750583277e-05,-7.05186526626e-05,-4.45896594509e-05,-0.000120392136033,-9.99589857001e-05,-4.67525169837e-05,-0.000622807952569,0.000552232451904,0.000387254335516,0.00124596442401,0.00127049924784,2.42512612249e-05,0.0,0.0,0.0,0.0,0.0,0.0,0.0,0.0,0.0,0.0,0.0,0.0,-1.05209174224,-0.131991431816,-0.9280180128,-1.43778692222,2.2498373023,0.229500058884
1455732143199094539,220,1455732143198401762,,0.459840774536,2.44004802196,-1.56772612693,0.00204926155875,-2.78636547541,-0.779565202542,0.437332145651,-0.0224823653156,0.0202256397279,0.0135035346515,0.0405926640339,0.0384281258767,0.0065807040083,0.0,0.0,0.0,0.0,0.0,0.0,2.43997031502,-1.5676547528,0.0020943826649,-2.7862436552,-0.77946407918,0.437379504331,-0.0218510255034,0.0196659229531,0.013110615302,0.0393318459061,0.0371467433558,0.00655530765102,-0.0871491250161,0.0784342125145,0.0522894750096,0.156868425029,0.148153512527,0.0261447375048,7.77069445301e-05,-7.13741340062e-05,-4.51211061461e-05,-0.000121820214622,-0.000101123361675,-4.73586795552e-05,-0.000631339812148,0.000559716774831,0.000392919349431,0.00126081812777,0.00128138252088,2.53963572722e-05,0.0,0.0,0.0,0.0,0.0,0.0,0.0,0.0,0.0,0.0,0.0,0.0,-1.0559559489,-0.119735087544,-0.920134141105,-1.43272406505,2.25053764653,0.230988674194
1455732143201151149,221,1455732143200502632,,0.461941719055,2.44000286541,-1.56768550294,0.00207638353945,-2.78628394387,-0.779488015038,0.437345363146,-0.0226741823224,0.0203983528951,0.0136184460483,0.0409388772372,0.0387593778713,0.00663679045031,0.0,0.0,0.0,0.0,0.0,0.0,2.43992421467,-1.56761326249,0.00212204287154,-2.78616067458,-0.779385708595,0.437393334434,-0.0220344284957,0.0198309856461,0.0132206570974,0.0396619712922,0.0374585284427,0.0066103285487,-0.0874417145348,0.0786975430813,0.0524650287209,0.157395086163,0.148650914709,0.0262325143604,7.86507412913e-05,-7.22404513425e-05,-4.56593320859e-05,-0.000123269293269,-0.000102306443406,-4.79712884164e-05,-0.000639753826673,0.000567367248978,0.000397788950871,0.00127690594501,0.00130084942865,2.64619016031e-05,0.0,0.0,0.0,0.0,0.0,0.0,0.0,0.0,0.0,0.0,0.0,0.0,-1.05836188748,-0.111184956261,-0.914826060122,-1.42981239235,2.25114807438,0.231780792916
1455732143203380457,222,1455732143202604968,,0.464044094086,2.43995732481,-1.56764453308,0.00210373553957,-2.78620171899,-0.779410163137,0.437358693038,-0.0228664249885,0.0205715018241,0.0137335540632,0.0412860001931,0.039092523303,0.0066931014911,0.0,0.0,0.0,0.0,0.0,0.0,2.43987769658,-1.5675713962,0.00214995372723,-2.78607694201,-0.779306627837,0.437407289862,-0.022218570755,0.0199967136795,0.013331142453,0.039993427359,0.0377715702835,0.00666557122651,-0.0877335971296,0.0789602374166,0.0526401582778,0.157920474833,0.14914711512,0.0263200791389,7.96282267954e-05,-7.31368801572e-05,-4.62181876636e-05,-0.000124776982907,-0.000103535300018,-4.85968243196e-05,-0.000647854233482,0.000574788144583,0.000402411610226,0.00129257283403,0.00132095301946,2.75302645879e-05,0.0,0.0,0.0,0.0,0.0,0.0,0.0,0.0,0.0,0.0,0.0,0.0,-1.06132161762,-0.102108900217,-0.909263093144,-1.42714032688,2.25149331193,0.232454220039
1455732143205397743,223,1455732143204700641,,0.466139793396,2.43991139913,-1.5676032165,0.00213131841256,-2.78611879911,-0.779331649158,0.437372135832,-0.0230592528758,0.0207450844655,0.0138493189307,0.0416338776993,0.0394214553488,0.00674969232538,0.0,0.0,0.0,0.0,0.0,0.0,2.43983094026,-1.56752931552,0.00217800751738,-2.78599278064,-0.779227142098,0.437421316757,-0.0224027380845,0.0201624642761,0.0134416428507,0.0403249285521,0.0380846547437,0.00672082142535,-0.0880236515086,0.0792212863577,0.0528141909052,0.158442572715,0.149640207565,0.0264070954526,8.04588658525e-05,-7.39009790964e-05,-4.66891048224e-05,-0.000126018475472,-0.000104507060132,-4.91809255795e-05,-0.000656514791264,0.000582620189493,0.000407676079968,0.00130894914722,0.00133680060516,2.88709000258e-05,0.0,0.0,0.0,0.0,0.0,0.0,0.0,0.0,0.0,0.0,0.0,0.0,-1.06544001123,-0.0906663177413,-0.902110183319,-1.42337016656,2.25177782579,0.233445100207
1455732143207407554,224,1455732143206819261,,0.46825838089,2.43986508744,-1.56756155257,0.00215913346159,-2.78603518373,-0.779252482362,0.437385692171,-0.0232524315168,0.0209188440214,0.0139657300993,0.0419815093792,0.0397453406103,0.006806646503,0.0,0.0,0.0,0.0,0.0,0.0,2.43978328034,-1.56748642159,0.00220660347108,-2.78590699278,-0.779146120229,0.437435614734,-0.0225895336942,0.0203305803248,0.0135537202165,0.0406611606495,0.0384022072801,0.00677686010826,-0.0883159597185,0.0794843637467,0.0529895758311,0.158968727493,0.150137131522,0.0264947879156,8.18071042827e-05,-7.513098115e-05,-4.74700094861e-05,-0.000128190949475,-0.000106362132972,-4.9922563598e-05,-0.000662897822627,0.000588263696603,0.000412009882798,0.00132034872968,0.00134313333016,2.97863947368e-05,0.0,0.0,0.0,0.0,0.0,0.0,0.0,0.0,0.0,0.0,0.0,0.0,-1.06607534286,-0.0868542235986,-0.90011392063,-1.42336270672,2.25212433594,0.233336992851
1455732143209552519,225,1455732143208919060,,0.470358133316,2.43981838812,-1.56751953983,0.0021871816268,-2.78595086899,-0.779172658732,0.437399362417,-0.0234468910408,0.0210938996867,0.0140824351164,0.0423332274824,0.0400782893536,0.00686360023555,0.0,0.0,0.0,0.0,0.0,0.0,2.43973565301,-1.56744355699,0.00223517986988,-2.78582126358,-0.779065153766,0.437449902934,-0.0227752787105,0.0204977508395,0.0136651672263,0.040995501679,0.0387179738079,0.00683258361316,-0.088604763204,0.0797442868836,0.0531628579224,0.159488573767,0.150628097447,0.0265814289612,8.27351130686e-05,-7.59828356516e-05,-4.79982430768e-05,-0.000129605409032,-0.000107504966293,-5.05405162626e-05,-0.000671612330297,0.000596148847172,0.000417267890104,0.00133772580346,0.00136031554572,3.10166223901e-05,0.0,0.0,0.0,0.0,0.0,0.0,0.0,0.0,0.0,0.0,0.0,0.0,-1.07933765068,-0.0553200494363,-0.879377405117,-1.40911319414,2.25294004762,0.237459225398
1455732143211698223,226,1455732143211022876,,0.472461938858,2.43977129845,-1.56747717545,0.00221546330041,-2.78586584604,-0.779092157179,0.437413146411,-0.0236427848818,0.021270471546,0.0141992384837,0.0426897190417,0.0404232637426,0.00692039384378,0.0,0.0,0.0,0.0,0.0,0.0,2.43968754196,-1.56740025704,0.00226404650154,-2.78573466369,-0.778983364976,0.437464336249,-0.0229619894898,0.0206657905409,0.0137771936939,0.0413315810817,0.0390353821327,0.00688859684695,-0.0888932203561,0.0800038983205,0.0533359322137,0.160007796641,0.151118474605,0.0266679661068,8.37564899112e-05,-7.69184119078e-05,-4.85832011358e-05,-0.000131182357486,-0.000108792202897,-5.11898380128e-05,-0.000680795391994,0.000604681005102,0.000422044789821,0.00135813796001,0.00138788160992,3.17969968308e-05,0.0,0.0,0.0,0.0,0.0,0.0,0.0,0.0,0.0,0.0,0.0,0.0,-1.08162133169,-0.0486983362062,-0.875635504024,-1.40775599486,2.25341954985,0.237643977962
1455732143213817422,227,1455732143213123463,,0.474562644958,2.43972381661,-1.56743445779,0.00224397936021,-2.78578011116,-0.779010971409,0.437427044302,-0.0238390482585,0.0214471913267,0.014316821317,0.0430451619638,0.0407625065601,0.00697749702391,0.0,0.0,0.0,0.0,0.0,0.0,2.43963910921,-1.56735666757,0.00229310614802,-2.78564748475,-0.778901029311,0.437478866073,-0.023149029766,0.0208341267894,0.0138894178596,0.0416682535788,0.0393533506022,0.00694470892979,-0.0891803506083,0.0802623155475,0.053508210365,0.160524631095,0.151606596034,0.0267541051825,8.47074009043e-05,-7.7790218755e-05,-4.91267878151e-05,-0.00013262641592,-0.000109942097621,-5.18217703852e-05,-0.000690018492549,0.00061306453736,0.000427403457372,0.00137690838507,0.00140915595791,3.27880941188e-05,0.0,0.0,0.0,0.0,0.0,0.0,0.0,0.0,0.0,0.0,0.0,0.0,-1.08468590817,-0.0413886219152,-0.871612395978,-1.40685918626,2.25356863716,0.237686413562
1455732143215814893,228,1455732143215221642,,0.476660728455,2.43967594195,-1.56739138675,0.00227273181094,-2.78569366732,-0.778929118128,0.437441056914,-0.0240356176413,0.0216238504926,0.0144356294167,0.0433986809576,0.0410907744468,0.00703511524366,0.0,0.0,0.0,0.0,0.0,0.0,2.43959034412,-1.56731277899,0.00232236520269,-2.78555970758,-0.778818128656,0.4374934956,-0.0233364376374,0.0210027938737,0.0140018625825,0.0420055877474,0.0396719439836,0.00700093129123,-0.0894662235665,0.0805196012098,0.0536797341399,0.16103920242,0.152092580063,0.0268398670699,8.55978261218e-05,-7.8607758941e-05,-4.96333917516e-05,-0.000133959737009,-0.000110989471513,-5.24386854526e-05,-0.000699180003873,0.000621056618876,0.000433766834225,0.00139309321026,0.00141883046318,3.41839524307e-05,0.0,0.0,0.0,0.0,0.0,0.0,0.0,0.0,0.0,0.0,0.0,0.0,-1.08633586533,-0.0360945255521,-0.868764749329,-1.40657226068,2.25379744911,0.237629775562
1455732143217900802,229,1455732143217336308,,0.478775501251,2.43962767406,-1.56734796246,0.00230172244631,-2.78560651784,-0.778846611714,0.437455185253,-0.0242322714028,0.0218004381256,0.0145550059573,0.0437507959981,0.0414156396713,0.00709322368327,0.0,0.0,0.0,0.0,0.0,0.0,2.43954079258,-1.56726818261,0.00235209612432,-2.78547051482,-0.778733891045,0.437508361061,-0.0235259422561,0.0211733480305,0.0141155653537,0.0423466960611,0.0399941018355,0.00705778267684,-0.0897534622572,0.0807781160315,0.0538520773543,0.161556232063,0.152580885837,0.0269260386772,8.68814731194e-05,-7.97798527601e-05,-5.03736780026e-05,-0.000136003024928,-0.000112720668666,-5.31758073382e-05,-0.000706329146662,0.000627090095097,0.000439440603619,0.00140409993705,0.00142153783582,3.54410064239e-05,0.0,0.0,0.0,0.0,0.0,0.0,0.0,0.0,0.0,0.0,0.0,0.0,-1.0868333455,-0.0319796794877,-0.866530934469,-1.40618054335,2.25434393984,0.237691327572
1455732143220048200,230,1455732143219437061,,0.480876207352,2.43957901185,-1.56730418375,0.00233095145571,-2.78551866,-0.778763441008,0.437469429805,-0.0244299375339,0.0219782710501,0.0146740034406,0.0441070494959,0.0417550664497,0.00715132777485,0.0,0.0,0.0,0.0,0.0,0.0,2.43949117325,-1.5672235252,0.00238186772788,-2.78538120001,-0.778649538168,0.437523246863,-0.0237147868069,0.0213433081263,0.0142288720842,0.0426866162525,0.0403151375718,0.00711443604208,-0.090037888317,0.0810340994853,0.0540227329902,0.162068198971,0.153064410139,0.0270113664951,8.78386034526e-05,-8.0658548927e-05,-5.09162721664e-05,-0.000137459990119,-0.000113902839303,-5.3817057661e-05,-0.000715150726944,0.000634962923881,0.000445131356481,0.0014204332434,0.00143992887794,3.6891732769e-05,0.0,0.0,0.0,0.0,0.0,0.0,0.0,0.0,0.0,0.0,0.0,0.0,-1.09736726222,-0.00514418974835,-0.848866616319,-1.39384227952,2.25528472409,0.241297351853
